; Generated by Kiri:Moto 4.0.29
; Wed Sep 25 2024 11:56:19 GMT-0400 (Eastern Daylight Time)
; Bed left:0 right:600 top:600 bottom:0
; Stock X:90.45 Y:40.01 Z:10
; Target: LatheEngraver
; --- process ---
; processName = LatheEngraver
; camLevelTool = 1000
; camLevelSpindle = 1000
; camLevelOver = 0.75
; camLevelSpeed = 1000
; camLevelDown = 0
; camRoughTool = 1722214144972
; camRoughSpindle = 1000
; camRoughDown = 1
; camRoughOver = 0.4
; camRoughSpeed = 1000
; camRoughPlunge = 250
; camRoughStock = 0
; camRoughVoid = true
; camRoughFlat = true
; camRoughTop = false
; camRoughIn = true
; camRoughOn = true
; camOutlineTool = 1722214144972
; camOutlineSpindle = 1000
; camOutlineDown = 1
; camOutlineOver = 0.4
; camOutlineSpeed = 200
; camOutlinePlunge = 200
; camOutlineWide = false
; camOutlineDogbone = false
; camOutlineOmitThru = false
; camOutlineOut = true
; camOutlineIn = false
; camOutlineOn = true
; camContourTool = 1722815586361
; camContourSpindle = 1000
; camContourOver = 0.3
; camContourSpeed = 1000
; camContourAngle = 85
; camContourCurves = false
; camContourIn = true
; camContourXOn = true
; camContourYOn = true
; camTraceTool = 1722214144972
; camTraceSpindle = 1000
; camTraceType = clear
; camTraceOver = 0.5
; camTraceDown = 1
; camTraceSpeed = 200
; camTracePlunge = 200
; camTraceLines = false
; camDrillTool = 1000
; camDrillSpindle = 1000
; camDrillDownSpeed = 250
; camDrillDown = 5
; camDrillDwell = 250
; camDrillLift = 2
; camDrillingOn = false
; camRegisterSpeed = 1000
; camFlipAxis = X
; camFlipOther = 
; camTabsWidth = 5
; camTabsHeight = 5
; camTabsDepth = 5
; camTabsMidline = true
; camDepthFirst = false
; camEaseDown = true
; camOriginTop = true
; camZAnchor = top
; camZOffset = 0
; camZBottom = 0
; camZClearance = 5
; camZThru = 0
; camFastFeed = 6000
; camFastFeedZ = 300
; camTolerance = 0
; camStockX = 80
; camStockY = 20
; camStockZ = 0
; camStockOffset = true
; camStockClipTo = true
; camConventional = false
; outputInvertX = false
; outputInvertY = false
; camExpertFast = false
; camRoughStockZ = 0
; camRoughAll = true
; camRoughOmitVoid = false
; camOutlineTop = false
; camOutlineOverCount = 1
; camOutlineOmitVoid = false
; camContourLeave = 0
; camContourReduce = 0
; camContourBottom = false
; camLatheTool = 1000
; camLatheSpindle = 1000
; camLatheOver = 0.1
; camLatheAngle = 1
; camLatheSpeed = 500
; camTraceThru = 0
; camTraceOffOver = 0
; camTraceBottom = false
; camPocketSpindle = 1000
; camPocketTool = 1722815586361
; camPocketOver = 0.25
; camPocketDown = 1
; camPocketSpeed = 250
; camPocketPlunge = 200
; camPocketExpand = 0
; camPocketSmooth = 0
; camPocketRefine = 20
; camPocketFollow = 5
; camPocketContour = false
; camPocketEngrave = false
; camPocketOutline = false
; camDrillMark = false
; camRegisterThru = 5
; camLaserEnable = M321
; camLaserDisable = M322
; camLaserOn = M3
; camLaserOff = M5
; camLaserSpeed = 100
; camLaserPower = 1
; camLaserAdaptive = false
; camLaserAdaptMod = false
; camLaserFlatten = false
; camLaserFlatZ = 0
; camLaserPowerMin = 0
; camLaserPowerMax = 1
; camLaserZMin = 0
; camLaserZMax = 0
; camFlatness = 0.001
; camContourBridge = 0
; camStockIndexed = false
; camStockIndexGrid = true
; camIndexAxis = 0
; camIndexAbs = true
; camOriginCenter = true
; camOriginOffX = 0
; camOriginOffY = 0
; camOriginOffZ = 0
; camTrueShadow = false
; camForceZMax = false
; camFirstZMax = false
; camToolInit = false
; camFullEngage = 0.8
; camEaseAngle = 10
; camLevelStock = true
; camTraceOffset = none
; camTraceDogbone = false
; camTraceMode = loops
; --- tools ---
; tool=[object Object] flute=undefined len=undefined metric=undefined
G21 ; set units to MM (required)
G90 ; absolute position mode (required)
M3 S24000
G4 P2
; starting outline op
G0 X-3.2716 Y0.0 F6000
G0 Z5.0 F300
G1 Z-1.0090 F200
G1 X-6.2836 Y8.0324
G1 X-6.3916 Y8.4391
G1 X-6.4195 Y8.9073
G1 X-6.3573 Y9.3591
G1 X-6.2130 Y9.7849
G1 X-5.9948 Y10.1717
G1 X-5.7098 Y10.5113
G1 X-5.3631 Y10.7955
G1 X-4.9604 Y11.0135
G1 X-4.5127 Y11.1519
G1 X-4.0935 Y11.1940
G1 X4.0934
G1 X4.5124 Y11.1520
G1 X4.9603 Y11.0135
G1 X5.3627 Y10.7958
G1 X5.7096 Y10.5115
G1 X5.9948 Y10.1717
G1 X6.2128 Y9.7853
G1 X6.3571 Y9.3605
G1 X6.4195 Y8.9072
G1 X6.3916 Y8.4394
G1 X6.2837 Y8.0325
G1 X3.2716 Y0.0
G1 X6.2836 Y-8.0324
G1 X6.3916 Y-8.4391
G1 X6.4195 Y-8.9072
G1 X6.3571 Y-9.3605
G1 X6.2131 Y-9.7843
G1 X5.9950 Y-10.1714
G1 X5.7096 Y-10.5114
G1 X5.3627 Y-10.7957
G1 X4.9604 Y-11.0134
G1 X4.5126 Y-11.1519
G1 X4.0935 Y-11.1940
G1 X-4.0935
G1 X-4.5125 Y-11.1519
G1 X-4.9604 Y-11.0134
G1 X-5.3627 Y-10.7957
G1 X-5.7096 Y-10.5115
G1 X-5.9948 Y-10.1716
G1 X-6.2128 Y-9.7852
G1 X-6.3571 Y-9.3605
G1 X-6.4195 Y-8.9072
G1 X-6.3916 Y-8.4395
G1 X-6.2837 Y-8.0325
G1 X-3.2716 Y0.0
G1 Z-2.0080
G1 X-6.2836 Y8.0324
G1 X-6.3916 Y8.4391
G1 X-6.4195 Y8.9073
G1 X-6.3573 Y9.3591
G1 X-6.2130 Y9.7849
G1 X-5.9948 Y10.1717
G1 X-5.7098 Y10.5113
G1 X-5.3631 Y10.7955
G1 X-4.9604 Y11.0135
G1 X-4.5127 Y11.1519
G1 X-4.0935 Y11.1940
G1 X4.0934
G1 X4.5124 Y11.1520
G1 X4.9603 Y11.0135
G1 X5.3627 Y10.7958
G1 X5.7096 Y10.5115
G1 X5.9948 Y10.1717
G1 X6.2128 Y9.7853
G1 X6.3571 Y9.3605
G1 X6.4195 Y8.9072
G1 X6.3916 Y8.4394
G1 X6.2837 Y8.0325
G1 X3.2716 Y0.0
G1 X6.2836 Y-8.0324
G1 X6.3916 Y-8.4391
G1 X6.4195 Y-8.9072
G1 X6.3571 Y-9.3605
G1 X6.2131 Y-9.7843
G1 X5.9950 Y-10.1714
G1 X5.7096 Y-10.5114
G1 X5.3627 Y-10.7957
G1 X4.9604 Y-11.0134
G1 X4.5126 Y-11.1519
G1 X4.0935 Y-11.1940
G1 X-4.0935
G1 X-4.5125 Y-11.1519
G1 X-4.9604 Y-11.0134
G1 X-5.3627 Y-10.7957
G1 X-5.7096 Y-10.5115
G1 X-5.9948 Y-10.1716
G1 X-6.2128 Y-9.7852
G1 X-6.3571 Y-9.3605
G1 X-6.4195 Y-8.9072
G1 X-6.3916 Y-8.4395
G1 X-6.2837 Y-8.0325
G1 X-3.2716 Y0.0
G1 Z-3.0070
G1 X-6.2836 Y8.0324
G1 X-6.3916 Y8.4391
G1 X-6.4195 Y8.9073
G1 X-6.3573 Y9.3591
G1 X-6.2130 Y9.7849
G1 X-5.9948 Y10.1717
G1 X-5.7098 Y10.5113
G1 X-5.3631 Y10.7955
G1 X-4.9604 Y11.0135
G1 X-4.5127 Y11.1519
G1 X-4.0935 Y11.1940
G1 X4.0934
G1 X4.5124 Y11.1520
G1 X4.9603 Y11.0135
G1 X5.3627 Y10.7958
G1 X5.7096 Y10.5115
G1 X5.9948 Y10.1717
G1 X6.2128 Y9.7853
G1 X6.3571 Y9.3605
G1 X6.4195 Y8.9072
G1 X6.3916 Y8.4394
G1 X6.2837 Y8.0325
G1 X3.2716 Y0.0
G1 X6.2836 Y-8.0324
G1 X6.3916 Y-8.4391
G1 X6.4195 Y-8.9072
G1 X6.3571 Y-9.3605
G1 X6.2131 Y-9.7843
G1 X5.9950 Y-10.1714
G1 X5.7096 Y-10.5114
G1 X5.3627 Y-10.7957
G1 X4.9604 Y-11.0134
G1 X4.5126 Y-11.1519
G1 X4.0935 Y-11.1940
G1 X-4.0935
G1 X-4.5125 Y-11.1519
G1 X-4.9604 Y-11.0134
G1 X-5.3627 Y-10.7957
G1 X-5.7096 Y-10.5115
G1 X-5.9948 Y-10.1716
G1 X-6.2128 Y-9.7852
G1 X-6.3571 Y-9.3605
G1 X-6.4195 Y-8.9072
G1 X-6.3916 Y-8.4395
G1 X-6.2837 Y-8.0325
G1 X-3.2716 Y0.0
G1 Z-4.0060
G1 X-6.2836 Y8.0324
G1 X-6.3916 Y8.4391
G1 X-6.4195 Y8.9073
G1 X-6.3573 Y9.3591
G1 X-6.2130 Y9.7849
G1 X-5.9948 Y10.1717
G1 X-5.7098 Y10.5113
G1 X-5.3631 Y10.7955
G1 X-4.9604 Y11.0135
G1 X-4.5127 Y11.1519
G1 X-4.0935 Y11.1940
G1 X4.0934
G1 X4.5124 Y11.1520
G1 X4.9603 Y11.0135
G1 X5.3627 Y10.7958
G1 X5.7096 Y10.5115
G1 X5.9948 Y10.1717
G1 X6.2128 Y9.7853
G1 X6.3571 Y9.3605
G1 X6.4195 Y8.9072
G1 X6.3916 Y8.4394
G1 X6.2837 Y8.0325
G1 X3.2716 Y0.0
G1 X6.2836 Y-8.0324
G1 X6.3916 Y-8.4391
G1 X6.4195 Y-8.9072
G1 X6.3571 Y-9.3605
G1 X6.2131 Y-9.7843
G1 X5.9950 Y-10.1714
G1 X5.7096 Y-10.5114
G1 X5.3627 Y-10.7957
G1 X4.9604 Y-11.0134
G1 X4.5126 Y-11.1519
G1 X4.0935 Y-11.1940
G1 X-4.0935
G1 X-4.5125 Y-11.1519
G1 X-4.9604 Y-11.0134
G1 X-5.3627 Y-10.7957
G1 X-5.7096 Y-10.5115
G1 X-5.9948 Y-10.1716
G1 X-6.2128 Y-9.7852
G1 X-6.3571 Y-9.3605
G1 X-6.4195 Y-8.9072
G1 X-6.3916 Y-8.4395
G1 X-6.2837 Y-8.0325
G1 X-3.2716 Y0.0
G1 Z-5.0050
G1 X-6.2836 Y8.0324
G1 X-6.3916 Y8.4391
G1 X-6.4195 Y8.9073
G1 X-6.3573 Y9.3591
G1 X-6.2130 Y9.7849
G1 X-5.9948 Y10.1717
G1 X-5.7098 Y10.5113
G1 X-5.3631 Y10.7955
G1 X-4.9604 Y11.0135
G1 X-4.5127 Y11.1519
G1 X-4.0935 Y11.1940
G1 X4.0934
G1 X4.5124 Y11.1520
G1 X4.9603 Y11.0135
G1 X5.3627 Y10.7958
G1 X5.7096 Y10.5115
G1 X5.9948 Y10.1717
G1 X6.2128 Y9.7853
G1 X6.3571 Y9.3605
G1 X6.4195 Y8.9072
G1 X6.3916 Y8.4394
G1 X6.2837 Y8.0325
G1 X3.2716 Y0.0
G1 X6.2836 Y-8.0324
G1 X6.3916 Y-8.4391
G1 X6.4195 Y-8.9072
G1 X6.3571 Y-9.3605
G1 X6.2131 Y-9.7843
G1 X5.9950 Y-10.1714
G1 X5.7096 Y-10.5114
G1 X5.3627 Y-10.7957
G1 X4.9604 Y-11.0134
G1 X4.5126 Y-11.1519
G1 X4.0935 Y-11.1940
G1 X-4.0935
G1 X-4.5125 Y-11.1519
G1 X-4.9604 Y-11.0134
G1 X-5.3627 Y-10.7957
G1 X-5.7096 Y-10.5115
G1 X-5.9948 Y-10.1716
G1 X-6.2128 Y-9.7852
G1 X-6.3571 Y-9.3605
G1 X-6.4195 Y-8.9072
G1 X-6.3916 Y-8.4395
G1 X-6.2837 Y-8.0325
G1 X-3.2716 Y0.0
G1 Z-6.0040
G1 X-6.2836 Y8.0324
G1 X-6.3916 Y8.4391
G1 X-6.4195 Y8.9073
G1 X-6.3573 Y9.3591
G1 X-6.2130 Y9.7849
G1 X-5.9948 Y10.1717
G1 X-5.7098 Y10.5113
G1 X-5.3631 Y10.7955
G1 X-4.9604 Y11.0135
G1 X-4.5127 Y11.1519
G1 X-4.0935 Y11.1940
G1 X4.0934
G1 X4.5124 Y11.1520
G1 X4.9603 Y11.0135
G1 X5.3627 Y10.7958
G1 X5.7096 Y10.5115
G1 X5.9948 Y10.1717
G1 X6.2128 Y9.7853
G1 X6.3571 Y9.3605
G1 X6.4195 Y8.9072
G1 X6.3916 Y8.4394
G1 X6.2837 Y8.0325
G1 X3.2716 Y0.0
G1 X6.2836 Y-8.0324
G1 X6.3916 Y-8.4391
G1 X6.4195 Y-8.9072
G1 X6.3571 Y-9.3605
G1 X6.2131 Y-9.7843
G1 X5.9950 Y-10.1714
G1 X5.7096 Y-10.5114
G1 X5.3627 Y-10.7957
G1 X4.9604 Y-11.0134
G1 X4.5126 Y-11.1519
G1 X4.0935 Y-11.1940
G1 X-4.0935
G1 X-4.5125 Y-11.1519
G1 X-4.9604 Y-11.0134
G1 X-5.3627 Y-10.7957
G1 X-5.7096 Y-10.5115
G1 X-5.9948 Y-10.1716
G1 X-6.2128 Y-9.7852
G1 X-6.3571 Y-9.3605
G1 X-6.4195 Y-8.9072
G1 X-6.3916 Y-8.4395
G1 X-6.2837 Y-8.0325
G1 X-3.2716 Y0.0
G1 Z-7.0030
G1 X-6.2836 Y8.0324
G1 X-6.3916 Y8.4391
G1 X-6.4195 Y8.9073
G1 X-6.3573 Y9.3591
G1 X-6.2130 Y9.7849
G1 X-5.9948 Y10.1717
G1 X-5.7098 Y10.5113
G1 X-5.3631 Y10.7955
G1 X-4.9604 Y11.0135
G1 X-4.5127 Y11.1519
G1 X-4.0935 Y11.1940
G1 X4.0934
G1 X4.5124 Y11.1520
G1 X4.9603 Y11.0135
G1 X5.3627 Y10.7958
G1 X5.7096 Y10.5115
G1 X5.9948 Y10.1717
G1 X6.2128 Y9.7853
G1 X6.3571 Y9.3605
G1 X6.4195 Y8.9072
G1 X6.3916 Y8.4394
G1 X6.2837 Y8.0325
G1 X3.2716 Y0.0
G1 X6.2836 Y-8.0324
G1 X6.3916 Y-8.4391
G1 X6.4195 Y-8.9072
G1 X6.3571 Y-9.3605
G1 X6.2131 Y-9.7843
G1 X5.9950 Y-10.1714
G1 X5.7096 Y-10.5114
G1 X5.3627 Y-10.7957
G1 X4.9604 Y-11.0134
G1 X4.5126 Y-11.1519
G1 X4.0935 Y-11.1940
G1 X-4.0935
G1 X-4.5125 Y-11.1519
G1 X-4.9604 Y-11.0134
G1 X-5.3627 Y-10.7957
G1 X-5.7096 Y-10.5115
G1 X-5.9948 Y-10.1716
G1 X-6.2128 Y-9.7852
G1 X-6.3571 Y-9.3605
G1 X-6.4195 Y-8.9072
G1 X-6.3916 Y-8.4395
G1 X-6.2837 Y-8.0325
G1 X-3.2716 Y0.0
G1 Z-8.0020
G1 X-6.2836 Y8.0324
G1 X-6.3916 Y8.4391
G1 X-6.4195 Y8.9073
G1 X-6.3573 Y9.3591
G1 X-6.2130 Y9.7849
G1 X-5.9948 Y10.1717
G1 X-5.7098 Y10.5113
G1 X-5.3631 Y10.7955
G1 X-4.9604 Y11.0135
G1 X-4.5127 Y11.1519
G1 X-4.0935 Y11.1940
G1 X4.0934
G1 X4.5124 Y11.1520
G1 X4.9603 Y11.0135
G1 X5.3627 Y10.7958
G1 X5.7096 Y10.5115
G1 X5.9948 Y10.1717
G1 X6.2128 Y9.7853
G1 X6.3571 Y9.3605
G1 X6.4195 Y8.9072
G1 X6.3916 Y8.4394
G1 X6.2837 Y8.0325
G1 X3.2716 Y0.0
G1 X6.2836 Y-8.0324
G1 X6.3916 Y-8.4391
G1 X6.4195 Y-8.9072
G1 X6.3571 Y-9.3605
G1 X6.2131 Y-9.7843
G1 X5.9950 Y-10.1714
G1 X5.7096 Y-10.5114
G1 X5.3627 Y-10.7957
G1 X4.9604 Y-11.0134
G1 X4.5126 Y-11.1519
G1 X4.0935 Y-11.1940
G1 X-4.0935
G1 X-4.5125 Y-11.1519
G1 X-4.9604 Y-11.0134
G1 X-5.3627 Y-10.7957
G1 X-5.7096 Y-10.5115
G1 X-5.9948 Y-10.1716
G1 X-6.2128 Y-9.7852
G1 X-6.3571 Y-9.3605
G1 X-6.4195 Y-8.9072
G1 X-6.3916 Y-8.4395
G1 X-6.2837 Y-8.0325
G1 X-3.2716 Y0.0
G1 Z-9.0010
G1 X-6.2836 Y8.0324
G1 X-6.3916 Y8.4391
G1 X-6.4195 Y8.9073
G1 X-6.3573 Y9.3591
G1 X-6.2130 Y9.7849
G1 X-5.9948 Y10.1717
G1 X-5.7098 Y10.5113
G1 X-5.3631 Y10.7955
G1 X-4.9604 Y11.0135
G1 X-4.5127 Y11.1519
G1 X-4.0935 Y11.1940
G1 X4.0934
G1 X4.5124 Y11.1520
G1 X4.9603 Y11.0135
G1 X5.3627 Y10.7958
G1 X5.7096 Y10.5115
G1 X5.9948 Y10.1717
G1 X6.2128 Y9.7853
G1 X6.3571 Y9.3605
G1 X6.4195 Y8.9072
G1 X6.3916 Y8.4394
G1 X6.2837 Y8.0325
G1 X3.2716 Y0.0
G1 X6.2836 Y-8.0324
G1 X6.3916 Y-8.4391
G1 X6.4195 Y-8.9072
G1 X6.3571 Y-9.3605
G1 X6.2131 Y-9.7843
G1 X5.9950 Y-10.1714
G1 X5.7096 Y-10.5114
G1 X5.3627 Y-10.7957
G1 X4.9604 Y-11.0134
G1 X4.5126 Y-11.1519
G1 X4.0935 Y-11.1940
G1 X-4.0935
G1 X-4.5125 Y-11.1519
G1 X-4.9604 Y-11.0134
G1 X-5.3627 Y-10.7957
G1 X-5.7096 Y-10.5115
G1 X-5.9948 Y-10.1716
G1 X-6.2128 Y-9.7852
G1 X-6.3571 Y-9.3605
G1 X-6.4195 Y-8.9072
G1 X-6.3916 Y-8.4395
G1 X-6.2837 Y-8.0325
G1 X-3.2716 Y0.0
G1 Z-10.0
G1 X-6.2836 Y8.0324
G1 X-6.3916 Y8.4391
G1 X-6.4195 Y8.9073
G1 X-6.3573 Y9.3591
G1 X-6.2130 Y9.7849
G1 X-5.9948 Y10.1717
G1 X-5.7098 Y10.5113
G1 X-5.3631 Y10.7955
G1 X-4.9604 Y11.0135
G1 X-4.5127 Y11.1519
G1 X-4.0935 Y11.1940
G1 X4.0934
G1 X4.5124 Y11.1520
G1 X4.9603 Y11.0135
G1 X5.3627 Y10.7958
G1 X5.7096 Y10.5115
G1 X5.9948 Y10.1717
G1 X6.2128 Y9.7853
G1 X6.3571 Y9.3605
G1 X6.4195 Y8.9072
G1 X6.3916 Y8.4394
G1 X6.2837 Y8.0325
G1 X3.2716 Y0.0
G1 X6.2836 Y-8.0324
G1 X6.3916 Y-8.4391
G1 X6.4195 Y-8.9072
G1 X6.3571 Y-9.3605
G1 X6.2131 Y-9.7843
G1 X5.9950 Y-10.1714
G1 X5.7096 Y-10.5114
G1 X5.3627 Y-10.7957
G1 X4.9604 Y-11.0134
G1 X4.5126 Y-11.1519
G1 X4.0935 Y-11.1940
G1 X-4.0935
G1 X-4.5125 Y-11.1519
G1 X-4.9604 Y-11.0134
G1 X-5.3627 Y-10.7957
G1 X-5.7096 Y-10.5115
G1 X-5.9948 Y-10.1716
G1 X-6.2128 Y-9.7852
G1 X-6.3571 Y-9.3605
G1 X-6.4195 Y-8.9072
G1 X-6.3916 Y-8.4395
G1 X-6.2837 Y-8.0325
G1 X-3.2716 Y0.0
G0 Z5.0 F300
; ending outline op after 213 seconds
M30 ; program end
