(Project small-pewa-radius.dxf)
(Created by Estlcam version 11 build 11.245)
(Machining time about 00:00:57 hours)

(Required tools:)
(3/32")
G21
G90
G94
M03 S24000
G00 Z5.0000


(No. 1: Part 1)
G00 X-4.8438 Y-8.5532
G00 Z0.5000
G01 Z0.0000 F300 S24000
G01 Z-1.0000
G01 X-4.7350 Y-8.6438 F762
G01 X-4.6210 Y-8.7277
G01 X-4.5022 Y-8.8047
G01 X-4.3791 Y-8.8745
G01 X-4.2520 Y-8.9368
G01 X-4.1214 Y-8.9914
G01 X-3.9878 Y-9.0381
G01 X-3.8516 Y-9.0768
G01 X-3.7134 Y-9.1073
G01 X-3.5736 Y-9.1295
G01 X-3.4327 Y-9.1434
G01 X-3.2913 Y-9.1488
G01 X-0.2042
G01 X3.2913
G01 X3.4332 Y-9.1432
G01 X3.5746 Y-9.1292
G01 X3.7148 Y-9.1068
G01 X3.8535 Y-9.0760
G01 X3.9901 Y-9.0370
G01 X4.1241 Y-8.9899
G01 X4.2550 Y-8.9349
G01 X4.3825 Y-8.8722
G01 X4.5060 Y-8.8020
G01 X4.6250 Y-8.7246
G01 X4.7393 Y-8.6402
G01 X4.8482 Y-8.5491
G01 X4.9516 Y-8.4517
G01 X5.0490 Y-8.3483
G01 X5.1400 Y-8.2393
G01 X5.2244 Y-8.1250
G01 X5.3017 Y-8.0059
G01 X5.3719 Y-7.8824
G01 X5.4345 Y-7.7549
G01 X5.4894 Y-7.6239
G01 X5.5364 Y-7.4899
G01 X5.5754 Y-7.3533
G01 X5.6061 Y-7.2146
G01 X5.6284 Y-7.0743
G01 X5.6424 Y-6.9330
G01 X5.6479 Y-6.7911
G01 X5.6449 Y-6.6490
G01 X5.6335 Y-6.5075
G01 X5.6136 Y-6.3668
G01 X5.5854 Y-6.2276
G01 X5.5489 Y-6.0904
G01 X5.5042 Y-5.9555
G01 X3.2709 Y0.0000
G01 X5.5042 Y5.9555
G01 X5.5489 Y6.0904
G01 X5.5854 Y6.2276
G01 X5.6136 Y6.3668
G01 X5.6335 Y6.5075
G01 X5.6449 Y6.6490
G01 X5.6479 Y6.7911
G01 X5.6424 Y6.9330
G01 X5.6284 Y7.0743
G01 X5.6061 Y7.2146
G01 X5.5754 Y7.3533
G01 X5.5364 Y7.4899
G01 X5.4894 Y7.6239
G01 X5.4345 Y7.7549
G01 X5.3719 Y7.8824
G01 X5.3017 Y8.0059
G01 X5.2244 Y8.1250
G01 X5.1400 Y8.2393
G01 X5.0490 Y8.3483
G01 X4.9516 Y8.4517
G01 X4.8482 Y8.5491
G01 X4.7393 Y8.6402
G01 X4.6250 Y8.7246
G01 X4.5060 Y8.8020
G01 X4.3825 Y8.8722
G01 X4.2550 Y8.9349
G01 X4.1241 Y8.9899
G01 X3.9901 Y9.0370
G01 X3.8535 Y9.0760
G01 X3.7148 Y9.1068
G01 X3.5746 Y9.1292
G01 X3.4332 Y9.1432
G01 X3.2913 Y9.1488
G01 X-3.2913
G01 X-3.4332 Y9.1432
G01 X-3.5746 Y9.1292
G01 X-3.7148 Y9.1068
G01 X-3.8535 Y9.0760
G01 X-3.9901 Y9.0370
G01 X-4.1241 Y8.9899
G01 X-4.2550 Y8.9349
G01 X-4.3825 Y8.8722
G01 X-4.5060 Y8.8020
G01 X-4.6250 Y8.7246
G01 X-4.7393 Y8.6402
G01 X-4.8482 Y8.5491
G01 X-4.9516 Y8.4517
G01 X-5.0490 Y8.3483
G01 X-5.1400 Y8.2393
G01 X-5.2244 Y8.1250
G01 X-5.3017 Y8.0059
G01 X-5.3719 Y7.8824
G01 X-5.4345 Y7.7549
G01 X-5.4894 Y7.6239
G01 X-5.5364 Y7.4899
G01 X-5.5754 Y7.3533
G01 X-5.6061 Y7.2146
G01 X-5.6284 Y7.0743
G01 X-5.6424 Y6.9330
G01 X-5.6479 Y6.7911
G01 X-5.6449 Y6.6490
G01 X-5.6335 Y6.5075
G01 X-5.6136 Y6.3668
G01 X-5.5854 Y6.2276
G01 X-5.5489 Y6.0904
G01 X-5.5042 Y5.9555
G01 X-3.2709 Y0.0000
G01 X-5.5042 Y-5.9555
G01 X-5.5490 Y-6.0907
G01 X-5.5855 Y-6.2282
G01 X-5.6138 Y-6.3677
G01 X-5.6337 Y-6.5087
G01 X-5.6451 Y-6.6506
G01 X-5.6480 Y-6.7929
G01 X-5.6423 Y-6.9351
G01 X-5.6282 Y-7.0768
G01 X-5.6056 Y-7.2173
G01 X-5.5747 Y-7.3562
G01 X-5.5355 Y-7.4931
G01 X-5.4882 Y-7.6273
G01 X-5.4330 Y-7.7585
G01 X-5.3700 Y-7.8862
G01 X-5.2995 Y-8.0098
G01 X-5.2217 Y-8.1290
G01 X-5.1369 Y-8.2433
G01 X-5.0454 Y-8.3524
G01 X-4.9476 Y-8.4558
G01 X-4.8438 Y-8.5532
G01 Z-2.0000 F300
G01 X-4.7350 Y-8.6438 F762
G01 X-4.6210 Y-8.7277
G01 X-4.5022 Y-8.8047
G01 X-4.3791 Y-8.8745
G01 X-4.2520 Y-8.9368
G01 X-4.1214 Y-8.9914
G01 X-3.9878 Y-9.0381
G01 X-3.8516 Y-9.0768
G01 X-3.7134 Y-9.1073
G01 X-3.5736 Y-9.1295
G01 X-3.4327 Y-9.1434
G01 X-3.2913 Y-9.1488
G01 X-0.2042
G01 X3.2913
G01 X3.4332 Y-9.1432
G01 X3.5746 Y-9.1292
G01 X3.7148 Y-9.1068
G01 X3.8535 Y-9.0760
G01 X3.9901 Y-9.0370
G01 X4.1241 Y-8.9899
G01 X4.2550 Y-8.9349
G01 X4.3825 Y-8.8722
G01 X4.5060 Y-8.8020
G01 X4.6250 Y-8.7246
G01 X4.7393 Y-8.6402
G01 X4.8482 Y-8.5491
G01 X4.9516 Y-8.4517
G01 X5.0490 Y-8.3483
G01 X5.1400 Y-8.2393
G01 X5.2244 Y-8.1250
G01 X5.3017 Y-8.0059
G01 X5.3719 Y-7.8824
G01 X5.4345 Y-7.7549
G01 X5.4894 Y-7.6239
G01 X5.5364 Y-7.4899
G01 X5.5754 Y-7.3533
G01 X5.6061 Y-7.2146
G01 X5.6284 Y-7.0743
G01 X5.6424 Y-6.9330
G01 X5.6479 Y-6.7911
G01 X5.6449 Y-6.6490
G01 X5.6335 Y-6.5075
G01 X5.6136 Y-6.3668
G01 X5.5854 Y-6.2276
G01 X5.5489 Y-6.0904
G01 X5.5042 Y-5.9555
G01 X3.2709 Y0.0000
G01 X5.5042 Y5.9555
G01 X5.5489 Y6.0904
G01 X5.5854 Y6.2276
G01 X5.6136 Y6.3668
G01 X5.6335 Y6.5075
G01 X5.6449 Y6.6490
G01 X5.6479 Y6.7911
G01 X5.6424 Y6.9330
G01 X5.6284 Y7.0743
G01 X5.6061 Y7.2146
G01 X5.5754 Y7.3533
G01 X5.5364 Y7.4899
G01 X5.4894 Y7.6239
G01 X5.4345 Y7.7549
G01 X5.3719 Y7.8824
G01 X5.3017 Y8.0059
G01 X5.2244 Y8.1250
G01 X5.1400 Y8.2393
G01 X5.0490 Y8.3483
G01 X4.9516 Y8.4517
G01 X4.8482 Y8.5491
G01 X4.7393 Y8.6402
G01 X4.6250 Y8.7246
G01 X4.5060 Y8.8020
G01 X4.3825 Y8.8722
G01 X4.2550 Y8.9349
G01 X4.1241 Y8.9899
G01 X3.9901 Y9.0370
G01 X3.8535 Y9.0760
G01 X3.7148 Y9.1068
G01 X3.5746 Y9.1292
G01 X3.4332 Y9.1432
G01 X3.2913 Y9.1488
G01 X-3.2913
G01 X-3.4332 Y9.1432
G01 X-3.5746 Y9.1292
G01 X-3.7148 Y9.1068
G01 X-3.8535 Y9.0760
G01 X-3.9901 Y9.0370
G01 X-4.1241 Y8.9899
G01 X-4.2550 Y8.9349
G01 X-4.3825 Y8.8722
G01 X-4.5060 Y8.8020
G01 X-4.6250 Y8.7246
G01 X-4.7393 Y8.6402
G01 X-4.8482 Y8.5491
G01 X-4.9516 Y8.4517
G01 X-5.0490 Y8.3483
G01 X-5.1400 Y8.2393
G01 X-5.2244 Y8.1250
G01 X-5.3017 Y8.0059
G01 X-5.3719 Y7.8824
G01 X-5.4345 Y7.7549
G01 X-5.4894 Y7.6239
G01 X-5.5364 Y7.4899
G01 X-5.5754 Y7.3533
G01 X-5.6061 Y7.2146
G01 X-5.6284 Y7.0743
G01 X-5.6424 Y6.9330
G01 X-5.6479 Y6.7911
G01 X-5.6449 Y6.6490
G01 X-5.6335 Y6.5075
G01 X-5.6136 Y6.3668
G01 X-5.5854 Y6.2276
G01 X-5.5489 Y6.0904
G01 X-5.5042 Y5.9555
G01 X-3.2709 Y0.0000
G01 X-5.5042 Y-5.9555
G01 X-5.5490 Y-6.0907
G01 X-5.5855 Y-6.2282
G01 X-5.6138 Y-6.3677
G01 X-5.6337 Y-6.5087
G01 X-5.6451 Y-6.6506
G01 X-5.6480 Y-6.7929
G01 X-5.6423 Y-6.9351
G01 X-5.6282 Y-7.0768
G01 X-5.6056 Y-7.2173
G01 X-5.5747 Y-7.3562
G01 X-5.5355 Y-7.4931
G01 X-5.4882 Y-7.6273
G01 X-5.4330 Y-7.7585
G01 X-5.3700 Y-7.8862
G01 X-5.2995 Y-8.0098
G01 X-5.2217 Y-8.1290
G01 X-5.1369 Y-8.2433
G01 X-5.0454 Y-8.3524
G01 X-4.9476 Y-8.4558
G01 X-4.8438 Y-8.5532
G01 Z-3.0000 F300
G01 X-4.7350 Y-8.6438 F762
G01 X-4.6210 Y-8.7277
G01 X-4.5022 Y-8.8047
G01 X-4.3791 Y-8.8745
G01 X-4.2520 Y-8.9368
G01 X-4.1214 Y-8.9914
G01 X-3.9878 Y-9.0381
G01 X-3.8516 Y-9.0768
G01 X-3.7134 Y-9.1073
G01 X-3.5736 Y-9.1295
G01 X-3.4327 Y-9.1434
G01 X-3.2913 Y-9.1488
G01 X-0.2042
G01 X3.2913
G01 X3.4332 Y-9.1432
G01 X3.5746 Y-9.1292
G01 X3.7148 Y-9.1068
G01 X3.8535 Y-9.0760
G01 X3.9901 Y-9.0370
G01 X4.1241 Y-8.9899
G01 X4.2550 Y-8.9349
G01 X4.3825 Y-8.8722
G01 X4.5060 Y-8.8020
G01 X4.6250 Y-8.7246
G01 X4.7393 Y-8.6402
G01 X4.8482 Y-8.5491
G01 X4.9516 Y-8.4517
G01 X5.0490 Y-8.3483
G01 X5.1400 Y-8.2393
G01 X5.2244 Y-8.1250
G01 X5.3017 Y-8.0059
G01 X5.3719 Y-7.8824
G01 X5.4345 Y-7.7549
G01 X5.4894 Y-7.6239
G01 X5.5364 Y-7.4899
G01 X5.5754 Y-7.3533
G01 X5.6061 Y-7.2146
G01 X5.6284 Y-7.0743
G01 X5.6424 Y-6.9330
G01 X5.6479 Y-6.7911
G01 X5.6449 Y-6.6490
G01 X5.6335 Y-6.5075
G01 X5.6136 Y-6.3668
G01 X5.5854 Y-6.2276
G01 X5.5489 Y-6.0904
G01 X5.5042 Y-5.9555
G01 X3.2709 Y0.0000
G01 X5.5042 Y5.9555
G01 X5.5489 Y6.0904
G01 X5.5854 Y6.2276
G01 X5.6136 Y6.3668
G01 X5.6335 Y6.5075
G01 X5.6449 Y6.6490
G01 X5.6479 Y6.7911
G01 X5.6424 Y6.9330
G01 X5.6284 Y7.0743
G01 X5.6061 Y7.2146
G01 X5.5754 Y7.3533
G01 X5.5364 Y7.4899
G01 X5.4894 Y7.6239
G01 X5.4345 Y7.7549
G01 X5.3719 Y7.8824
G01 X5.3017 Y8.0059
G01 X5.2244 Y8.1250
G01 X5.1400 Y8.2393
G01 X5.0490 Y8.3483
G01 X4.9516 Y8.4517
G01 X4.8482 Y8.5491
G01 X4.7393 Y8.6402
G01 X4.6250 Y8.7246
G01 X4.5060 Y8.8020
G01 X4.3825 Y8.8722
G01 X4.2550 Y8.9349
G01 X4.1241 Y8.9899
G01 X3.9901 Y9.0370
G01 X3.8535 Y9.0760
G01 X3.7148 Y9.1068
G01 X3.5746 Y9.1292
G01 X3.4332 Y9.1432
G01 X3.2913 Y9.1488
G01 X-3.2913
G01 X-3.4332 Y9.1432
G01 X-3.5746 Y9.1292
G01 X-3.7148 Y9.1068
G01 X-3.8535 Y9.0760
G01 X-3.9901 Y9.0370
G01 X-4.1241 Y8.9899
G01 X-4.2550 Y8.9349
G01 X-4.3825 Y8.8722
G01 X-4.5060 Y8.8020
G01 X-4.6250 Y8.7246
G01 X-4.7393 Y8.6402
G01 X-4.8482 Y8.5491
G01 X-4.9516 Y8.4517
G01 X-5.0490 Y8.3483
G01 X-5.1400 Y8.2393
G01 X-5.2244 Y8.1250
G01 X-5.3017 Y8.0059
G01 X-5.3719 Y7.8824
G01 X-5.4345 Y7.7549
G01 X-5.4894 Y7.6239
G01 X-5.5364 Y7.4899
G01 X-5.5754 Y7.3533
G01 X-5.6061 Y7.2146
G01 X-5.6284 Y7.0743
G01 X-5.6424 Y6.9330
G01 X-5.6479 Y6.7911
G01 X-5.6449 Y6.6490
G01 X-5.6335 Y6.5075
G01 X-5.6136 Y6.3668
G01 X-5.5854 Y6.2276
G01 X-5.5489 Y6.0904
G01 X-5.5042 Y5.9555
G01 X-3.2709 Y0.0000
G01 X-5.5042 Y-5.9555
G01 X-5.5490 Y-6.0907
G01 X-5.5855 Y-6.2282
G01 X-5.6138 Y-6.3677
G01 X-5.6337 Y-6.5087
G01 X-5.6451 Y-6.6506
G01 X-5.6480 Y-6.7929
G01 X-5.6423 Y-6.9351
G01 X-5.6282 Y-7.0768
G01 X-5.6056 Y-7.2173
G01 X-5.5747 Y-7.3562
G01 X-5.5355 Y-7.4931
G01 X-5.4882 Y-7.6273
G01 X-5.4330 Y-7.7585
G01 X-5.3700 Y-7.8862
G01 X-5.2995 Y-8.0098
G01 X-5.2217 Y-8.1290
G01 X-5.1369 Y-8.2433
G01 X-5.0454 Y-8.3524
G01 X-4.9476 Y-8.4558
G01 X-4.8438 Y-8.5532
G01 Z-4.0000 F300
G01 X-4.7350 Y-8.6438 F762
G01 X-4.6210 Y-8.7277
G01 X-4.5022 Y-8.8047
G01 X-4.3791 Y-8.8745
G01 X-4.2520 Y-8.9368
G01 X-4.1214 Y-8.9914
G01 X-3.9878 Y-9.0381
G01 X-3.8516 Y-9.0768
G01 X-3.7134 Y-9.1073
G01 X-3.5736 Y-9.1295
G01 X-3.4327 Y-9.1434
G01 X-3.2913 Y-9.1488
G01 X-0.2042
G01 X3.2913
G01 X3.4332 Y-9.1432
G01 X3.5746 Y-9.1292
G01 X3.7148 Y-9.1068
G01 X3.8535 Y-9.0760
G01 X3.9901 Y-9.0370
G01 X4.1241 Y-8.9899
G01 X4.2550 Y-8.9349
G01 X4.3825 Y-8.8722
G01 X4.5060 Y-8.8020
G01 X4.6250 Y-8.7246
G01 X4.7393 Y-8.6402
G01 X4.8482 Y-8.5491
G01 X4.9516 Y-8.4517
G01 X5.0490 Y-8.3483
G01 X5.1400 Y-8.2393
G01 X5.2244 Y-8.1250
G01 X5.3017 Y-8.0059
G01 X5.3719 Y-7.8824
G01 X5.4345 Y-7.7549
G01 X5.4894 Y-7.6239
G01 X5.5364 Y-7.4899
G01 X5.5754 Y-7.3533
G01 X5.6061 Y-7.2146
G01 X5.6284 Y-7.0743
G01 X5.6424 Y-6.9330
G01 X5.6479 Y-6.7911
G01 X5.6449 Y-6.6490
G01 X5.6335 Y-6.5075
G01 X5.6136 Y-6.3668
G01 X5.5854 Y-6.2276
G01 X5.5489 Y-6.0904
G01 X5.5042 Y-5.9555
G01 X3.2709 Y0.0000
G01 X5.5042 Y5.9555
G01 X5.5489 Y6.0904
G01 X5.5854 Y6.2276
G01 X5.6136 Y6.3668
G01 X5.6335 Y6.5075
G01 X5.6449 Y6.6490
G01 X5.6479 Y6.7911
G01 X5.6424 Y6.9330
G01 X5.6284 Y7.0743
G01 X5.6061 Y7.2146
G01 X5.5754 Y7.3533
G01 X5.5364 Y7.4899
G01 X5.4894 Y7.6239
G01 X5.4345 Y7.7549
G01 X5.3719 Y7.8824
G01 X5.3017 Y8.0059
G01 X5.2244 Y8.1250
G01 X5.1400 Y8.2393
G01 X5.0490 Y8.3483
G01 X4.9516 Y8.4517
G01 X4.8482 Y8.5491
G01 X4.7393 Y8.6402
G01 X4.6250 Y8.7246
G01 X4.5060 Y8.8020
G01 X4.3825 Y8.8722
G01 X4.2550 Y8.9349
G01 X4.1241 Y8.9899
G01 X3.9901 Y9.0370
G01 X3.8535 Y9.0760
G01 X3.7148 Y9.1068
G01 X3.5746 Y9.1292
G01 X3.4332 Y9.1432
G01 X3.2913 Y9.1488
G01 X-3.2913
G01 X-3.4332 Y9.1432
G01 X-3.5746 Y9.1292
G01 X-3.7148 Y9.1068
G01 X-3.8535 Y9.0760
G01 X-3.9901 Y9.0370
G01 X-4.1241 Y8.9899
G01 X-4.2550 Y8.9349
G01 X-4.3825 Y8.8722
G01 X-4.5060 Y8.8020
G01 X-4.6250 Y8.7246
G01 X-4.7393 Y8.6402
G01 X-4.8482 Y8.5491
G01 X-4.9516 Y8.4517
G01 X-5.0490 Y8.3483
G01 X-5.1400 Y8.2393
G01 X-5.2244 Y8.1250
G01 X-5.3017 Y8.0059
G01 X-5.3719 Y7.8824
G01 X-5.4345 Y7.7549
G01 X-5.4894 Y7.6239
G01 X-5.5364 Y7.4899
G01 X-5.5754 Y7.3533
G01 X-5.6061 Y7.2146
G01 X-5.6284 Y7.0743
G01 X-5.6424 Y6.9330
G01 X-5.6479 Y6.7911
G01 X-5.6449 Y6.6490
G01 X-5.6335 Y6.5075
G01 X-5.6136 Y6.3668
G01 X-5.5854 Y6.2276
G01 X-5.5489 Y6.0904
G01 X-5.5042 Y5.9555
G01 X-3.2709 Y0.0000
G01 X-5.5042 Y-5.9555
G01 X-5.5490 Y-6.0907
G01 X-5.5855 Y-6.2282
G01 X-5.6138 Y-6.3677
G01 X-5.6337 Y-6.5087
G01 X-5.6451 Y-6.6506
G01 X-5.6480 Y-6.7929
G01 X-5.6423 Y-6.9351
G01 X-5.6282 Y-7.0768
G01 X-5.6056 Y-7.2173
G01 X-5.5747 Y-7.3562
G01 X-5.5355 Y-7.4931
G01 X-5.4882 Y-7.6273
G01 X-5.4330 Y-7.7585
G01 X-5.3700 Y-7.8862
G01 X-5.2995 Y-8.0098
G01 X-5.2217 Y-8.1290
G01 X-5.1369 Y-8.2433
G01 X-5.0454 Y-8.3524
G01 X-4.9476 Y-8.4558
G01 X-4.8438 Y-8.5532
G01 Z-5.0000 F300
G01 X-4.7350 Y-8.6438 F762
G01 X-4.6210 Y-8.7277
G01 X-4.5022 Y-8.8047
G01 X-4.3791 Y-8.8745
G01 X-4.2520 Y-8.9368
G01 X-4.1214 Y-8.9914
G01 X-3.9878 Y-9.0381
G01 X-3.8516 Y-9.0768
G01 X-3.7134 Y-9.1073
G01 X-3.5736 Y-9.1295
G01 X-3.4327 Y-9.1434
G01 X-3.2913 Y-9.1488
G01 X-0.2042
G01 X3.2913
G01 X3.4332 Y-9.1432
G01 X3.5746 Y-9.1292
G01 X3.7148 Y-9.1068
G01 X3.8535 Y-9.0760
G01 X3.9901 Y-9.0370
G01 X4.1241 Y-8.9899
G01 X4.2550 Y-8.9349
G01 X4.3825 Y-8.8722
G01 X4.5060 Y-8.8020
G01 X4.6250 Y-8.7246
G01 X4.7393 Y-8.6402
G01 X4.8482 Y-8.5491
G01 X4.9516 Y-8.4517
G01 X5.0490 Y-8.3483
G01 X5.1400 Y-8.2393
G01 X5.2244 Y-8.1250
G01 X5.3017 Y-8.0059
G01 X5.3719 Y-7.8824
G01 X5.4345 Y-7.7549
G01 X5.4894 Y-7.6239
G01 X5.5364 Y-7.4899
G01 X5.5754 Y-7.3533
G01 X5.6061 Y-7.2146
G01 X5.6284 Y-7.0743
G01 X5.6424 Y-6.9330
G01 X5.6479 Y-6.7911
G01 X5.6449 Y-6.6490
G01 X5.6335 Y-6.5075
G01 X5.6136 Y-6.3668
G01 X5.5854 Y-6.2276
G01 X5.5489 Y-6.0904
G01 X5.5042 Y-5.9555
G01 X3.2709 Y0.0000
G01 X5.5042 Y5.9555
G01 X5.5489 Y6.0904
G01 X5.5854 Y6.2276
G01 X5.6136 Y6.3668
G01 X5.6335 Y6.5075
G01 X5.6449 Y6.6490
G01 X5.6479 Y6.7911
G01 X5.6424 Y6.9330
G01 X5.6284 Y7.0743
G01 X5.6061 Y7.2146
G01 X5.5754 Y7.3533
G01 X5.5364 Y7.4899
G01 X5.4894 Y7.6239
G01 X5.4345 Y7.7549
G01 X5.3719 Y7.8824
G01 X5.3017 Y8.0059
G01 X5.2244 Y8.1250
G01 X5.1400 Y8.2393
G01 X5.0490 Y8.3483
G01 X4.9516 Y8.4517
G01 X4.8482 Y8.5491
G01 X4.7393 Y8.6402
G01 X4.6250 Y8.7246
G01 X4.5060 Y8.8020
G01 X4.3825 Y8.8722
G01 X4.2550 Y8.9349
G01 X4.1241 Y8.9899
G01 X3.9901 Y9.0370
G01 X3.8535 Y9.0760
G01 X3.7148 Y9.1068
G01 X3.5746 Y9.1292
G01 X3.4332 Y9.1432
G01 X3.2913 Y9.1488
G01 X-3.2913
G01 X-3.4332 Y9.1432
G01 X-3.5746 Y9.1292
G01 X-3.7148 Y9.1068
G01 X-3.8535 Y9.0760
G01 X-3.9901 Y9.0370
G01 X-4.1241 Y8.9899
G01 X-4.2550 Y8.9349
G01 X-4.3825 Y8.8722
G01 X-4.5060 Y8.8020
G01 X-4.6250 Y8.7246
G01 X-4.7393 Y8.6402
G01 X-4.8482 Y8.5491
G01 X-4.9516 Y8.4517
G01 X-5.0490 Y8.3483
G01 X-5.1400 Y8.2393
G01 X-5.2244 Y8.1250
G01 X-5.3017 Y8.0059
G01 X-5.3719 Y7.8824
G01 X-5.4345 Y7.7549
G01 X-5.4894 Y7.6239
G01 X-5.5364 Y7.4899
G01 X-5.5754 Y7.3533
G01 X-5.6061 Y7.2146
G01 X-5.6284 Y7.0743
G01 X-5.6424 Y6.9330
G01 X-5.6479 Y6.7911
G01 X-5.6449 Y6.6490
G01 X-5.6335 Y6.5075
G01 X-5.6136 Y6.3668
G01 X-5.5854 Y6.2276
G01 X-5.5489 Y6.0904
G01 X-5.5042 Y5.9555
G01 X-3.2709 Y0.0000
G01 X-5.5042 Y-5.9555
G01 X-5.5490 Y-6.0907
G01 X-5.5855 Y-6.2282
G01 X-5.6138 Y-6.3677
G01 X-5.6337 Y-6.5087
G01 X-5.6451 Y-6.6506
G01 X-5.6480 Y-6.7929
G01 X-5.6423 Y-6.9351
G01 X-5.6282 Y-7.0768
G01 X-5.6056 Y-7.2173
G01 X-5.5747 Y-7.3562
G01 X-5.5355 Y-7.4931
G01 X-5.4882 Y-7.6273
G01 X-5.4330 Y-7.7585
G01 X-5.3700 Y-7.8862
G01 X-5.2995 Y-8.0098
G01 X-5.2217 Y-8.1290
G01 X-5.1369 Y-8.2433
G01 X-5.0454 Y-8.3524
G01 X-4.9476 Y-8.4558
G01 X-4.8438 Y-8.5532
G01 Z-6.0000 F300
G01 X-4.7350 Y-8.6438 F762
G01 X-4.6210 Y-8.7277
G01 X-4.5022 Y-8.8047
G01 X-4.3791 Y-8.8745
G01 X-4.2520 Y-8.9368
G01 X-4.1214 Y-8.9914
G01 X-3.9878 Y-9.0381
G01 X-3.8516 Y-9.0768
G01 X-3.7134 Y-9.1073
G01 X-3.5736 Y-9.1295
G01 X-3.4327 Y-9.1434
G01 X-3.2913 Y-9.1488
G01 X-0.2042
G01 X3.2913
G01 X3.4332 Y-9.1432
G01 X3.5746 Y-9.1292
G01 X3.7148 Y-9.1068
G01 X3.8535 Y-9.0760
G01 X3.9901 Y-9.0370
G01 X4.1241 Y-8.9899
G01 X4.2550 Y-8.9349
G01 X4.3825 Y-8.8722
G01 X4.5060 Y-8.8020
G01 X4.6250 Y-8.7246
G01 X4.7393 Y-8.6402
G01 X4.8482 Y-8.5491
G01 X4.9516 Y-8.4517
G01 X5.0490 Y-8.3483
G01 X5.1400 Y-8.2393
G01 X5.2244 Y-8.1250
G01 X5.3017 Y-8.0059
G01 X5.3719 Y-7.8824
G01 X5.4345 Y-7.7549
G01 X5.4894 Y-7.6239
G01 X5.5364 Y-7.4899
G01 X5.5754 Y-7.3533
G01 X5.6061 Y-7.2146
G01 X5.6284 Y-7.0743
G01 X5.6424 Y-6.9330
G01 X5.6479 Y-6.7911
G01 X5.6449 Y-6.6490
G01 X5.6335 Y-6.5075
G01 X5.6136 Y-6.3668
G01 X5.5854 Y-6.2276
G01 X5.5489 Y-6.0904
G01 X5.5042 Y-5.9555
G01 X3.2709 Y0.0000
G01 X5.5042 Y5.9555
G01 X5.5489 Y6.0904
G01 X5.5854 Y6.2276
G01 X5.6136 Y6.3668
G01 X5.6335 Y6.5075
G01 X5.6449 Y6.6490
G01 X5.6479 Y6.7911
G01 X5.6424 Y6.9330
G01 X5.6284 Y7.0743
G01 X5.6061 Y7.2146
G01 X5.5754 Y7.3533
G01 X5.5364 Y7.4899
G01 X5.4894 Y7.6239
G01 X5.4345 Y7.7549
G01 X5.3719 Y7.8824
G01 X5.3017 Y8.0059
G01 X5.2244 Y8.1250
G01 X5.1400 Y8.2393
G01 X5.0490 Y8.3483
G01 X4.9516 Y8.4517
G01 X4.8482 Y8.5491
G01 X4.7393 Y8.6402
G01 X4.6250 Y8.7246
G01 X4.5060 Y8.8020
G01 X4.3825 Y8.8722
G01 X4.2550 Y8.9349
G01 X4.1241 Y8.9899
G01 X3.9901 Y9.0370
G01 X3.8535 Y9.0760
G01 X3.7148 Y9.1068
G01 X3.5746 Y9.1292
G01 X3.4332 Y9.1432
G01 X3.2913 Y9.1488
G01 X-3.2913
G01 X-3.4332 Y9.1432
G01 X-3.5746 Y9.1292
G01 X-3.7148 Y9.1068
G01 X-3.8535 Y9.0760
G01 X-3.9901 Y9.0370
G01 X-4.1241 Y8.9899
G01 X-4.2550 Y8.9349
G01 X-4.3825 Y8.8722
G01 X-4.5060 Y8.8020
G01 X-4.6250 Y8.7246
G01 X-4.7393 Y8.6402
G01 X-4.8482 Y8.5491
G01 X-4.9516 Y8.4517
G01 X-5.0490 Y8.3483
G01 X-5.1400 Y8.2393
G01 X-5.2244 Y8.1250
G01 X-5.3017 Y8.0059
G01 X-5.3719 Y7.8824
G01 X-5.4345 Y7.7549
G01 X-5.4894 Y7.6239
G01 X-5.5364 Y7.4899
G01 X-5.5754 Y7.3533
G01 X-5.6061 Y7.2146
G01 X-5.6284 Y7.0743
G01 X-5.6424 Y6.9330
G01 X-5.6479 Y6.7911
G01 X-5.6449 Y6.6490
G01 X-5.6335 Y6.5075
G01 X-5.6136 Y6.3668
G01 X-5.5854 Y6.2276
G01 X-5.5489 Y6.0904
G01 X-5.5042 Y5.9555
G01 X-3.2709 Y0.0000
G01 X-5.5042 Y-5.9555
G01 X-5.5490 Y-6.0907
G01 X-5.5855 Y-6.2282
G01 X-5.6138 Y-6.3677
G01 X-5.6337 Y-6.5087
G01 X-5.6451 Y-6.6506
G01 X-5.6480 Y-6.7929
G01 X-5.6423 Y-6.9351
G01 X-5.6282 Y-7.0768
G01 X-5.6056 Y-7.2173
G01 X-5.5747 Y-7.3562
G01 X-5.5355 Y-7.4931
G01 X-5.4882 Y-7.6273
G01 X-5.4330 Y-7.7585
G01 X-5.3700 Y-7.8862
G01 X-5.2995 Y-8.0098
G01 X-5.2217 Y-8.1290
G01 X-5.1369 Y-8.2433
G01 X-5.0454 Y-8.3524
G01 X-4.9476 Y-8.4558
G01 X-4.8438 Y-8.5532
G01 Z-7.0000 F300
G01 X-4.7350 Y-8.6438 F762
G01 X-4.6210 Y-8.7277
G01 X-4.5022 Y-8.8047
G01 X-4.3791 Y-8.8745
G01 X-4.2520 Y-8.9368
G01 X-4.1214 Y-8.9914
G01 X-3.9878 Y-9.0381
G01 X-3.8516 Y-9.0768
G01 X-3.7134 Y-9.1073
G01 X-3.5736 Y-9.1295
G01 X-3.4327 Y-9.1434
G01 X-3.2913 Y-9.1488
G01 X-0.2042
G01 X3.2913
G01 X3.4332 Y-9.1432
G01 X3.5746 Y-9.1292
G01 X3.7148 Y-9.1068
G01 X3.8535 Y-9.0760
G01 X3.9901 Y-9.0370
G01 X4.1241 Y-8.9899
G01 X4.2550 Y-8.9349
G01 X4.3825 Y-8.8722
G01 X4.5060 Y-8.8020
G01 X4.6250 Y-8.7246
G01 X4.7393 Y-8.6402
G01 X4.8482 Y-8.5491
G01 X4.9516 Y-8.4517
G01 X5.0490 Y-8.3483
G01 X5.1400 Y-8.2393
G01 X5.2244 Y-8.1250
G01 X5.3017 Y-8.0059
G01 X5.3719 Y-7.8824
G01 X5.4345 Y-7.7549
G01 X5.4894 Y-7.6239
G01 X5.5364 Y-7.4899
G01 X5.5754 Y-7.3533
G01 X5.6061 Y-7.2146
G01 X5.6284 Y-7.0743
G01 X5.6424 Y-6.9330
G01 X5.6479 Y-6.7911
G01 X5.6449 Y-6.6490
G01 X5.6335 Y-6.5075
G01 X5.6136 Y-6.3668
G01 X5.5854 Y-6.2276
G01 X5.5489 Y-6.0904
G01 X5.5042 Y-5.9555
G01 X3.2709 Y0.0000
G01 X5.5042 Y5.9555
G01 X5.5489 Y6.0904
G01 X5.5854 Y6.2276
G01 X5.6136 Y6.3668
G01 X5.6335 Y6.5075
G01 X5.6449 Y6.6490
G01 X5.6479 Y6.7911
G01 X5.6424 Y6.9330
G01 X5.6284 Y7.0743
G01 X5.6061 Y7.2146
G01 X5.5754 Y7.3533
G01 X5.5364 Y7.4899
G01 X5.4894 Y7.6239
G01 X5.4345 Y7.7549
G01 X5.3719 Y7.8824
G01 X5.3017 Y8.0059
G01 X5.2244 Y8.1250
G01 X5.1400 Y8.2393
G01 X5.0490 Y8.3483
G01 X4.9516 Y8.4517
G01 X4.8482 Y8.5491
G01 X4.7393 Y8.6402
G01 X4.6250 Y8.7246
G01 X4.5060 Y8.8020
G01 X4.3825 Y8.8722
G01 X4.2550 Y8.9349
G01 X4.1241 Y8.9899
G01 X3.9901 Y9.0370
G01 X3.8535 Y9.0760
G01 X3.7148 Y9.1068
G01 X3.5746 Y9.1292
G01 X3.4332 Y9.1432
G01 X3.2913 Y9.1488
G01 X-3.2913
G01 X-3.4332 Y9.1432
G01 X-3.5746 Y9.1292
G01 X-3.7148 Y9.1068
G01 X-3.8535 Y9.0760
G01 X-3.9901 Y9.0370
G01 X-4.1241 Y8.9899
G01 X-4.2550 Y8.9349
G01 X-4.3825 Y8.8722
G01 X-4.5060 Y8.8020
G01 X-4.6250 Y8.7246
G01 X-4.7393 Y8.6402
G01 X-4.8482 Y8.5491
G01 X-4.9516 Y8.4517
G01 X-5.0490 Y8.3483
G01 X-5.1400 Y8.2393
G01 X-5.2244 Y8.1250
G01 X-5.3017 Y8.0059
G01 X-5.3719 Y7.8824
G01 X-5.4345 Y7.7549
G01 X-5.4894 Y7.6239
G01 X-5.5364 Y7.4899
G01 X-5.5754 Y7.3533
G01 X-5.6061 Y7.2146
G01 X-5.6284 Y7.0743
G01 X-5.6424 Y6.9330
G01 X-5.6479 Y6.7911
G01 X-5.6449 Y6.6490
G01 X-5.6335 Y6.5075
G01 X-5.6136 Y6.3668
G01 X-5.5854 Y6.2276
G01 X-5.5489 Y6.0904
G01 X-5.5042 Y5.9555
G01 X-3.2709 Y0.0000
G01 X-5.5042 Y-5.9555
G01 X-5.5490 Y-6.0907
G01 X-5.5855 Y-6.2282
G01 X-5.6138 Y-6.3677
G01 X-5.6337 Y-6.5087
G01 X-5.6451 Y-6.6506
G01 X-5.6480 Y-6.7929
G01 X-5.6423 Y-6.9351
G01 X-5.6282 Y-7.0768
G01 X-5.6056 Y-7.2173
G01 X-5.5747 Y-7.3562
G01 X-5.5355 Y-7.4931
G01 X-5.4882 Y-7.6273
G01 X-5.4330 Y-7.7585
G01 X-5.3700 Y-7.8862
G01 X-5.2995 Y-8.0098
G01 X-5.2217 Y-8.1290
G01 X-5.1369 Y-8.2433
G01 X-5.0454 Y-8.3524
G01 X-4.9476 Y-8.4558
G01 X-4.8438 Y-8.5532
G01 Z-8.0000 F300
G01 X-4.7350 Y-8.6438 F762
G01 X-4.6210 Y-8.7277
G01 X-4.5022 Y-8.8047
G01 X-4.3791 Y-8.8745
G01 X-4.2520 Y-8.9368
G01 X-4.1214 Y-8.9914
G01 X-3.9878 Y-9.0381
G01 X-3.8516 Y-9.0768
G01 X-3.7134 Y-9.1073
G01 X-3.5736 Y-9.1295
G01 X-3.4327 Y-9.1434
G01 X-3.2913 Y-9.1488
G01 X-0.2042
G01 X3.2913
G01 X3.4332 Y-9.1432
G01 X3.5746 Y-9.1292
G01 X3.7148 Y-9.1068
G01 X3.8535 Y-9.0760
G01 X3.9901 Y-9.0370
G01 X4.1241 Y-8.9899
G01 X4.2550 Y-8.9349
G01 X4.3825 Y-8.8722
G01 X4.5060 Y-8.8020
G01 X4.6250 Y-8.7246
G01 X4.7393 Y-8.6402
G01 X4.8482 Y-8.5491
G01 X4.9516 Y-8.4517
G01 X5.0490 Y-8.3483
G01 X5.1400 Y-8.2393
G01 X5.2244 Y-8.1250
G01 X5.3017 Y-8.0059
G01 X5.3719 Y-7.8824
G01 X5.4345 Y-7.7549
G01 X5.4894 Y-7.6239
G01 X5.5364 Y-7.4899
G01 X5.5754 Y-7.3533
G01 X5.6061 Y-7.2146
G01 X5.6284 Y-7.0743
G01 X5.6424 Y-6.9330
G01 X5.6479 Y-6.7911
G01 X5.6449 Y-6.6490
G01 X5.6335 Y-6.5075
G01 X5.6136 Y-6.3668
G01 X5.5854 Y-6.2276
G01 X5.5489 Y-6.0904
G01 X5.5042 Y-5.9555
G01 X3.2709 Y0.0000
G01 X5.5042 Y5.9555
G01 X5.5489 Y6.0904
G01 X5.5854 Y6.2276
G01 X5.6136 Y6.3668
G01 X5.6335 Y6.5075
G01 X5.6449 Y6.6490
G01 X5.6479 Y6.7911
G01 X5.6424 Y6.9330
G01 X5.6284 Y7.0743
G01 X5.6061 Y7.2146
G01 X5.5754 Y7.3533
G01 X5.5364 Y7.4899
G01 X5.4894 Y7.6239
G01 X5.4345 Y7.7549
G01 X5.3719 Y7.8824
G01 X5.3017 Y8.0059
G01 X5.2244 Y8.1250
G01 X5.1400 Y8.2393
G01 X5.0490 Y8.3483
G01 X4.9516 Y8.4517
G01 X4.8482 Y8.5491
G01 X4.7393 Y8.6402
G01 X4.6250 Y8.7246
G01 X4.5060 Y8.8020
G01 X4.3825 Y8.8722
G01 X4.2550 Y8.9349
G01 X4.1241 Y8.9899
G01 X3.9901 Y9.0370
G01 X3.8535 Y9.0760
G01 X3.7148 Y9.1068
G01 X3.5746 Y9.1292
G01 X3.4332 Y9.1432
G01 X3.2913 Y9.1488
G01 X-3.2913
G01 X-3.4332 Y9.1432
G01 X-3.5746 Y9.1292
G01 X-3.7148 Y9.1068
G01 X-3.8535 Y9.0760
G01 X-3.9901 Y9.0370
G01 X-4.1241 Y8.9899
G01 X-4.2550 Y8.9349
G01 X-4.3825 Y8.8722
G01 X-4.5060 Y8.8020
G01 X-4.6250 Y8.7246
G01 X-4.7393 Y8.6402
G01 X-4.8482 Y8.5491
G01 X-4.9516 Y8.4517
G01 X-5.0490 Y8.3483
G01 X-5.1400 Y8.2393
G01 X-5.2244 Y8.1250
G01 X-5.3017 Y8.0059
G01 X-5.3719 Y7.8824
G01 X-5.4345 Y7.7549
G01 X-5.4894 Y7.6239
G01 X-5.5364 Y7.4899
G01 X-5.5754 Y7.3533
G01 X-5.6061 Y7.2146
G01 X-5.6284 Y7.0743
G01 X-5.6424 Y6.9330
G01 X-5.6479 Y6.7911
G01 X-5.6449 Y6.6490
G01 X-5.6335 Y6.5075
G01 X-5.6136 Y6.3668
G01 X-5.5854 Y6.2276
G01 X-5.5489 Y6.0904
G01 X-5.5042 Y5.9555
G01 X-3.2709 Y0.0000
G01 X-5.5042 Y-5.9555
G01 X-5.5490 Y-6.0907
G01 X-5.5855 Y-6.2282
G01 X-5.6138 Y-6.3677
G01 X-5.6337 Y-6.5087
G01 X-5.6451 Y-6.6506
G01 X-5.6480 Y-6.7929
G01 X-5.6423 Y-6.9351
G01 X-5.6282 Y-7.0768
G01 X-5.6056 Y-7.2173
G01 X-5.5747 Y-7.3562
G01 X-5.5355 Y-7.4931
G01 X-5.4882 Y-7.6273
G01 X-5.4330 Y-7.7585
G01 X-5.3700 Y-7.8862
G01 X-5.2995 Y-8.0098
G01 X-5.2217 Y-8.1290
G01 X-5.1369 Y-8.2433
G01 X-5.0454 Y-8.3524
G01 X-4.9476 Y-8.4558
G01 X-4.8438 Y-8.5532
G01 Z-9.0000 F300
G01 X-4.7350 Y-8.6438 F762
G01 X-4.6210 Y-8.7277
G01 X-4.5022 Y-8.8047
G01 X-4.3791 Y-8.8745
G01 X-4.2520 Y-8.9368
G01 X-4.1214 Y-8.9914
G01 X-3.9878 Y-9.0381
G01 X-3.8516 Y-9.0768
G01 X-3.7134 Y-9.1073
G01 X-3.5736 Y-9.1295
G01 X-3.4327 Y-9.1434
G01 X-3.2913 Y-9.1488
G01 X-0.2042
G01 X3.2913
G01 X3.4332 Y-9.1432
G01 X3.5746 Y-9.1292
G01 X3.7148 Y-9.1068
G01 X3.8535 Y-9.0760
G01 X3.9901 Y-9.0370
G01 X4.1241 Y-8.9899
G01 X4.2550 Y-8.9349
G01 X4.3825 Y-8.8722
G01 X4.5060 Y-8.8020
G01 X4.6250 Y-8.7246
G01 X4.7393 Y-8.6402
G01 X4.8482 Y-8.5491
G01 X4.9516 Y-8.4517
G01 X5.0490 Y-8.3483
G01 X5.1400 Y-8.2393
G01 X5.2244 Y-8.1250
G01 X5.3017 Y-8.0059
G01 X5.3719 Y-7.8824
G01 X5.4345 Y-7.7549
G01 X5.4894 Y-7.6239
G01 X5.5364 Y-7.4899
G01 X5.5754 Y-7.3533
G01 X5.6061 Y-7.2146
G01 X5.6284 Y-7.0743
G01 X5.6424 Y-6.9330
G01 X5.6479 Y-6.7911
G01 X5.6449 Y-6.6490
G01 X5.6335 Y-6.5075
G01 X5.6136 Y-6.3668
G01 X5.5854 Y-6.2276
G01 X5.5489 Y-6.0904
G01 X5.5042 Y-5.9555
G01 X3.2709 Y0.0000
G01 X5.5042 Y5.9555
G01 X5.5489 Y6.0904
G01 X5.5854 Y6.2276
G01 X5.6136 Y6.3668
G01 X5.6335 Y6.5075
G01 X5.6449 Y6.6490
G01 X5.6479 Y6.7911
G01 X5.6424 Y6.9330
G01 X5.6284 Y7.0743
G01 X5.6061 Y7.2146
G01 X5.5754 Y7.3533
G01 X5.5364 Y7.4899
G01 X5.4894 Y7.6239
G01 X5.4345 Y7.7549
G01 X5.3719 Y7.8824
G01 X5.3017 Y8.0059
G01 X5.2244 Y8.1250
G01 X5.1400 Y8.2393
G01 X5.0490 Y8.3483
G01 X4.9516 Y8.4517
G01 X4.8482 Y8.5491
G01 X4.7393 Y8.6402
G01 X4.6250 Y8.7246
G01 X4.5060 Y8.8020
G01 X4.3825 Y8.8722
G01 X4.2550 Y8.9349
G01 X4.1241 Y8.9899
G01 X3.9901 Y9.0370
G01 X3.8535 Y9.0760
G01 X3.7148 Y9.1068
G01 X3.5746 Y9.1292
G01 X3.4332 Y9.1432
G01 X3.2913 Y9.1488
G01 X-3.2913
G01 X-3.4332 Y9.1432
G01 X-3.5746 Y9.1292
G01 X-3.7148 Y9.1068
G01 X-3.8535 Y9.0760
G01 X-3.9901 Y9.0370
G01 X-4.1241 Y8.9899
G01 X-4.2550 Y8.9349
G01 X-4.3825 Y8.8722
G01 X-4.5060 Y8.8020
G01 X-4.6250 Y8.7246
G01 X-4.7393 Y8.6402
G01 X-4.8482 Y8.5491
G01 X-4.9516 Y8.4517
G01 X-5.0490 Y8.3483
G01 X-5.1400 Y8.2393
G01 X-5.2244 Y8.1250
G01 X-5.3017 Y8.0059
G01 X-5.3719 Y7.8824
G01 X-5.4345 Y7.7549
G01 X-5.4894 Y7.6239
G01 X-5.5364 Y7.4899
G01 X-5.5754 Y7.3533
G01 X-5.6061 Y7.2146
G01 X-5.6284 Y7.0743
G01 X-5.6424 Y6.9330
G01 X-5.6479 Y6.7911
G01 X-5.6449 Y6.6490
G01 X-5.6335 Y6.5075
G01 X-5.6136 Y6.3668
G01 X-5.5854 Y6.2276
G01 X-5.5489 Y6.0904
G01 X-5.5042 Y5.9555
G01 X-3.2709 Y0.0000
G01 X-5.5042 Y-5.9555
G01 X-5.5490 Y-6.0907
G01 X-5.5855 Y-6.2282
G01 X-5.6138 Y-6.3677
G01 X-5.6337 Y-6.5087
G01 X-5.6451 Y-6.6506
G01 X-5.6480 Y-6.7929
G01 X-5.6423 Y-6.9351
G01 X-5.6282 Y-7.0768
G01 X-5.6056 Y-7.2173
G01 X-5.5747 Y-7.3562
G01 X-5.5355 Y-7.4931
G01 X-5.4882 Y-7.6273
G01 X-5.4330 Y-7.7585
G01 X-5.3700 Y-7.8862
G01 X-5.2995 Y-8.0098
G01 X-5.2217 Y-8.1290
G01 X-5.1369 Y-8.2433
G01 X-5.0454 Y-8.3524
G01 X-4.9476 Y-8.4558
G01 X-4.8438 Y-8.5532
G01 Z-10.0000 F300
G01 X-4.7350 Y-8.6438 F762
G01 X-4.6210 Y-8.7277
G01 X-4.5022 Y-8.8047
G01 X-4.3791 Y-8.8745
G01 X-4.2520 Y-8.9368
G01 X-4.1214 Y-8.9914
G01 X-3.9878 Y-9.0381
G01 X-3.8516 Y-9.0768
G01 X-3.7134 Y-9.1073
G01 X-3.5736 Y-9.1295
G01 X-3.4327 Y-9.1434
G01 X-3.2913 Y-9.1488
G01 X-0.2042
G01 X3.2913
G01 X3.4332 Y-9.1432
G01 X3.5746 Y-9.1292
G01 X3.7148 Y-9.1068
G01 X3.8535 Y-9.0760
G01 X3.9901 Y-9.0370
G01 X4.1241 Y-8.9899
G01 X4.2550 Y-8.9349
G01 X4.3825 Y-8.8722
G01 X4.5060 Y-8.8020
G01 X4.6250 Y-8.7246
G01 X4.7393 Y-8.6402
G01 X4.8482 Y-8.5491
G01 X4.9516 Y-8.4517
G01 X5.0490 Y-8.3483
G01 X5.1400 Y-8.2393
G01 X5.2244 Y-8.1250
G01 X5.3017 Y-8.0059
G01 X5.3719 Y-7.8824
G01 X5.4345 Y-7.7549
G01 X5.4894 Y-7.6239
G01 X5.5364 Y-7.4899
G01 X5.5754 Y-7.3533
G01 X5.6061 Y-7.2146
G01 X5.6284 Y-7.0743
G01 X5.6424 Y-6.9330
G01 X5.6479 Y-6.7911
G01 X5.6449 Y-6.6490
G01 X5.6335 Y-6.5075
G01 X5.6136 Y-6.3668
G01 X5.5854 Y-6.2276
G01 X5.5489 Y-6.0904
G01 X5.5042 Y-5.9555
G01 X3.2709 Y0.0000
G01 X5.5042 Y5.9555
G01 X5.5489 Y6.0904
G01 X5.5854 Y6.2276
G01 X5.6136 Y6.3668
G01 X5.6335 Y6.5075
G01 X5.6449 Y6.6490
G01 X5.6479 Y6.7911
G01 X5.6424 Y6.9330
G01 X5.6284 Y7.0743
G01 X5.6061 Y7.2146
G01 X5.5754 Y7.3533
G01 X5.5364 Y7.4899
G01 X5.4894 Y7.6239
G01 X5.4345 Y7.7549
G01 X5.3719 Y7.8824
G01 X5.3017 Y8.0059
G01 X5.2244 Y8.1250
G01 X5.1400 Y8.2393
G01 X5.0490 Y8.3483
G01 X4.9516 Y8.4517
G01 X4.8482 Y8.5491
G01 X4.7393 Y8.6402
G01 X4.6250 Y8.7246
G01 X4.5060 Y8.8020
G01 X4.3825 Y8.8722
G01 X4.2550 Y8.9349
G01 X4.1241 Y8.9899
G01 X3.9901 Y9.0370
G01 X3.8535 Y9.0760
G01 X3.7148 Y9.1068
G01 X3.5746 Y9.1292
G01 X3.4332 Y9.1432
G01 X3.2913 Y9.1488
G01 X-3.2913
G01 X-3.4332 Y9.1432
G01 X-3.5746 Y9.1292
G01 X-3.7148 Y9.1068
G01 X-3.8535 Y9.0760
G01 X-3.9901 Y9.0370
G01 X-4.1241 Y8.9899
G01 X-4.2550 Y8.9349
G01 X-4.3825 Y8.8722
G01 X-4.5060 Y8.8020
G01 X-4.6250 Y8.7246
G01 X-4.7393 Y8.6402
G01 X-4.8482 Y8.5491
G01 X-4.9516 Y8.4517
G01 X-5.0490 Y8.3483
G01 X-5.1400 Y8.2393
G01 X-5.2244 Y8.1250
G01 X-5.3017 Y8.0059
G01 X-5.3719 Y7.8824
G01 X-5.4345 Y7.7549
G01 X-5.4894 Y7.6239
G01 X-5.5364 Y7.4899
G01 X-5.5754 Y7.3533
G01 X-5.6061 Y7.2146
G01 X-5.6284 Y7.0743
G01 X-5.6424 Y6.9330
G01 X-5.6479 Y6.7911
G01 X-5.6449 Y6.6490
G01 X-5.6335 Y6.5075
G01 X-5.6136 Y6.3668
G01 X-5.5854 Y6.2276
G01 X-5.5489 Y6.0904
G01 X-5.5042 Y5.9555
G01 X-3.2709 Y0.0000
G01 X-5.5042 Y-5.9555
G01 X-5.5490 Y-6.0907
G01 X-5.5855 Y-6.2282
G01 X-5.6138 Y-6.3677
G01 X-5.6337 Y-6.5087
G01 X-5.6451 Y-6.6506
G01 X-5.6480 Y-6.7929
G01 X-5.6423 Y-6.9351
G01 X-5.6282 Y-7.0768
G01 X-5.6056 Y-7.2173
G01 X-5.5747 Y-7.3562
G01 X-5.5355 Y-7.4931
G01 X-5.4882 Y-7.6273
G01 X-5.4330 Y-7.7585
G01 X-5.3700 Y-7.8862
G01 X-5.2995 Y-8.0098
G01 X-5.2217 Y-8.1290
G01 X-5.1369 Y-8.2433
G01 X-5.0454 Y-8.3524
G01 X-4.9476 Y-8.4558
G01 X-4.8438 Y-8.5532
G01 Z-11.0000 F300
G01 X-4.7350 Y-8.6438 F762
G01 X-4.6210 Y-8.7277
G01 X-4.5022 Y-8.8047
G01 X-4.3791 Y-8.8745
G01 X-4.2520 Y-8.9368
G01 X-4.1214 Y-8.9914
G01 X-3.9878 Y-9.0381
G01 X-3.8516 Y-9.0768
G01 X-3.7134 Y-9.1073
G01 X-3.5736 Y-9.1295
G01 X-3.4327 Y-9.1434
G01 X-3.2913 Y-9.1488
G01 X-0.2042
G01 X3.2913
G01 X3.4332 Y-9.1432
G01 X3.5746 Y-9.1292
G01 X3.7148 Y-9.1068
G01 X3.8535 Y-9.0760
G01 X3.9901 Y-9.0370
G01 X4.1241 Y-8.9899
G01 X4.2550 Y-8.9349
G01 X4.3825 Y-8.8722
G01 X4.5060 Y-8.8020
G01 X4.6250 Y-8.7246
G01 X4.7393 Y-8.6402
G01 X4.8482 Y-8.5491
G01 X4.9516 Y-8.4517
G01 X5.0490 Y-8.3483
G01 X5.1400 Y-8.2393
G01 X5.2244 Y-8.1250
G01 X5.3017 Y-8.0059
G01 X5.3719 Y-7.8824
G01 X5.4345 Y-7.7549
G01 X5.4894 Y-7.6239
G01 X5.5364 Y-7.4899
G01 X5.5754 Y-7.3533
G01 X5.6061 Y-7.2146
G01 X5.6284 Y-7.0743
G01 X5.6424 Y-6.9330
G01 X5.6479 Y-6.7911
G01 X5.6449 Y-6.6490
G01 X5.6335 Y-6.5075
G01 X5.6136 Y-6.3668
G01 X5.5854 Y-6.2276
G01 X5.5489 Y-6.0904
G01 X5.5042 Y-5.9555
G01 X3.2709 Y0.0000
G01 X5.5042 Y5.9555
G01 X5.5489 Y6.0904
G01 X5.5854 Y6.2276
G01 X5.6136 Y6.3668
G01 X5.6335 Y6.5075
G01 X5.6449 Y6.6490
G01 X5.6479 Y6.7911
G01 X5.6424 Y6.9330
G01 X5.6284 Y7.0743
G01 X5.6061 Y7.2146
G01 X5.5754 Y7.3533
G01 X5.5364 Y7.4899
G01 X5.4894 Y7.6239
G01 X5.4345 Y7.7549
G01 X5.3719 Y7.8824
G01 X5.3017 Y8.0059
G01 X5.2244 Y8.1250
G01 X5.1400 Y8.2393
G01 X5.0490 Y8.3483
G01 X4.9516 Y8.4517
G01 X4.8482 Y8.5491
G01 X4.7393 Y8.6402
G01 X4.6250 Y8.7246
G01 X4.5060 Y8.8020
G01 X4.3825 Y8.8722
G01 X4.2550 Y8.9349
G01 X4.1241 Y8.9899
G01 X3.9901 Y9.0370
G01 X3.8535 Y9.0760
G01 X3.7148 Y9.1068
G01 X3.5746 Y9.1292
G01 X3.4332 Y9.1432
G01 X3.2913 Y9.1488
G01 X-3.2913
G01 X-3.4332 Y9.1432
G01 X-3.5746 Y9.1292
G01 X-3.7148 Y9.1068
G01 X-3.8535 Y9.0760
G01 X-3.9901 Y9.0370
G01 X-4.1241 Y8.9899
G01 X-4.2550 Y8.9349
G01 X-4.3825 Y8.8722
G01 X-4.5060 Y8.8020
G01 X-4.6250 Y8.7246
G01 X-4.7393 Y8.6402
G01 X-4.8482 Y8.5491
G01 X-4.9516 Y8.4517
G01 X-5.0490 Y8.3483
G01 X-5.1400 Y8.2393
G01 X-5.2244 Y8.1250
G01 X-5.3017 Y8.0059
G01 X-5.3719 Y7.8824
G01 X-5.4345 Y7.7549
G01 X-5.4894 Y7.6239
G01 X-5.5364 Y7.4899
G01 X-5.5754 Y7.3533
G01 X-5.6061 Y7.2146
G01 X-5.6284 Y7.0743
G01 X-5.6424 Y6.9330
G01 X-5.6479 Y6.7911
G01 X-5.6449 Y6.6490
G01 X-5.6335 Y6.5075
G01 X-5.6136 Y6.3668
G01 X-5.5854 Y6.2276
G01 X-5.5489 Y6.0904
G01 X-5.5042 Y5.9555
G01 X-3.2709 Y0.0000
G01 X-5.5042 Y-5.9555
G01 X-5.5490 Y-6.0907
G01 X-5.5855 Y-6.2282
G01 X-5.6138 Y-6.3677
G01 X-5.6337 Y-6.5087
G01 X-5.6451 Y-6.6506
G01 X-5.6480 Y-6.7929
G01 X-5.6423 Y-6.9351
G01 X-5.6282 Y-7.0768
G01 X-5.6056 Y-7.2173
G01 X-5.5747 Y-7.3562
G01 X-5.5355 Y-7.4931
G01 X-5.4882 Y-7.6273
G01 X-5.4330 Y-7.7585
G01 X-5.3700 Y-7.8862
G01 X-5.2995 Y-8.0098
G01 X-5.2217 Y-8.1290
G01 X-5.1369 Y-8.2433
G01 X-5.0454 Y-8.3524
G01 X-4.9476 Y-8.4558
G01 X-4.8438 Y-8.5532
G01 Z-12.0000 F300
G01 X-4.7350 Y-8.6438 F762
G01 X-4.6210 Y-8.7277
G01 X-4.5022 Y-8.8047
G01 X-4.3791 Y-8.8745
G01 X-4.2520 Y-8.9368
G01 X-4.1214 Y-8.9914
G01 X-3.9878 Y-9.0381
G01 X-3.8516 Y-9.0768
G01 X-3.7134 Y-9.1073
G01 X-3.5736 Y-9.1295
G01 X-3.4327 Y-9.1434
G01 X-3.2913 Y-9.1488
G01 X-0.2042
G01 X3.2913
G01 X3.4332 Y-9.1432
G01 X3.5746 Y-9.1292
G01 X3.7148 Y-9.1068
G01 X3.8535 Y-9.0760
G01 X3.9901 Y-9.0370
G01 X4.1241 Y-8.9899
G01 X4.2550 Y-8.9349
G01 X4.3825 Y-8.8722
G01 X4.5060 Y-8.8020
G01 X4.6250 Y-8.7246
G01 X4.7393 Y-8.6402
G01 X4.8482 Y-8.5491
G01 X4.9516 Y-8.4517
G01 X5.0490 Y-8.3483
G01 X5.1400 Y-8.2393
G01 X5.2244 Y-8.1250
G01 X5.3017 Y-8.0059
G01 X5.3719 Y-7.8824
G01 X5.4345 Y-7.7549
G01 X5.4894 Y-7.6239
G01 X5.5364 Y-7.4899
G01 X5.5754 Y-7.3533
G01 X5.6061 Y-7.2146
G01 X5.6284 Y-7.0743
G01 X5.6424 Y-6.9330
G01 X5.6479 Y-6.7911
G01 X5.6449 Y-6.6490
G01 X5.6335 Y-6.5075
G01 X5.6136 Y-6.3668
G01 X5.5854 Y-6.2276
G01 X5.5489 Y-6.0904
G01 X5.5042 Y-5.9555
G01 X3.2709 Y0.0000
G01 X5.5042 Y5.9555
G01 X5.5489 Y6.0904
G01 X5.5854 Y6.2276
G01 X5.6136 Y6.3668
G01 X5.6335 Y6.5075
G01 X5.6449 Y6.6490
G01 X5.6479 Y6.7911
G01 X5.6424 Y6.9330
G01 X5.6284 Y7.0743
G01 X5.6061 Y7.2146
G01 X5.5754 Y7.3533
G01 X5.5364 Y7.4899
G01 X5.4894 Y7.6239
G01 X5.4345 Y7.7549
G01 X5.3719 Y7.8824
G01 X5.3017 Y8.0059
G01 X5.2244 Y8.1250
G01 X5.1400 Y8.2393
G01 X5.0490 Y8.3483
G01 X4.9516 Y8.4517
G01 X4.8482 Y8.5491
G01 X4.7393 Y8.6402
G01 X4.6250 Y8.7246
G01 X4.5060 Y8.8020
G01 X4.3825 Y8.8722
G01 X4.2550 Y8.9349
G01 X4.1241 Y8.9899
G01 X3.9901 Y9.0370
G01 X3.8535 Y9.0760
G01 X3.7148 Y9.1068
G01 X3.5746 Y9.1292
G01 X3.4332 Y9.1432
G01 X3.2913 Y9.1488
G01 X-3.2913
G01 X-3.4332 Y9.1432
G01 X-3.5746 Y9.1292
G01 X-3.7148 Y9.1068
G01 X-3.8535 Y9.0760
G01 X-3.9901 Y9.0370
G01 X-4.1241 Y8.9899
G01 X-4.2550 Y8.9349
G01 X-4.3825 Y8.8722
G01 X-4.5060 Y8.8020
G01 X-4.6250 Y8.7246
G01 X-4.7393 Y8.6402
G01 X-4.8482 Y8.5491
G01 X-4.9516 Y8.4517
G01 X-5.0490 Y8.3483
G01 X-5.1400 Y8.2393
G01 X-5.2244 Y8.1250
G01 X-5.3017 Y8.0059
G01 X-5.3719 Y7.8824
G01 X-5.4345 Y7.7549
G01 X-5.4894 Y7.6239
G01 X-5.5364 Y7.4899
G01 X-5.5754 Y7.3533
G01 X-5.6061 Y7.2146
G01 X-5.6284 Y7.0743
G01 X-5.6424 Y6.9330
G01 X-5.6479 Y6.7911
G01 X-5.6449 Y6.6490
G01 X-5.6335 Y6.5075
G01 X-5.6136 Y6.3668
G01 X-5.5854 Y6.2276
G01 X-5.5489 Y6.0904
G01 X-5.5042 Y5.9555
G01 X-3.2709 Y0.0000
G01 X-5.5042 Y-5.9555
G01 X-5.5490 Y-6.0907
G01 X-5.5855 Y-6.2282
G01 X-5.6138 Y-6.3677
G01 X-5.6337 Y-6.5087
G01 X-5.6451 Y-6.6506
G01 X-5.6480 Y-6.7929
G01 X-5.6423 Y-6.9351
G01 X-5.6282 Y-7.0768
G01 X-5.6056 Y-7.2173
G01 X-5.5747 Y-7.3562
G01 X-5.5355 Y-7.4931
G01 X-5.4882 Y-7.6273
G01 X-5.4330 Y-7.7585
G01 X-5.3700 Y-7.8862
G01 X-5.2995 Y-8.0098
G01 X-5.2217 Y-8.1290
G01 X-5.1369 Y-8.2433
G01 X-5.0454 Y-8.3524
G01 X-4.9476 Y-8.4558
G01 X-4.8438 Y-8.5532
G00 Z5.0000
G00 X0.0000 Y0.0000

M05
M30
