(Project small-pewa-radius.dxf)
(Created by Estlcam version 11 build 11.245)
(Machining time about 00:02:23 hours)

(Required tools:)
(3/32")
G21
G90
G94
M03 S24000
G00 Z5.0000


(No. 1: Part 1)
G00 X-5.6289 Y-6.2601
G00 Z0.5000
G01 Z0.0000 F300 S24000
G01 Z-1.0000
G01 X-5.6358 Y-6.3327
G01 X-5.6383 Y-6.4057
G01 X-5.6363 Y-6.4786
G01 X-5.6298 Y-6.5513
G01 X-5.6189 Y-6.6234
G01 X-5.6036 Y-6.6948
G01 X-5.5839 Y-6.7650
G01 X-5.5600 Y-6.8340
G01 X-5.5330 Y-6.9471
G01 X-5.5000 Y-7.0587
G01 X-5.4610 Y-7.1683
G01 X-5.4162 Y-7.2756
G01 X-5.3656 Y-7.3803
G01 X-5.3094 Y-7.4822
G01 X-5.2478 Y-7.5808
G01 X-5.1809 Y-7.6760
G01 X-5.0887 Y-7.7853
G01 X-4.9910 Y-7.8897
G01 X-4.8882 Y-7.9892
G01 X-4.7806 Y-8.0833
G01 X-4.6683 Y-8.1719
G01 X-4.5518 Y-8.2548
G01 X-4.4312 Y-8.3317
G01 X-4.3069 Y-8.4024
G01 X-4.0525 Y-8.4934
G01 X-3.7916 Y-8.5640
G01 X-3.5260 Y-8.6139
G01 X-3.2574 Y-8.6427
G01 X-0.0100 Y-8.6426
G01 X3.5612 Y-8.6058
G01 X3.6662 Y-8.5916
G01 X3.7705 Y-8.5730
G01 X3.8739 Y-8.5500
G01 X3.9762 Y-8.5227
G01 X4.0773 Y-8.4911
G01 X4.1770 Y-8.4552
G01 X4.2751 Y-8.4152
G01 X4.3714 Y-8.3711
G01 X4.4696 Y-8.3146
G01 X4.5650 Y-8.2536
G01 X4.6575 Y-8.1882
G01 X4.7470 Y-8.1187
G01 X4.8331 Y-8.0452
G01 X4.9158 Y-7.9677
G01 X4.9948 Y-7.8866
G01 X5.0700 Y-7.8019
G01 X5.1412 Y-7.7138
G01 X5.2083 Y-7.6226
G01 X5.2711 Y-7.5283
G01 X5.3295 Y-7.4313
G01 X5.3937 Y-7.3134
G01 X5.4508 Y-7.1920
G01 X5.5008 Y-7.0674
G01 X5.5435 Y-6.9402
G01 X5.5787 Y-6.8107
G01 X5.6063 Y-6.6794
G01 X5.6261 Y-6.5466
G01 X5.6383 Y-6.4130
G01 X5.6211 Y-6.1617
G01 X5.5910 Y-5.9116
G01 X5.5480 Y-5.6633
G01 X5.4923 Y-5.4176
G01 X3.2722 Y0.5025
G01 X5.5646 Y6.7266
G01 X5.5881 Y6.8300
G01 X5.6073 Y6.9343
G01 X5.6221 Y7.0393
G01 X5.6324 Y7.1448
G01 X5.6383 Y7.2507
G01 X5.6398 Y7.3567
G01 X5.6367 Y7.4627
G01 X5.6292 Y7.5685
G01 X5.6107 Y7.6802
G01 X5.5871 Y7.7910
G01 X5.5584 Y7.9006
G01 X5.5247 Y8.0087
G01 X5.4861 Y8.1152
G01 X5.4426 Y8.2197
G01 X5.3944 Y8.3222
G01 X5.3415 Y8.4223
G01 X5.2840 Y8.5199
G01 X5.2222 Y8.6148
G01 X5.1560 Y8.7067
G01 X5.0856 Y8.7955
G01 X4.9978 Y8.8969
G01 X4.9042 Y8.9930
G01 X4.8051 Y9.0836
G01 X4.7010 Y9.1682
G01 X4.5921 Y9.2466
G01 X4.4788 Y9.3186
G01 X4.3615 Y9.3838
G01 X4.2406 Y9.4421
G01 X3.9992 Y9.5142
G01 X3.7544 Y9.5738
G01 X3.5069 Y9.6208
G01 X3.2573 Y9.6549
G01 X0.0099 Y9.6547
G01 X-3.5609 Y9.6180
G01 X-3.6659 Y9.6038
G01 X-3.7702 Y9.5852
G01 X-3.8736 Y9.5623
G01 X-3.9760 Y9.5350
G01 X-4.0771 Y9.5034
G01 X-4.1768 Y9.4675
G01 X-4.2749 Y9.4275
G01 X-4.3713 Y9.3834
G01 X-4.4694 Y9.3269
G01 X-4.5649 Y9.2659
G01 X-4.6574 Y9.2006
G01 X-4.7469 Y9.1310
G01 X-4.8330 Y9.0575
G01 X-4.9157 Y8.9801
G01 X-4.9947 Y8.8989
G01 X-5.0699 Y8.8142
G01 X-5.1412 Y8.7261
G01 X-5.2083 Y8.6348
G01 X-5.2711 Y8.5406
G01 X-5.3295 Y8.4435
G01 X-5.3937 Y8.3256
G01 X-5.4508 Y8.2042
G01 X-5.5008 Y8.0797
G01 X-5.5435 Y7.9524
G01 X-5.5787 Y7.8229
G01 X-5.6062 Y7.6916
G01 X-5.6261 Y7.5589
G01 X-5.6383 Y7.4252
G01 X-5.6211 Y7.1739
G01 X-5.5910 Y6.9238
G01 X-5.5480 Y6.6756
G01 X-5.4923 Y6.4299
G01 X-3.2722 Y0.5096
G01 X-5.5646 Y-5.7145
G01 X-5.6289 Y-6.2601
G01 Z-2.0000
G01 X-5.6358 Y-6.3327
G01 X-5.6383 Y-6.4057
G01 X-5.6363 Y-6.4786
G01 X-5.6298 Y-6.5513
G01 X-5.6189 Y-6.6234
G01 X-5.6036 Y-6.6948
G01 X-5.5839 Y-6.7650
G01 X-5.5600 Y-6.8340
G01 X-5.5330 Y-6.9471
G01 X-5.5000 Y-7.0587
G01 X-5.4610 Y-7.1683
G01 X-5.4162 Y-7.2756
G01 X-5.3656 Y-7.3803
G01 X-5.3094 Y-7.4822
G01 X-5.2478 Y-7.5808
G01 X-5.1809 Y-7.6760
G01 X-5.0887 Y-7.7853
G01 X-4.9910 Y-7.8897
G01 X-4.8882 Y-7.9892
G01 X-4.7806 Y-8.0833
G01 X-4.6683 Y-8.1719
G01 X-4.5518 Y-8.2548
G01 X-4.4312 Y-8.3317
G01 X-4.3069 Y-8.4024
G01 X-4.0525 Y-8.4934
G01 X-3.7916 Y-8.5640
G01 X-3.5260 Y-8.6139
G01 X-3.2574 Y-8.6427
G01 X-0.0100 Y-8.6426
G01 X3.5612 Y-8.6058
G01 X3.6662 Y-8.5916
G01 X3.7705 Y-8.5730
G01 X3.8739 Y-8.5500
G01 X3.9762 Y-8.5227
G01 X4.0773 Y-8.4911
G01 X4.1770 Y-8.4552
G01 X4.2751 Y-8.4152
G01 X4.3714 Y-8.3711
G01 X4.4696 Y-8.3146
G01 X4.5650 Y-8.2536
G01 X4.6575 Y-8.1882
G01 X4.7470 Y-8.1187
G01 X4.8331 Y-8.0452
G01 X4.9158 Y-7.9677
G01 X4.9948 Y-7.8866
G01 X5.0700 Y-7.8019
G01 X5.1412 Y-7.7138
G01 X5.2083 Y-7.6226
G01 X5.2711 Y-7.5283
G01 X5.3295 Y-7.4313
G01 X5.3937 Y-7.3134
G01 X5.4508 Y-7.1920
G01 X5.5008 Y-7.0674
G01 X5.5435 Y-6.9402
G01 X5.5787 Y-6.8107
G01 X5.6063 Y-6.6794
G01 X5.6261 Y-6.5466
G01 X5.6383 Y-6.4130
G01 X5.6211 Y-6.1617
G01 X5.5910 Y-5.9116
G01 X5.5480 Y-5.6633
G01 X5.4923 Y-5.4176
G01 X3.2722 Y0.5025
G01 X5.5646 Y6.7266
G01 X5.5881 Y6.8300
G01 X5.6073 Y6.9343
G01 X5.6221 Y7.0393
G01 X5.6324 Y7.1448
G01 X5.6383 Y7.2507
G01 X5.6398 Y7.3567
G01 X5.6367 Y7.4627
G01 X5.6292 Y7.5685
G01 X5.6107 Y7.6802
G01 X5.5871 Y7.7910
G01 X5.5584 Y7.9006
G01 X5.5247 Y8.0087
G01 X5.4861 Y8.1152
G01 X5.4426 Y8.2197
G01 X5.3944 Y8.3222
G01 X5.3415 Y8.4223
G01 X5.2840 Y8.5199
G01 X5.2222 Y8.6148
G01 X5.1560 Y8.7067
G01 X5.0856 Y8.7955
G01 X4.9978 Y8.8969
G01 X4.9042 Y8.9930
G01 X4.8051 Y9.0836
G01 X4.7010 Y9.1682
G01 X4.5921 Y9.2466
G01 X4.4788 Y9.3186
G01 X4.3615 Y9.3838
G01 X4.2406 Y9.4421
G01 X3.9992 Y9.5142
G01 X3.7544 Y9.5738
G01 X3.5069 Y9.6208
G01 X3.2573 Y9.6549
G01 X0.0099 Y9.6547
G01 X-3.5609 Y9.6180
G01 X-3.6659 Y9.6038
G01 X-3.7702 Y9.5852
G01 X-3.8736 Y9.5623
G01 X-3.9760 Y9.5350
G01 X-4.0771 Y9.5034
G01 X-4.1768 Y9.4675
G01 X-4.2749 Y9.4275
G01 X-4.3713 Y9.3834
G01 X-4.4694 Y9.3269
G01 X-4.5649 Y9.2659
G01 X-4.6574 Y9.2006
G01 X-4.7469 Y9.1310
G01 X-4.8330 Y9.0575
G01 X-4.9157 Y8.9801
G01 X-4.9947 Y8.8989
G01 X-5.0699 Y8.8142
G01 X-5.1412 Y8.7261
G01 X-5.2083 Y8.6348
G01 X-5.2711 Y8.5406
G01 X-5.3295 Y8.4435
G01 X-5.3937 Y8.3256
G01 X-5.4508 Y8.2042
G01 X-5.5008 Y8.0797
G01 X-5.5435 Y7.9524
G01 X-5.5787 Y7.8229
G01 X-5.6062 Y7.6916
G01 X-5.6261 Y7.5589
G01 X-5.6383 Y7.4252
G01 X-5.6211 Y7.1739
G01 X-5.5910 Y6.9238
G01 X-5.5480 Y6.6756
G01 X-5.4923 Y6.4299
G01 X-3.2722 Y0.5096
G01 X-5.5646 Y-5.7145
G01 X-5.6289 Y-6.2601
G01 Z-3.0000
G01 X-5.6358 Y-6.3327
G01 X-5.6383 Y-6.4057
G01 X-5.6363 Y-6.4786
G01 X-5.6298 Y-6.5513
G01 X-5.6189 Y-6.6234
G01 X-5.6036 Y-6.6948
G01 X-5.5839 Y-6.7650
G01 X-5.5600 Y-6.8340
G01 X-5.5330 Y-6.9471
G01 X-5.5000 Y-7.0587
G01 X-5.4610 Y-7.1683
G01 X-5.4162 Y-7.2756
G01 X-5.3656 Y-7.3803
G01 X-5.3094 Y-7.4822
G01 X-5.2478 Y-7.5808
G01 X-5.1809 Y-7.6760
G01 X-5.0887 Y-7.7853
G01 X-4.9910 Y-7.8897
G01 X-4.8882 Y-7.9892
G01 X-4.7806 Y-8.0833
G01 X-4.6683 Y-8.1719
G01 X-4.5518 Y-8.2548
G01 X-4.4312 Y-8.3317
G01 X-4.3069 Y-8.4024
G01 X-4.0525 Y-8.4934
G01 X-3.7916 Y-8.5640
G01 X-3.5260 Y-8.6139
G01 X-3.2574 Y-8.6427
G01 X-0.0100 Y-8.6426
G01 X3.5612 Y-8.6058
G01 X3.6662 Y-8.5916
G01 X3.7705 Y-8.5730
G01 X3.8739 Y-8.5500
G01 X3.9762 Y-8.5227
G01 X4.0773 Y-8.4911
G01 X4.1770 Y-8.4552
G01 X4.2751 Y-8.4152
G01 X4.3714 Y-8.3711
G01 X4.4696 Y-8.3146
G01 X4.5650 Y-8.2536
G01 X4.6575 Y-8.1882
G01 X4.7470 Y-8.1187
G01 X4.8331 Y-8.0452
G01 X4.9158 Y-7.9677
G01 X4.9948 Y-7.8866
G01 X5.0700 Y-7.8019
G01 X5.1412 Y-7.7138
G01 X5.2083 Y-7.6226
G01 X5.2711 Y-7.5283
G01 X5.3295 Y-7.4313
G01 X5.3937 Y-7.3134
G01 X5.4508 Y-7.1920
G01 X5.5008 Y-7.0674
G01 X5.5435 Y-6.9402
G01 X5.5787 Y-6.8107
G01 X5.6063 Y-6.6794
G01 X5.6261 Y-6.5466
G01 X5.6383 Y-6.4130
G01 X5.6211 Y-6.1617
G01 X5.5910 Y-5.9116
G01 X5.5480 Y-5.6633
G01 X5.4923 Y-5.4176
G01 X3.2722 Y0.5025
G01 X5.5646 Y6.7266
G01 X5.5881 Y6.8300
G01 X5.6073 Y6.9343
G01 X5.6221 Y7.0393
G01 X5.6324 Y7.1448
G01 X5.6383 Y7.2507
G01 X5.6398 Y7.3567
G01 X5.6367 Y7.4627
G01 X5.6292 Y7.5685
G01 X5.6107 Y7.6802
G01 X5.5871 Y7.7910
G01 X5.5584 Y7.9006
G01 X5.5247 Y8.0087
G01 X5.4861 Y8.1152
G01 X5.4426 Y8.2197
G01 X5.3944 Y8.3222
G01 X5.3415 Y8.4223
G01 X5.2840 Y8.5199
G01 X5.2222 Y8.6148
G01 X5.1560 Y8.7067
G01 X5.0856 Y8.7955
G01 X4.9978 Y8.8969
G01 X4.9042 Y8.9930
G01 X4.8051 Y9.0836
G01 X4.7010 Y9.1682
G01 X4.5921 Y9.2466
G01 X4.4788 Y9.3186
G01 X4.3615 Y9.3838
G01 X4.2406 Y9.4421
G01 X3.9992 Y9.5142
G01 X3.7544 Y9.5738
G01 X3.5069 Y9.6208
G01 X3.2573 Y9.6549
G01 X0.0099 Y9.6547
G01 X-3.5609 Y9.6180
G01 X-3.6659 Y9.6038
G01 X-3.7702 Y9.5852
G01 X-3.8736 Y9.5623
G01 X-3.9760 Y9.5350
G01 X-4.0771 Y9.5034
G01 X-4.1768 Y9.4675
G01 X-4.2749 Y9.4275
G01 X-4.3713 Y9.3834
G01 X-4.4694 Y9.3269
G01 X-4.5649 Y9.2659
G01 X-4.6574 Y9.2006
G01 X-4.7469 Y9.1310
G01 X-4.8330 Y9.0575
G01 X-4.9157 Y8.9801
G01 X-4.9947 Y8.8989
G01 X-5.0699 Y8.8142
G01 X-5.1412 Y8.7261
G01 X-5.2083 Y8.6348
G01 X-5.2711 Y8.5406
G01 X-5.3295 Y8.4435
G01 X-5.3937 Y8.3256
G01 X-5.4508 Y8.2042
G01 X-5.5008 Y8.0797
G01 X-5.5435 Y7.9524
G01 X-5.5787 Y7.8229
G01 X-5.6062 Y7.6916
G01 X-5.6261 Y7.5589
G01 X-5.6383 Y7.4252
G01 X-5.6211 Y7.1739
G01 X-5.5910 Y6.9238
G01 X-5.5480 Y6.6756
G01 X-5.4923 Y6.4299
G01 X-3.2722 Y0.5096
G01 X-5.5646 Y-5.7145
G01 X-5.6289 Y-6.2601
G01 Z-4.0000
G01 X-5.6358 Y-6.3327
G01 X-5.6383 Y-6.4057
G01 X-5.6363 Y-6.4786
G01 X-5.6298 Y-6.5513
G01 X-5.6189 Y-6.6234
G01 X-5.6036 Y-6.6948
G01 X-5.5839 Y-6.7650
G01 X-5.5600 Y-6.8340
G01 X-5.5330 Y-6.9471
G01 X-5.5000 Y-7.0587
G01 X-5.4610 Y-7.1683
G01 X-5.4162 Y-7.2756
G01 X-5.3656 Y-7.3803
G01 X-5.3094 Y-7.4822
G01 X-5.2478 Y-7.5808
G01 X-5.1809 Y-7.6760
G01 X-5.0887 Y-7.7853
G01 X-4.9910 Y-7.8897
G01 X-4.8882 Y-7.9892
G01 X-4.7806 Y-8.0833
G01 X-4.6683 Y-8.1719
G01 X-4.5518 Y-8.2548
G01 X-4.4312 Y-8.3317
G01 X-4.3069 Y-8.4024
G01 X-4.0525 Y-8.4934
G01 X-3.7916 Y-8.5640
G01 X-3.5260 Y-8.6139
G01 X-3.2574 Y-8.6427
G01 X-0.0100 Y-8.6426
G01 X3.5612 Y-8.6058
G01 X3.6662 Y-8.5916
G01 X3.7705 Y-8.5730
G01 X3.8739 Y-8.5500
G01 X3.9762 Y-8.5227
G01 X4.0773 Y-8.4911
G01 X4.1770 Y-8.4552
G01 X4.2751 Y-8.4152
G01 X4.3714 Y-8.3711
G01 X4.4696 Y-8.3146
G01 X4.5650 Y-8.2536
G01 X4.6575 Y-8.1882
G01 X4.7470 Y-8.1187
G01 X4.8331 Y-8.0452
G01 X4.9158 Y-7.9677
G01 X4.9948 Y-7.8866
G01 X5.0700 Y-7.8019
G01 X5.1412 Y-7.7138
G01 X5.2083 Y-7.6226
G01 X5.2711 Y-7.5283
G01 X5.3295 Y-7.4313
G01 X5.3937 Y-7.3134
G01 X5.4508 Y-7.1920
G01 X5.5008 Y-7.0674
G01 X5.5435 Y-6.9402
G01 X5.5787 Y-6.8107
G01 X5.6063 Y-6.6794
G01 X5.6261 Y-6.5466
G01 X5.6383 Y-6.4130
G01 X5.6211 Y-6.1617
G01 X5.5910 Y-5.9116
G01 X5.5480 Y-5.6633
G01 X5.4923 Y-5.4176
G01 X3.2722 Y0.5025
G01 X5.5646 Y6.7266
G01 X5.5881 Y6.8300
G01 X5.6073 Y6.9343
G01 X5.6221 Y7.0393
G01 X5.6324 Y7.1448
G01 X5.6383 Y7.2507
G01 X5.6398 Y7.3567
G01 X5.6367 Y7.4627
G01 X5.6292 Y7.5685
G01 X5.6107 Y7.6802
G01 X5.5871 Y7.7910
G01 X5.5584 Y7.9006
G01 X5.5247 Y8.0087
G01 X5.4861 Y8.1152
G01 X5.4426 Y8.2197
G01 X5.3944 Y8.3222
G01 X5.3415 Y8.4223
G01 X5.2840 Y8.5199
G01 X5.2222 Y8.6148
G01 X5.1560 Y8.7067
G01 X5.0856 Y8.7955
G01 X4.9978 Y8.8969
G01 X4.9042 Y8.9930
G01 X4.8051 Y9.0836
G01 X4.7010 Y9.1682
G01 X4.5921 Y9.2466
G01 X4.4788 Y9.3186
G01 X4.3615 Y9.3838
G01 X4.2406 Y9.4421
G01 X3.9992 Y9.5142
G01 X3.7544 Y9.5738
G01 X3.5069 Y9.6208
G01 X3.2573 Y9.6549
G01 X0.0099 Y9.6547
G01 X-3.5609 Y9.6180
G01 X-3.6659 Y9.6038
G01 X-3.7702 Y9.5852
G01 X-3.8736 Y9.5623
G01 X-3.9760 Y9.5350
G01 X-4.0771 Y9.5034
G01 X-4.1768 Y9.4675
G01 X-4.2749 Y9.4275
G01 X-4.3713 Y9.3834
G01 X-4.4694 Y9.3269
G01 X-4.5649 Y9.2659
G01 X-4.6574 Y9.2006
G01 X-4.7469 Y9.1310
G01 X-4.8330 Y9.0575
G01 X-4.9157 Y8.9801
G01 X-4.9947 Y8.8989
G01 X-5.0699 Y8.8142
G01 X-5.1412 Y8.7261
G01 X-5.2083 Y8.6348
G01 X-5.2711 Y8.5406
G01 X-5.3295 Y8.4435
G01 X-5.3937 Y8.3256
G01 X-5.4508 Y8.2042
G01 X-5.5008 Y8.0797
G01 X-5.5435 Y7.9524
G01 X-5.5787 Y7.8229
G01 X-5.6062 Y7.6916
G01 X-5.6261 Y7.5589
G01 X-5.6383 Y7.4252
G01 X-5.6211 Y7.1739
G01 X-5.5910 Y6.9238
G01 X-5.5480 Y6.6756
G01 X-5.4923 Y6.4299
G01 X-3.2722 Y0.5096
G01 X-5.5646 Y-5.7145
G01 X-5.6289 Y-6.2601
G01 Z-5.0000
G01 X-5.6358 Y-6.3327
G01 X-5.6383 Y-6.4057
G01 X-5.6363 Y-6.4786
G01 X-5.6298 Y-6.5513
G01 X-5.6189 Y-6.6234
G01 X-5.6036 Y-6.6948
G01 X-5.5839 Y-6.7650
G01 X-5.5600 Y-6.8340
G01 X-5.5330 Y-6.9471
G01 X-5.5000 Y-7.0587
G01 X-5.4610 Y-7.1683
G01 X-5.4162 Y-7.2756
G01 X-5.3656 Y-7.3803
G01 X-5.3094 Y-7.4822
G01 X-5.2478 Y-7.5808
G01 X-5.1809 Y-7.6760
G01 X-5.0887 Y-7.7853
G01 X-4.9910 Y-7.8897
G01 X-4.8882 Y-7.9892
G01 X-4.7806 Y-8.0833
G01 X-4.6683 Y-8.1719
G01 X-4.5518 Y-8.2548
G01 X-4.4312 Y-8.3317
G01 X-4.3069 Y-8.4024
G01 X-4.0525 Y-8.4934
G01 X-3.7916 Y-8.5640
G01 X-3.5260 Y-8.6139
G01 X-3.2574 Y-8.6427
G01 X-0.0100 Y-8.6426
G01 X3.5612 Y-8.6058
G01 X3.6662 Y-8.5916
G01 X3.7705 Y-8.5730
G01 X3.8739 Y-8.5500
G01 X3.9762 Y-8.5227
G01 X4.0773 Y-8.4911
G01 X4.1770 Y-8.4552
G01 X4.2751 Y-8.4152
G01 X4.3714 Y-8.3711
G01 X4.4696 Y-8.3146
G01 X4.5650 Y-8.2536
G01 X4.6575 Y-8.1882
G01 X4.7470 Y-8.1187
G01 X4.8331 Y-8.0452
G01 X4.9158 Y-7.9677
G01 X4.9948 Y-7.8866
G01 X5.0700 Y-7.8019
G01 X5.1412 Y-7.7138
G01 X5.2083 Y-7.6226
G01 X5.2711 Y-7.5283
G01 X5.3295 Y-7.4313
G01 X5.3937 Y-7.3134
G01 X5.4508 Y-7.1920
G01 X5.5008 Y-7.0674
G01 X5.5435 Y-6.9402
G01 X5.5787 Y-6.8107
G01 X5.6063 Y-6.6794
G01 X5.6261 Y-6.5466
G01 X5.6383 Y-6.4130
G01 X5.6211 Y-6.1617
G01 X5.5910 Y-5.9116
G01 X5.5480 Y-5.6633
G01 X5.4923 Y-5.4176
G01 X3.2722 Y0.5025
G01 X5.5646 Y6.7266
G01 X5.5881 Y6.8300
G01 X5.6073 Y6.9343
G01 X5.6221 Y7.0393
G01 X5.6324 Y7.1448
G01 X5.6383 Y7.2507
G01 X5.6398 Y7.3567
G01 X5.6367 Y7.4627
G01 X5.6292 Y7.5685
G01 X5.6107 Y7.6802
G01 X5.5871 Y7.7910
G01 X5.5584 Y7.9006
G01 X5.5247 Y8.0087
G01 X5.4861 Y8.1152
G01 X5.4426 Y8.2197
G01 X5.3944 Y8.3222
G01 X5.3415 Y8.4223
G01 X5.2840 Y8.5199
G01 X5.2222 Y8.6148
G01 X5.1560 Y8.7067
G01 X5.0856 Y8.7955
G01 X4.9978 Y8.8969
G01 X4.9042 Y8.9930
G01 X4.8051 Y9.0836
G01 X4.7010 Y9.1682
G01 X4.5921 Y9.2466
G01 X4.4788 Y9.3186
G01 X4.3615 Y9.3838
G01 X4.2406 Y9.4421
G01 X3.9992 Y9.5142
G01 X3.7544 Y9.5738
G01 X3.5069 Y9.6208
G01 X3.2573 Y9.6549
G01 X0.0099 Y9.6547
G01 X-3.5609 Y9.6180
G01 X-3.6659 Y9.6038
G01 X-3.7702 Y9.5852
G01 X-3.8736 Y9.5623
G01 X-3.9760 Y9.5350
G01 X-4.0771 Y9.5034
G01 X-4.1768 Y9.4675
G01 X-4.2749 Y9.4275
G01 X-4.3713 Y9.3834
G01 X-4.4694 Y9.3269
G01 X-4.5649 Y9.2659
G01 X-4.6574 Y9.2006
G01 X-4.7469 Y9.1310
G01 X-4.8330 Y9.0575
G01 X-4.9157 Y8.9801
G01 X-4.9947 Y8.8989
G01 X-5.0699 Y8.8142
G01 X-5.1412 Y8.7261
G01 X-5.2083 Y8.6348
G01 X-5.2711 Y8.5406
G01 X-5.3295 Y8.4435
G01 X-5.3937 Y8.3256
G01 X-5.4508 Y8.2042
G01 X-5.5008 Y8.0797
G01 X-5.5435 Y7.9524
G01 X-5.5787 Y7.8229
G01 X-5.6062 Y7.6916
G01 X-5.6261 Y7.5589
G01 X-5.6383 Y7.4252
G01 X-5.6211 Y7.1739
G01 X-5.5910 Y6.9238
G01 X-5.5480 Y6.6756
G01 X-5.4923 Y6.4299
G01 X-3.2722 Y0.5096
G01 X-5.5646 Y-5.7145
G01 X-5.6289 Y-6.2601
G01 Z-6.0000
G01 X-5.6358 Y-6.3327
G01 X-5.6383 Y-6.4057
G01 X-5.6363 Y-6.4786
G01 X-5.6298 Y-6.5513
G01 X-5.6189 Y-6.6234
G01 X-5.6036 Y-6.6948
G01 X-5.5839 Y-6.7650
G01 X-5.5600 Y-6.8340
G01 X-5.5330 Y-6.9471
G01 X-5.5000 Y-7.0587
G01 X-5.4610 Y-7.1683
G01 X-5.4162 Y-7.2756
G01 X-5.3656 Y-7.3803
G01 X-5.3094 Y-7.4822
G01 X-5.2478 Y-7.5808
G01 X-5.1809 Y-7.6760
G01 X-5.0887 Y-7.7853
G01 X-4.9910 Y-7.8897
G01 X-4.8882 Y-7.9892
G01 X-4.7806 Y-8.0833
G01 X-4.6683 Y-8.1719
G01 X-4.5518 Y-8.2548
G01 X-4.4312 Y-8.3317
G01 X-4.3069 Y-8.4024
G01 X-4.0525 Y-8.4934
G01 X-3.7916 Y-8.5640
G01 X-3.5260 Y-8.6139
G01 X-3.2574 Y-8.6427
G01 X-0.0100 Y-8.6426
G01 X3.5612 Y-8.6058
G01 X3.6662 Y-8.5916
G01 X3.7705 Y-8.5730
G01 X3.8739 Y-8.5500
G01 X3.9762 Y-8.5227
G01 X4.0773 Y-8.4911
G01 X4.1770 Y-8.4552
G01 X4.2751 Y-8.4152
G01 X4.3714 Y-8.3711
G01 X4.4696 Y-8.3146
G01 X4.5650 Y-8.2536
G01 X4.6575 Y-8.1882
G01 X4.7470 Y-8.1187
G01 X4.8331 Y-8.0452
G01 X4.9158 Y-7.9677
G01 X4.9948 Y-7.8866
G01 X5.0700 Y-7.8019
G01 X5.1412 Y-7.7138
G01 X5.2083 Y-7.6226
G01 X5.2711 Y-7.5283
G01 X5.3295 Y-7.4313
G01 X5.3937 Y-7.3134
G01 X5.4508 Y-7.1920
G01 X5.5008 Y-7.0674
G01 X5.5435 Y-6.9402
G01 X5.5787 Y-6.8107
G01 X5.6063 Y-6.6794
G01 X5.6261 Y-6.5466
G01 X5.6383 Y-6.4130
G01 X5.6211 Y-6.1617
G01 X5.5910 Y-5.9116
G01 X5.5480 Y-5.6633
G01 X5.4923 Y-5.4176
G01 X3.2722 Y0.5025
G01 X5.5646 Y6.7266
G01 X5.5881 Y6.8300
G01 X5.6073 Y6.9343
G01 X5.6221 Y7.0393
G01 X5.6324 Y7.1448
G01 X5.6383 Y7.2507
G01 X5.6398 Y7.3567
G01 X5.6367 Y7.4627
G01 X5.6292 Y7.5685
G01 X5.6107 Y7.6802
G01 X5.5871 Y7.7910
G01 X5.5584 Y7.9006
G01 X5.5247 Y8.0087
G01 X5.4861 Y8.1152
G01 X5.4426 Y8.2197
G01 X5.3944 Y8.3222
G01 X5.3415 Y8.4223
G01 X5.2840 Y8.5199
G01 X5.2222 Y8.6148
G01 X5.1560 Y8.7067
G01 X5.0856 Y8.7955
G01 X4.9978 Y8.8969
G01 X4.9042 Y8.9930
G01 X4.8051 Y9.0836
G01 X4.7010 Y9.1682
G01 X4.5921 Y9.2466
G01 X4.4788 Y9.3186
G01 X4.3615 Y9.3838
G01 X4.2406 Y9.4421
G01 X3.9992 Y9.5142
G01 X3.7544 Y9.5738
G01 X3.5069 Y9.6208
G01 X3.2573 Y9.6549
G01 X0.0099 Y9.6547
G01 X-3.5609 Y9.6180
G01 X-3.6659 Y9.6038
G01 X-3.7702 Y9.5852
G01 X-3.8736 Y9.5623
G01 X-3.9760 Y9.5350
G01 X-4.0771 Y9.5034
G01 X-4.1768 Y9.4675
G01 X-4.2749 Y9.4275
G01 X-4.3713 Y9.3834
G01 X-4.4694 Y9.3269
G01 X-4.5649 Y9.2659
G01 X-4.6574 Y9.2006
G01 X-4.7469 Y9.1310
G01 X-4.8330 Y9.0575
G01 X-4.9157 Y8.9801
G01 X-4.9947 Y8.8989
G01 X-5.0699 Y8.8142
G01 X-5.1412 Y8.7261
G01 X-5.2083 Y8.6348
G01 X-5.2711 Y8.5406
G01 X-5.3295 Y8.4435
G01 X-5.3937 Y8.3256
G01 X-5.4508 Y8.2042
G01 X-5.5008 Y8.0797
G01 X-5.5435 Y7.9524
G01 X-5.5787 Y7.8229
G01 X-5.6062 Y7.6916
G01 X-5.6261 Y7.5589
G01 X-5.6383 Y7.4252
G01 X-5.6211 Y7.1739
G01 X-5.5910 Y6.9238
G01 X-5.5480 Y6.6756
G01 X-5.4923 Y6.4299
G01 X-3.2722 Y0.5096
G01 X-5.5646 Y-5.7145
G01 X-5.6289 Y-6.2601
G01 Z-7.0000
G01 X-5.6358 Y-6.3327
G01 X-5.6383 Y-6.4057
G01 X-5.6363 Y-6.4786
G01 X-5.6298 Y-6.5513
G01 X-5.6189 Y-6.6234
G01 X-5.6036 Y-6.6948
G01 X-5.5839 Y-6.7650
G01 X-5.5600 Y-6.8340
G01 X-5.5330 Y-6.9471
G01 X-5.5000 Y-7.0587
G01 X-5.4610 Y-7.1683
G01 X-5.4162 Y-7.2756
G01 X-5.3656 Y-7.3803
G01 X-5.3094 Y-7.4822
G01 X-5.2478 Y-7.5808
G01 X-5.1809 Y-7.6760
G01 X-5.0887 Y-7.7853
G01 X-4.9910 Y-7.8897
G01 X-4.8882 Y-7.9892
G01 X-4.7806 Y-8.0833
G01 X-4.6683 Y-8.1719
G01 X-4.5518 Y-8.2548
G01 X-4.4312 Y-8.3317
G01 X-4.3069 Y-8.4024
G01 X-4.0525 Y-8.4934
G01 X-3.7916 Y-8.5640
G01 X-3.5260 Y-8.6139
G01 X-3.2574 Y-8.6427
G01 X-0.0100 Y-8.6426
G01 X3.5612 Y-8.6058
G01 X3.6662 Y-8.5916
G01 X3.7705 Y-8.5730
G01 X3.8739 Y-8.5500
G01 X3.9762 Y-8.5227
G01 X4.0773 Y-8.4911
G01 X4.1770 Y-8.4552
G01 X4.2751 Y-8.4152
G01 X4.3714 Y-8.3711
G01 X4.4696 Y-8.3146
G01 X4.5650 Y-8.2536
G01 X4.6575 Y-8.1882
G01 X4.7470 Y-8.1187
G01 X4.8331 Y-8.0452
G01 X4.9158 Y-7.9677
G01 X4.9948 Y-7.8866
G01 X5.0700 Y-7.8019
G01 X5.1412 Y-7.7138
G01 X5.2083 Y-7.6226
G01 X5.2711 Y-7.5283
G01 X5.3295 Y-7.4313
G01 X5.3937 Y-7.3134
G01 X5.4508 Y-7.1920
G01 X5.5008 Y-7.0674
G01 X5.5435 Y-6.9402
G01 X5.5787 Y-6.8107
G01 X5.6063 Y-6.6794
G01 X5.6261 Y-6.5466
G01 X5.6383 Y-6.4130
G01 X5.6211 Y-6.1617
G01 X5.5910 Y-5.9116
G01 X5.5480 Y-5.6633
G01 X5.4923 Y-5.4176
G01 X3.2722 Y0.5025
G01 X5.5646 Y6.7266
G01 X5.5881 Y6.8300
G01 X5.6073 Y6.9343
G01 X5.6221 Y7.0393
G01 X5.6324 Y7.1448
G01 X5.6383 Y7.2507
G01 X5.6398 Y7.3567
G01 X5.6367 Y7.4627
G01 X5.6292 Y7.5685
G01 X5.6107 Y7.6802
G01 X5.5871 Y7.7910
G01 X5.5584 Y7.9006
G01 X5.5247 Y8.0087
G01 X5.4861 Y8.1152
G01 X5.4426 Y8.2197
G01 X5.3944 Y8.3222
G01 X5.3415 Y8.4223
G01 X5.2840 Y8.5199
G01 X5.2222 Y8.6148
G01 X5.1560 Y8.7067
G01 X5.0856 Y8.7955
G01 X4.9978 Y8.8969
G01 X4.9042 Y8.9930
G01 X4.8051 Y9.0836
G01 X4.7010 Y9.1682
G01 X4.5921 Y9.2466
G01 X4.4788 Y9.3186
G01 X4.3615 Y9.3838
G01 X4.2406 Y9.4421
G01 X3.9992 Y9.5142
G01 X3.7544 Y9.5738
G01 X3.5069 Y9.6208
G01 X3.2573 Y9.6549
G01 X0.0099 Y9.6547
G01 X-3.5609 Y9.6180
G01 X-3.6659 Y9.6038
G01 X-3.7702 Y9.5852
G01 X-3.8736 Y9.5623
G01 X-3.9760 Y9.5350
G01 X-4.0771 Y9.5034
G01 X-4.1768 Y9.4675
G01 X-4.2749 Y9.4275
G01 X-4.3713 Y9.3834
G01 X-4.4694 Y9.3269
G01 X-4.5649 Y9.2659
G01 X-4.6574 Y9.2006
G01 X-4.7469 Y9.1310
G01 X-4.8330 Y9.0575
G01 X-4.9157 Y8.9801
G01 X-4.9947 Y8.8989
G01 X-5.0699 Y8.8142
G01 X-5.1412 Y8.7261
G01 X-5.2083 Y8.6348
G01 X-5.2711 Y8.5406
G01 X-5.3295 Y8.4435
G01 X-5.3937 Y8.3256
G01 X-5.4508 Y8.2042
G01 X-5.5008 Y8.0797
G01 X-5.5435 Y7.9524
G01 X-5.5787 Y7.8229
G01 X-5.6062 Y7.6916
G01 X-5.6261 Y7.5589
G01 X-5.6383 Y7.4252
G01 X-5.6211 Y7.1739
G01 X-5.5910 Y6.9238
G01 X-5.5480 Y6.6756
G01 X-5.4923 Y6.4299
G01 X-3.2722 Y0.5096
G01 X-5.5646 Y-5.7145
G01 X-5.6289 Y-6.2601
G01 Z-8.0000
G01 X-5.6358 Y-6.3327
G01 X-5.6383 Y-6.4057
G01 X-5.6363 Y-6.4786
G01 X-5.6298 Y-6.5513
G01 X-5.6189 Y-6.6234
G01 X-5.6036 Y-6.6948
G01 X-5.5839 Y-6.7650
G01 X-5.5600 Y-6.8340
G01 X-5.5330 Y-6.9471
G01 X-5.5000 Y-7.0587
G01 X-5.4610 Y-7.1683
G01 X-5.4162 Y-7.2756
G01 X-5.3656 Y-7.3803
G01 X-5.3094 Y-7.4822
G01 X-5.2478 Y-7.5808
G01 X-5.1809 Y-7.6760
G01 X-5.0887 Y-7.7853
G01 X-4.9910 Y-7.8897
G01 X-4.8882 Y-7.9892
G01 X-4.7806 Y-8.0833
G01 X-4.6683 Y-8.1719
G01 X-4.5518 Y-8.2548
G01 X-4.4312 Y-8.3317
G01 X-4.3069 Y-8.4024
G01 X-4.0525 Y-8.4934
G01 X-3.7916 Y-8.5640
G01 X-3.5260 Y-8.6139
G01 X-3.2574 Y-8.6427
G01 X-0.0100 Y-8.6426
G01 X3.5612 Y-8.6058
G01 X3.6662 Y-8.5916
G01 X3.7705 Y-8.5730
G01 X3.8739 Y-8.5500
G01 X3.9762 Y-8.5227
G01 X4.0773 Y-8.4911
G01 X4.1770 Y-8.4552
G01 X4.2751 Y-8.4152
G01 X4.3714 Y-8.3711
G01 X4.4696 Y-8.3146
G01 X4.5650 Y-8.2536
G01 X4.6575 Y-8.1882
G01 X4.7470 Y-8.1187
G01 X4.8331 Y-8.0452
G01 X4.9158 Y-7.9677
G01 X4.9948 Y-7.8866
G01 X5.0700 Y-7.8019
G01 X5.1412 Y-7.7138
G01 X5.2083 Y-7.6226
G01 X5.2711 Y-7.5283
G01 X5.3295 Y-7.4313
G01 X5.3937 Y-7.3134
G01 X5.4508 Y-7.1920
G01 X5.5008 Y-7.0674
G01 X5.5435 Y-6.9402
G01 X5.5787 Y-6.8107
G01 X5.6063 Y-6.6794
G01 X5.6261 Y-6.5466
G01 X5.6383 Y-6.4130
G01 X5.6211 Y-6.1617
G01 X5.5910 Y-5.9116
G01 X5.5480 Y-5.6633
G01 X5.4923 Y-5.4176
G01 X3.2722 Y0.5025
G01 X5.5646 Y6.7266
G01 X5.5881 Y6.8300
G01 X5.6073 Y6.9343
G01 X5.6221 Y7.0393
G01 X5.6324 Y7.1448
G01 X5.6383 Y7.2507
G01 X5.6398 Y7.3567
G01 X5.6367 Y7.4627
G01 X5.6292 Y7.5685
G01 X5.6107 Y7.6802
G01 X5.5871 Y7.7910
G01 X5.5584 Y7.9006
G01 X5.5247 Y8.0087
G01 X5.4861 Y8.1152
G01 X5.4426 Y8.2197
G01 X5.3944 Y8.3222
G01 X5.3415 Y8.4223
G01 X5.2840 Y8.5199
G01 X5.2222 Y8.6148
G01 X5.1560 Y8.7067
G01 X5.0856 Y8.7955
G01 X4.9978 Y8.8969
G01 X4.9042 Y8.9930
G01 X4.8051 Y9.0836
G01 X4.7010 Y9.1682
G01 X4.5921 Y9.2466
G01 X4.4788 Y9.3186
G01 X4.3615 Y9.3838
G01 X4.2406 Y9.4421
G01 X3.9992 Y9.5142
G01 X3.7544 Y9.5738
G01 X3.5069 Y9.6208
G01 X3.2573 Y9.6549
G01 X0.0099 Y9.6547
G01 X-3.5609 Y9.6180
G01 X-3.6659 Y9.6038
G01 X-3.7702 Y9.5852
G01 X-3.8736 Y9.5623
G01 X-3.9760 Y9.5350
G01 X-4.0771 Y9.5034
G01 X-4.1768 Y9.4675
G01 X-4.2749 Y9.4275
G01 X-4.3713 Y9.3834
G01 X-4.4694 Y9.3269
G01 X-4.5649 Y9.2659
G01 X-4.6574 Y9.2006
G01 X-4.7469 Y9.1310
G01 X-4.8330 Y9.0575
G01 X-4.9157 Y8.9801
G01 X-4.9947 Y8.8989
G01 X-5.0699 Y8.8142
G01 X-5.1412 Y8.7261
G01 X-5.2083 Y8.6348
G01 X-5.2711 Y8.5406
G01 X-5.3295 Y8.4435
G01 X-5.3937 Y8.3256
G01 X-5.4508 Y8.2042
G01 X-5.5008 Y8.0797
G01 X-5.5435 Y7.9524
G01 X-5.5787 Y7.8229
G01 X-5.6062 Y7.6916
G01 X-5.6261 Y7.5589
G01 X-5.6383 Y7.4252
G01 X-5.6211 Y7.1739
G01 X-5.5910 Y6.9238
G01 X-5.5480 Y6.6756
G01 X-5.4923 Y6.4299
G01 X-3.2722 Y0.5096
G01 X-5.5646 Y-5.7145
G01 X-5.6289 Y-6.2601
G01 Z-9.0000
G01 X-5.6358 Y-6.3327
G01 X-5.6383 Y-6.4057
G01 X-5.6363 Y-6.4786
G01 X-5.6298 Y-6.5513
G01 X-5.6189 Y-6.6234
G01 X-5.6036 Y-6.6948
G01 X-5.5839 Y-6.7650
G01 X-5.5600 Y-6.8340
G01 X-5.5330 Y-6.9471
G01 X-5.5000 Y-7.0587
G01 X-5.4610 Y-7.1683
G01 X-5.4162 Y-7.2756
G01 X-5.3656 Y-7.3803
G01 X-5.3094 Y-7.4822
G01 X-5.2478 Y-7.5808
G01 X-5.1809 Y-7.6760
G01 X-5.0887 Y-7.7853
G01 X-4.9910 Y-7.8897
G01 X-4.8882 Y-7.9892
G01 X-4.7806 Y-8.0833
G01 X-4.6683 Y-8.1719
G01 X-4.5518 Y-8.2548
G01 X-4.4312 Y-8.3317
G01 X-4.3069 Y-8.4024
G01 X-4.0525 Y-8.4934
G01 X-3.7916 Y-8.5640
G01 X-3.5260 Y-8.6139
G01 X-3.2574 Y-8.6427
G01 X-0.0100 Y-8.6426
G01 X3.5612 Y-8.6058
G01 X3.6662 Y-8.5916
G01 X3.7705 Y-8.5730
G01 X3.8739 Y-8.5500
G01 X3.9762 Y-8.5227
G01 X4.0773 Y-8.4911
G01 X4.1770 Y-8.4552
G01 X4.2751 Y-8.4152
G01 X4.3714 Y-8.3711
G01 X4.4696 Y-8.3146
G01 X4.5650 Y-8.2536
G01 X4.6575 Y-8.1882
G01 X4.7470 Y-8.1187
G01 X4.8331 Y-8.0452
G01 X4.9158 Y-7.9677
G01 X4.9948 Y-7.8866
G01 X5.0700 Y-7.8019
G01 X5.1412 Y-7.7138
G01 X5.2083 Y-7.6226
G01 X5.2711 Y-7.5283
G01 X5.3295 Y-7.4313
G01 X5.3937 Y-7.3134
G01 X5.4508 Y-7.1920
G01 X5.5008 Y-7.0674
G01 X5.5435 Y-6.9402
G01 X5.5787 Y-6.8107
G01 X5.6063 Y-6.6794
G01 X5.6261 Y-6.5466
G01 X5.6383 Y-6.4130
G01 X5.6211 Y-6.1617
G01 X5.5910 Y-5.9116
G01 X5.5480 Y-5.6633
G01 X5.4923 Y-5.4176
G01 X3.2722 Y0.5025
G01 X5.5646 Y6.7266
G01 X5.5881 Y6.8300
G01 X5.6073 Y6.9343
G01 X5.6221 Y7.0393
G01 X5.6324 Y7.1448
G01 X5.6383 Y7.2507
G01 X5.6398 Y7.3567
G01 X5.6367 Y7.4627
G01 X5.6292 Y7.5685
G01 X5.6107 Y7.6802
G01 X5.5871 Y7.7910
G01 X5.5584 Y7.9006
G01 X5.5247 Y8.0087
G01 X5.4861 Y8.1152
G01 X5.4426 Y8.2197
G01 X5.3944 Y8.3222
G01 X5.3415 Y8.4223
G01 X5.2840 Y8.5199
G01 X5.2222 Y8.6148
G01 X5.1560 Y8.7067
G01 X5.0856 Y8.7955
G01 X4.9978 Y8.8969
G01 X4.9042 Y8.9930
G01 X4.8051 Y9.0836
G01 X4.7010 Y9.1682
G01 X4.5921 Y9.2466
G01 X4.4788 Y9.3186
G01 X4.3615 Y9.3838
G01 X4.2406 Y9.4421
G01 X3.9992 Y9.5142
G01 X3.7544 Y9.5738
G01 X3.5069 Y9.6208
G01 X3.2573 Y9.6549
G01 X0.0099 Y9.6547
G01 X-3.5609 Y9.6180
G01 X-3.6659 Y9.6038
G01 X-3.7702 Y9.5852
G01 X-3.8736 Y9.5623
G01 X-3.9760 Y9.5350
G01 X-4.0771 Y9.5034
G01 X-4.1768 Y9.4675
G01 X-4.2749 Y9.4275
G01 X-4.3713 Y9.3834
G01 X-4.4694 Y9.3269
G01 X-4.5649 Y9.2659
G01 X-4.6574 Y9.2006
G01 X-4.7469 Y9.1310
G01 X-4.8330 Y9.0575
G01 X-4.9157 Y8.9801
G01 X-4.9947 Y8.8989
G01 X-5.0699 Y8.8142
G01 X-5.1412 Y8.7261
G01 X-5.2083 Y8.6348
G01 X-5.2711 Y8.5406
G01 X-5.3295 Y8.4435
G01 X-5.3937 Y8.3256
G01 X-5.4508 Y8.2042
G01 X-5.5008 Y8.0797
G01 X-5.5435 Y7.9524
G01 X-5.5787 Y7.8229
G01 X-5.6062 Y7.6916
G01 X-5.6261 Y7.5589
G01 X-5.6383 Y7.4252
G01 X-5.6211 Y7.1739
G01 X-5.5910 Y6.9238
G01 X-5.5480 Y6.6756
G01 X-5.4923 Y6.4299
G01 X-3.2722 Y0.5096
G01 X-5.5646 Y-5.7145
G01 X-5.6289 Y-6.2601
G01 Z-10.0000
G01 X-5.6358 Y-6.3327
G01 X-5.6383 Y-6.4057
G01 X-5.6363 Y-6.4786
G01 X-5.6298 Y-6.5513
G01 X-5.6189 Y-6.6234
G01 X-5.6036 Y-6.6948
G01 X-5.5839 Y-6.7650
G01 X-5.5600 Y-6.8340
G01 X-5.5330 Y-6.9471
G01 X-5.5000 Y-7.0587
G01 X-5.4610 Y-7.1683
G01 X-5.4162 Y-7.2756
G01 X-5.3656 Y-7.3803
G01 X-5.3094 Y-7.4822
G01 X-5.2478 Y-7.5808
G01 X-5.1809 Y-7.6760
G01 X-5.0887 Y-7.7853
G01 X-4.9910 Y-7.8897
G01 X-4.8882 Y-7.9892
G01 X-4.7806 Y-8.0833
G01 X-4.6683 Y-8.1719
G01 X-4.5518 Y-8.2548
G01 X-4.4312 Y-8.3317
G01 X-4.3069 Y-8.4024
G01 X-4.0525 Y-8.4934
G01 X-3.7916 Y-8.5640
G01 X-3.5260 Y-8.6139
G01 X-3.2574 Y-8.6427
G01 X-0.0100 Y-8.6426
G01 X3.5612 Y-8.6058
G01 X3.6662 Y-8.5916
G01 X3.7705 Y-8.5730
G01 X3.8739 Y-8.5500
G01 X3.9762 Y-8.5227
G01 X4.0773 Y-8.4911
G01 X4.1770 Y-8.4552
G01 X4.2751 Y-8.4152
G01 X4.3714 Y-8.3711
G01 X4.4696 Y-8.3146
G01 X4.5650 Y-8.2536
G01 X4.6575 Y-8.1882
G01 X4.7470 Y-8.1187
G01 X4.8331 Y-8.0452
G01 X4.9158 Y-7.9677
G01 X4.9948 Y-7.8866
G01 X5.0700 Y-7.8019
G01 X5.1412 Y-7.7138
G01 X5.2083 Y-7.6226
G01 X5.2711 Y-7.5283
G01 X5.3295 Y-7.4313
G01 X5.3937 Y-7.3134
G01 X5.4508 Y-7.1920
G01 X5.5008 Y-7.0674
G01 X5.5435 Y-6.9402
G01 X5.5787 Y-6.8107
G01 X5.6063 Y-6.6794
G01 X5.6261 Y-6.5466
G01 X5.6383 Y-6.4130
G01 X5.6211 Y-6.1617
G01 X5.5910 Y-5.9116
G01 X5.5480 Y-5.6633
G01 X5.4923 Y-5.4176
G01 X3.2722 Y0.5025
G01 X5.5646 Y6.7266
G01 X5.5881 Y6.8300
G01 X5.6073 Y6.9343
G01 X5.6221 Y7.0393
G01 X5.6324 Y7.1448
G01 X5.6383 Y7.2507
G01 X5.6398 Y7.3567
G01 X5.6367 Y7.4627
G01 X5.6292 Y7.5685
G01 X5.6107 Y7.6802
G01 X5.5871 Y7.7910
G01 X5.5584 Y7.9006
G01 X5.5247 Y8.0087
G01 X5.4861 Y8.1152
G01 X5.4426 Y8.2197
G01 X5.3944 Y8.3222
G01 X5.3415 Y8.4223
G01 X5.2840 Y8.5199
G01 X5.2222 Y8.6148
G01 X5.1560 Y8.7067
G01 X5.0856 Y8.7955
G01 X4.9978 Y8.8969
G01 X4.9042 Y8.9930
G01 X4.8051 Y9.0836
G01 X4.7010 Y9.1682
G01 X4.5921 Y9.2466
G01 X4.4788 Y9.3186
G01 X4.3615 Y9.3838
G01 X4.2406 Y9.4421
G01 X3.9992 Y9.5142
G01 X3.7544 Y9.5738
G01 X3.5069 Y9.6208
G01 X3.2573 Y9.6549
G01 X0.0099 Y9.6547
G01 X-3.5609 Y9.6180
G01 X-3.6659 Y9.6038
G01 X-3.7702 Y9.5852
G01 X-3.8736 Y9.5623
G01 X-3.9760 Y9.5350
G01 X-4.0771 Y9.5034
G01 X-4.1768 Y9.4675
G01 X-4.2749 Y9.4275
G01 X-4.3713 Y9.3834
G01 X-4.4694 Y9.3269
G01 X-4.5649 Y9.2659
G01 X-4.6574 Y9.2006
G01 X-4.7469 Y9.1310
G01 X-4.8330 Y9.0575
G01 X-4.9157 Y8.9801
G01 X-4.9947 Y8.8989
G01 X-5.0699 Y8.8142
G01 X-5.1412 Y8.7261
G01 X-5.2083 Y8.6348
G01 X-5.2711 Y8.5406
G01 X-5.3295 Y8.4435
G01 X-5.3937 Y8.3256
G01 X-5.4508 Y8.2042
G01 X-5.5008 Y8.0797
G01 X-5.5435 Y7.9524
G01 X-5.5787 Y7.8229
G01 X-5.6062 Y7.6916
G01 X-5.6261 Y7.5589
G01 X-5.6383 Y7.4252
G01 X-5.6211 Y7.1739
G01 X-5.5910 Y6.9238
G01 X-5.5480 Y6.6756
G01 X-5.4923 Y6.4299
G01 X-3.2722 Y0.5096
G01 X-5.5646 Y-5.7145
G01 X-5.6289 Y-6.2601
G01 Z-11.0000
G01 X-5.6358 Y-6.3327
G01 X-5.6383 Y-6.4057
G01 X-5.6363 Y-6.4786
G01 X-5.6298 Y-6.5513
G01 X-5.6189 Y-6.6234
G01 X-5.6036 Y-6.6948
G01 X-5.5839 Y-6.7650
G01 X-5.5600 Y-6.8340
G01 X-5.5330 Y-6.9471
G01 X-5.5000 Y-7.0587
G01 X-5.4610 Y-7.1683
G01 X-5.4162 Y-7.2756
G01 X-5.3656 Y-7.3803
G01 X-5.3094 Y-7.4822
G01 X-5.2478 Y-7.5808
G01 X-5.1809 Y-7.6760
G01 X-5.0887 Y-7.7853
G01 X-4.9910 Y-7.8897
G01 X-4.8882 Y-7.9892
G01 X-4.7806 Y-8.0833
G01 X-4.6683 Y-8.1719
G01 X-4.5518 Y-8.2548
G01 X-4.4312 Y-8.3317
G01 X-4.3069 Y-8.4024
G01 X-4.0525 Y-8.4934
G01 X-3.7916 Y-8.5640
G01 X-3.5260 Y-8.6139
G01 X-3.2574 Y-8.6427
G01 X-0.0100 Y-8.6426
G01 X3.5612 Y-8.6058
G01 X3.6662 Y-8.5916
G01 X3.7705 Y-8.5730
G01 X3.8739 Y-8.5500
G01 X3.9762 Y-8.5227
G01 X4.0773 Y-8.4911
G01 X4.1770 Y-8.4552
G01 X4.2751 Y-8.4152
G01 X4.3714 Y-8.3711
G01 X4.4696 Y-8.3146
G01 X4.5650 Y-8.2536
G01 X4.6575 Y-8.1882
G01 X4.7470 Y-8.1187
G01 X4.8331 Y-8.0452
G01 X4.9158 Y-7.9677
G01 X4.9948 Y-7.8866
G01 X5.0700 Y-7.8019
G01 X5.1412 Y-7.7138
G01 X5.2083 Y-7.6226
G01 X5.2711 Y-7.5283
G01 X5.3295 Y-7.4313
G01 X5.3937 Y-7.3134
G01 X5.4508 Y-7.1920
G01 X5.5008 Y-7.0674
G01 X5.5435 Y-6.9402
G01 X5.5787 Y-6.8107
G01 X5.6063 Y-6.6794
G01 X5.6261 Y-6.5466
G01 X5.6383 Y-6.4130
G01 X5.6211 Y-6.1617
G01 X5.5910 Y-5.9116
G01 X5.5480 Y-5.6633
G01 X5.4923 Y-5.4176
G01 X3.2722 Y0.5025
G01 X5.5646 Y6.7266
G01 X5.5881 Y6.8300
G01 X5.6073 Y6.9343
G01 X5.6221 Y7.0393
G01 X5.6324 Y7.1448
G01 X5.6383 Y7.2507
G01 X5.6398 Y7.3567
G01 X5.6367 Y7.4627
G01 X5.6292 Y7.5685
G01 X5.6107 Y7.6802
G01 X5.5871 Y7.7910
G01 X5.5584 Y7.9006
G01 X5.5247 Y8.0087
G01 X5.4861 Y8.1152
G01 X5.4426 Y8.2197
G01 X5.3944 Y8.3222
G01 X5.3415 Y8.4223
G01 X5.2840 Y8.5199
G01 X5.2222 Y8.6148
G01 X5.1560 Y8.7067
G01 X5.0856 Y8.7955
G01 X4.9978 Y8.8969
G01 X4.9042 Y8.9930
G01 X4.8051 Y9.0836
G01 X4.7010 Y9.1682
G01 X4.5921 Y9.2466
G01 X4.4788 Y9.3186
G01 X4.3615 Y9.3838
G01 X4.2406 Y9.4421
G01 X3.9992 Y9.5142
G01 X3.7544 Y9.5738
G01 X3.5069 Y9.6208
G01 X3.2573 Y9.6549
G01 X0.0099 Y9.6547
G01 X-3.5609 Y9.6180
G01 X-3.6659 Y9.6038
G01 X-3.7702 Y9.5852
G01 X-3.8736 Y9.5623
G01 X-3.9760 Y9.5350
G01 X-4.0771 Y9.5034
G01 X-4.1768 Y9.4675
G01 X-4.2749 Y9.4275
G01 X-4.3713 Y9.3834
G01 X-4.4694 Y9.3269
G01 X-4.5649 Y9.2659
G01 X-4.6574 Y9.2006
G01 X-4.7469 Y9.1310
G01 X-4.8330 Y9.0575
G01 X-4.9157 Y8.9801
G01 X-4.9947 Y8.8989
G01 X-5.0699 Y8.8142
G01 X-5.1412 Y8.7261
G01 X-5.2083 Y8.6348
G01 X-5.2711 Y8.5406
G01 X-5.3295 Y8.4435
G01 X-5.3937 Y8.3256
G01 X-5.4508 Y8.2042
G01 X-5.5008 Y8.0797
G01 X-5.5435 Y7.9524
G01 X-5.5787 Y7.8229
G01 X-5.6062 Y7.6916
G01 X-5.6261 Y7.5589
G01 X-5.6383 Y7.4252
G01 X-5.6211 Y7.1739
G01 X-5.5910 Y6.9238
G01 X-5.5480 Y6.6756
G01 X-5.4923 Y6.4299
G01 X-3.2722 Y0.5096
G01 X-5.5646 Y-5.7145
G01 X-5.6289 Y-6.2601
G01 Z-12.0000
G01 X-5.6358 Y-6.3327
G01 X-5.6383 Y-6.4057
G01 X-5.6363 Y-6.4786
G01 X-5.6298 Y-6.5513
G01 X-5.6189 Y-6.6234
G01 X-5.6036 Y-6.6948
G01 X-5.5839 Y-6.7650
G01 X-5.5600 Y-6.8340
G01 X-5.5330 Y-6.9471
G01 X-5.5000 Y-7.0587
G01 X-5.4610 Y-7.1683
G01 X-5.4162 Y-7.2756
G01 X-5.3656 Y-7.3803
G01 X-5.3094 Y-7.4822
G01 X-5.2478 Y-7.5808
G01 X-5.1809 Y-7.6760
G01 X-5.0887 Y-7.7853
G01 X-4.9910 Y-7.8897
G01 X-4.8882 Y-7.9892
G01 X-4.7806 Y-8.0833
G01 X-4.6683 Y-8.1719
G01 X-4.5518 Y-8.2548
G01 X-4.4312 Y-8.3317
G01 X-4.3069 Y-8.4024
G01 X-4.0525 Y-8.4934
G01 X-3.7916 Y-8.5640
G01 X-3.5260 Y-8.6139
G01 X-3.2574 Y-8.6427
G01 X-0.0100 Y-8.6426
G01 X3.5612 Y-8.6058
G01 X3.6662 Y-8.5916
G01 X3.7705 Y-8.5730
G01 X3.8739 Y-8.5500
G01 X3.9762 Y-8.5227
G01 X4.0773 Y-8.4911
G01 X4.1770 Y-8.4552
G01 X4.2751 Y-8.4152
G01 X4.3714 Y-8.3711
G01 X4.4696 Y-8.3146
G01 X4.5650 Y-8.2536
G01 X4.6575 Y-8.1882
G01 X4.7470 Y-8.1187
G01 X4.8331 Y-8.0452
G01 X4.9158 Y-7.9677
G01 X4.9948 Y-7.8866
G01 X5.0700 Y-7.8019
G01 X5.1412 Y-7.7138
G01 X5.2083 Y-7.6226
G01 X5.2711 Y-7.5283
G01 X5.3295 Y-7.4313
G01 X5.3937 Y-7.3134
G01 X5.4508 Y-7.1920
G01 X5.5008 Y-7.0674
G01 X5.5435 Y-6.9402
G01 X5.5787 Y-6.8107
G01 X5.6063 Y-6.6794
G01 X5.6261 Y-6.5466
G01 X5.6383 Y-6.4130
G01 X5.6211 Y-6.1617
G01 X5.5910 Y-5.9116
G01 X5.5480 Y-5.6633
G01 X5.4923 Y-5.4176
G01 X3.2722 Y0.5025
G01 X5.5646 Y6.7266
G01 X5.5881 Y6.8300
G01 X5.6073 Y6.9343
G01 X5.6221 Y7.0393
G01 X5.6324 Y7.1448
G01 X5.6383 Y7.2507
G01 X5.6398 Y7.3567
G01 X5.6367 Y7.4627
G01 X5.6292 Y7.5685
G01 X5.6107 Y7.6802
G01 X5.5871 Y7.7910
G01 X5.5584 Y7.9006
G01 X5.5247 Y8.0087
G01 X5.4861 Y8.1152
G01 X5.4426 Y8.2197
G01 X5.3944 Y8.3222
G01 X5.3415 Y8.4223
G01 X5.2840 Y8.5199
G01 X5.2222 Y8.6148
G01 X5.1560 Y8.7067
G01 X5.0856 Y8.7955
G01 X4.9978 Y8.8969
G01 X4.9042 Y8.9930
G01 X4.8051 Y9.0836
G01 X4.7010 Y9.1682
G01 X4.5921 Y9.2466
G01 X4.4788 Y9.3186
G01 X4.3615 Y9.3838
G01 X4.2406 Y9.4421
G01 X3.9992 Y9.5142
G01 X3.7544 Y9.5738
G01 X3.5069 Y9.6208
G01 X3.2573 Y9.6549
G01 X0.0099 Y9.6547
G01 X-3.5609 Y9.6180
G01 X-3.6659 Y9.6038
G01 X-3.7702 Y9.5852
G01 X-3.8736 Y9.5623
G01 X-3.9760 Y9.5350
G01 X-4.0771 Y9.5034
G01 X-4.1768 Y9.4675
G01 X-4.2749 Y9.4275
G01 X-4.3713 Y9.3834
G01 X-4.4694 Y9.3269
G01 X-4.5649 Y9.2659
G01 X-4.6574 Y9.2006
G01 X-4.7469 Y9.1310
G01 X-4.8330 Y9.0575
G01 X-4.9157 Y8.9801
G01 X-4.9947 Y8.8989
G01 X-5.0699 Y8.8142
G01 X-5.1412 Y8.7261
G01 X-5.2083 Y8.6348
G01 X-5.2711 Y8.5406
G01 X-5.3295 Y8.4435
G01 X-5.3937 Y8.3256
G01 X-5.4508 Y8.2042
G01 X-5.5008 Y8.0797
G01 X-5.5435 Y7.9524
G01 X-5.5787 Y7.8229
G01 X-5.6062 Y7.6916
G01 X-5.6261 Y7.5589
G01 X-5.6383 Y7.4252
G01 X-5.6211 Y7.1739
G01 X-5.5910 Y6.9238
G01 X-5.5480 Y6.6756
G01 X-5.4923 Y6.4299
G01 X-3.2722 Y0.5096
G01 X-5.5646 Y-5.7145
G01 X-5.6289 Y-6.2601
G00 Z5.0000
G00 X0.0000 Y0.0000

M05
M30
