(Project int-pewa-radius)
(Created by Estlcam version 11 build 11.245)
(Machining time about 00:02:54 hours)

(Required tools:)
(3/32" slow)
G21
G90
G94
M03 S24000
G00 Z5.0000


(No. 1: Part 1)
G00 X-1.9568 Y11.2331
G00 Z0.5000
G01 Z0.0000 F300 S24000
G01 Z-1.0000
G01 X-4.0309
G01 X-4.1728 Y11.2276
G01 X-4.3141 Y11.2135
G01 X-4.4544 Y11.1911
G01 X-4.5931 Y11.1603
G01 X-4.7296 Y11.1213
G01 X-4.8636 Y11.0743
G01 X-4.9946 Y11.0193
G01 X-5.1221 Y10.9566
G01 X-5.2455 Y10.8864
G01 X-5.3646 Y10.8090
G01 X-5.4788 Y10.7245
G01 X-5.5878 Y10.6335
G01 X-5.6912 Y10.5361
G01 X-5.7886 Y10.4326
G01 X-5.8796 Y10.3236
G01 X-5.9639 Y10.2093
G01 X-6.0413 Y10.0902
G01 X-6.1114 Y9.9667
G01 X-6.1741 Y9.8392
G01 X-6.2290 Y9.7082
G01 X-6.2760 Y9.5742
G01 X-6.3149 Y9.4376
G01 X-6.3456 Y9.2989
G01 X-6.3680 Y9.1587
G01 X-6.3820 Y9.0173
G01 X-6.3875 Y8.8754
G01 X-6.3845 Y8.7334
G01 X-6.3730 Y8.5918
G01 X-6.3532 Y8.4512
G01 X-6.3249 Y8.3120
G01 X-6.2884 Y8.1747
G01 X-6.2438 Y8.0399
G01 X-3.2440 Y0.0404
G01 X-6.2438 Y-7.9591
G01 X-6.2884 Y-8.0940
G01 X-6.3249 Y-8.2312
G01 X-6.3532 Y-8.3704
G01 X-6.3730 Y-8.5111
G01 X-6.3845 Y-8.6526
G01 X-6.3875 Y-8.7946
G01 X-6.3820 Y-8.9366
G01 X-6.3680 Y-9.0779
G01 X-6.3456 Y-9.2182
G01 X-6.3149 Y-9.3569
G01 X-6.2760 Y-9.4935
G01 X-6.2290 Y-9.6275
G01 X-6.1741 Y-9.7585
G01 X-6.1114 Y-9.8860
G01 X-6.0413 Y-10.0095
G01 X-5.9639 Y-10.1286
G01 X-5.8796 Y-10.2429
G01 X-5.7886 Y-10.3519
G01 X-5.6912 Y-10.4553
G01 X-5.5878 Y-10.5527
G01 X-5.4788 Y-10.6438
G01 X-5.3646 Y-10.7282
G01 X-5.2455 Y-10.8056
G01 X-5.1221 Y-10.8758
G01 X-4.9946 Y-10.9385
G01 X-4.8636 Y-10.9935
G01 X-4.7296 Y-11.0406
G01 X-4.5931 Y-11.0796
G01 X-4.4544 Y-11.1104
G01 X-4.3141 Y-11.1328
G01 X-4.1728 Y-11.1468
G01 X-4.0309 Y-11.1524
G01 X-1.9568
G01 X2.0107
G01 X4.0847
G01 X4.2266 Y-11.1468
G01 X4.3680 Y-11.1328
G01 X4.5082 Y-11.1104
G01 X4.6469 Y-11.0796
G01 X4.7835 Y-11.0406
G01 X4.9175 Y-10.9935
G01 X5.0484 Y-10.9385
G01 X5.1759 Y-10.8758
G01 X5.2994 Y-10.8056
G01 X5.4184 Y-10.7282
G01 X5.5327 Y-10.6438
G01 X5.6417 Y-10.5527
G01 X5.7450 Y-10.4553
G01 X5.8424 Y-10.3519
G01 X5.9334 Y-10.2429
G01 X6.0178 Y-10.1286
G01 X6.0951 Y-10.0095
G01 X6.1653 Y-9.8860
G01 X6.2279 Y-9.7585
G01 X6.2828 Y-9.6275
G01 X6.3298 Y-9.4935
G01 X6.3688 Y-9.3569
G01 X6.3995 Y-9.2182
G01 X6.4218 Y-9.0779
G01 X6.4358 Y-8.9366
G01 X6.4413 Y-8.7946
G01 X6.4383 Y-8.6526
G01 X6.4269 Y-8.5111
G01 X6.4070 Y-8.3704
G01 X6.3788 Y-8.2312
G01 X6.3423 Y-8.0940
G01 X6.2976 Y-7.9591
G01 X3.2978 Y0.0404
G01 X6.2976 Y8.0399
G01 X6.3423 Y8.1747
G01 X6.3788 Y8.3120
G01 X6.4070 Y8.4512
G01 X6.4269 Y8.5918
G01 X6.4383 Y8.7334
G01 X6.4413 Y8.8754
G01 X6.4358 Y9.0173
G01 X6.4218 Y9.1587
G01 X6.3995 Y9.2989
G01 X6.3688 Y9.4376
G01 X6.3298 Y9.5742
G01 X6.2828 Y9.7082
G01 X6.2279 Y9.8392
G01 X6.1653 Y9.9667
G01 X6.0951 Y10.0902
G01 X6.0178 Y10.2093
G01 X5.9334 Y10.3236
G01 X5.8424 Y10.4326
G01 X5.7450 Y10.5361
G01 X5.6417 Y10.6335
G01 X5.5327 Y10.7245
G01 X5.4184 Y10.8090
G01 X5.2994 Y10.8864
G01 X5.1759 Y10.9566
G01 X5.0484 Y11.0193
G01 X4.9175 Y11.0743
G01 X4.7835 Y11.1213
G01 X4.6469 Y11.1603
G01 X4.5082 Y11.1911
G01 X4.3680 Y11.2135
G01 X4.2266 Y11.2276
G01 X4.0847 Y11.2331
G01 X2.0107
G01 X-1.9568
G01 Z-2.0000
G01 X-4.0309
G01 X-4.1728 Y11.2276
G01 X-4.3141 Y11.2135
G01 X-4.4544 Y11.1911
G01 X-4.5931 Y11.1603
G01 X-4.7296 Y11.1213
G01 X-4.8636 Y11.0743
G01 X-4.9946 Y11.0193
G01 X-5.1221 Y10.9566
G01 X-5.2455 Y10.8864
G01 X-5.3646 Y10.8090
G01 X-5.4788 Y10.7245
G01 X-5.5878 Y10.6335
G01 X-5.6912 Y10.5361
G01 X-5.7886 Y10.4326
G01 X-5.8796 Y10.3236
G01 X-5.9639 Y10.2093
G01 X-6.0413 Y10.0902
G01 X-6.1114 Y9.9667
G01 X-6.1741 Y9.8392
G01 X-6.2290 Y9.7082
G01 X-6.2760 Y9.5742
G01 X-6.3149 Y9.4376
G01 X-6.3456 Y9.2989
G01 X-6.3680 Y9.1587
G01 X-6.3820 Y9.0173
G01 X-6.3875 Y8.8754
G01 X-6.3845 Y8.7334
G01 X-6.3730 Y8.5918
G01 X-6.3532 Y8.4512
G01 X-6.3249 Y8.3120
G01 X-6.2884 Y8.1747
G01 X-6.2438 Y8.0399
G01 X-3.2440 Y0.0404
G01 X-6.2438 Y-7.9591
G01 X-6.2884 Y-8.0940
G01 X-6.3249 Y-8.2312
G01 X-6.3532 Y-8.3704
G01 X-6.3730 Y-8.5111
G01 X-6.3845 Y-8.6526
G01 X-6.3875 Y-8.7946
G01 X-6.3820 Y-8.9366
G01 X-6.3680 Y-9.0779
G01 X-6.3456 Y-9.2182
G01 X-6.3149 Y-9.3569
G01 X-6.2760 Y-9.4935
G01 X-6.2290 Y-9.6275
G01 X-6.1741 Y-9.7585
G01 X-6.1114 Y-9.8860
G01 X-6.0413 Y-10.0095
G01 X-5.9639 Y-10.1286
G01 X-5.8796 Y-10.2429
G01 X-5.7886 Y-10.3519
G01 X-5.6912 Y-10.4553
G01 X-5.5878 Y-10.5527
G01 X-5.4788 Y-10.6438
G01 X-5.3646 Y-10.7282
G01 X-5.2455 Y-10.8056
G01 X-5.1221 Y-10.8758
G01 X-4.9946 Y-10.9385
G01 X-4.8636 Y-10.9935
G01 X-4.7296 Y-11.0406
G01 X-4.5931 Y-11.0796
G01 X-4.4544 Y-11.1104
G01 X-4.3141 Y-11.1328
G01 X-4.1728 Y-11.1468
G01 X-4.0309 Y-11.1524
G01 X-1.9568
G01 X2.0107
G01 X4.0847
G01 X4.2266 Y-11.1468
G01 X4.3680 Y-11.1328
G01 X4.5082 Y-11.1104
G01 X4.6469 Y-11.0796
G01 X4.7835 Y-11.0406
G01 X4.9175 Y-10.9935
G01 X5.0484 Y-10.9385
G01 X5.1759 Y-10.8758
G01 X5.2994 Y-10.8056
G01 X5.4184 Y-10.7282
G01 X5.5327 Y-10.6438
G01 X5.6417 Y-10.5527
G01 X5.7450 Y-10.4553
G01 X5.8424 Y-10.3519
G01 X5.9334 Y-10.2429
G01 X6.0178 Y-10.1286
G01 X6.0951 Y-10.0095
G01 X6.1653 Y-9.8860
G01 X6.2279 Y-9.7585
G01 X6.2828 Y-9.6275
G01 X6.3298 Y-9.4935
G01 X6.3688 Y-9.3569
G01 X6.3995 Y-9.2182
G01 X6.4218 Y-9.0779
G01 X6.4358 Y-8.9366
G01 X6.4413 Y-8.7946
G01 X6.4383 Y-8.6526
G01 X6.4269 Y-8.5111
G01 X6.4070 Y-8.3704
G01 X6.3788 Y-8.2312
G01 X6.3423 Y-8.0940
G01 X6.2976 Y-7.9591
G01 X3.2978 Y0.0404
G01 X6.2976 Y8.0399
G01 X6.3423 Y8.1747
G01 X6.3788 Y8.3120
G01 X6.4070 Y8.4512
G01 X6.4269 Y8.5918
G01 X6.4383 Y8.7334
G01 X6.4413 Y8.8754
G01 X6.4358 Y9.0173
G01 X6.4218 Y9.1587
G01 X6.3995 Y9.2989
G01 X6.3688 Y9.4376
G01 X6.3298 Y9.5742
G01 X6.2828 Y9.7082
G01 X6.2279 Y9.8392
G01 X6.1653 Y9.9667
G01 X6.0951 Y10.0902
G01 X6.0178 Y10.2093
G01 X5.9334 Y10.3236
G01 X5.8424 Y10.4326
G01 X5.7450 Y10.5361
G01 X5.6417 Y10.6335
G01 X5.5327 Y10.7245
G01 X5.4184 Y10.8090
G01 X5.2994 Y10.8864
G01 X5.1759 Y10.9566
G01 X5.0484 Y11.0193
G01 X4.9175 Y11.0743
G01 X4.7835 Y11.1213
G01 X4.6469 Y11.1603
G01 X4.5082 Y11.1911
G01 X4.3680 Y11.2135
G01 X4.2266 Y11.2276
G01 X4.0847 Y11.2331
G01 X2.0107
G01 X-1.9568
G01 Z-3.0000
G01 X-4.0309
G01 X-4.1728 Y11.2276
G01 X-4.3141 Y11.2135
G01 X-4.4544 Y11.1911
G01 X-4.5931 Y11.1603
G01 X-4.7296 Y11.1213
G01 X-4.8636 Y11.0743
G01 X-4.9946 Y11.0193
G01 X-5.1221 Y10.9566
G01 X-5.2455 Y10.8864
G01 X-5.3646 Y10.8090
G01 X-5.4788 Y10.7245
G01 X-5.5878 Y10.6335
G01 X-5.6912 Y10.5361
G01 X-5.7886 Y10.4326
G01 X-5.8796 Y10.3236
G01 X-5.9639 Y10.2093
G01 X-6.0413 Y10.0902
G01 X-6.1114 Y9.9667
G01 X-6.1741 Y9.8392
G01 X-6.2290 Y9.7082
G01 X-6.2760 Y9.5742
G01 X-6.3149 Y9.4376
G01 X-6.3456 Y9.2989
G01 X-6.3680 Y9.1587
G01 X-6.3820 Y9.0173
G01 X-6.3875 Y8.8754
G01 X-6.3845 Y8.7334
G01 X-6.3730 Y8.5918
G01 X-6.3532 Y8.4512
G01 X-6.3249 Y8.3120
G01 X-6.2884 Y8.1747
G01 X-6.2438 Y8.0399
G01 X-3.2440 Y0.0404
G01 X-6.2438 Y-7.9591
G01 X-6.2884 Y-8.0940
G01 X-6.3249 Y-8.2312
G01 X-6.3532 Y-8.3704
G01 X-6.3730 Y-8.5111
G01 X-6.3845 Y-8.6526
G01 X-6.3875 Y-8.7946
G01 X-6.3820 Y-8.9366
G01 X-6.3680 Y-9.0779
G01 X-6.3456 Y-9.2182
G01 X-6.3149 Y-9.3569
G01 X-6.2760 Y-9.4935
G01 X-6.2290 Y-9.6275
G01 X-6.1741 Y-9.7585
G01 X-6.1114 Y-9.8860
G01 X-6.0413 Y-10.0095
G01 X-5.9639 Y-10.1286
G01 X-5.8796 Y-10.2429
G01 X-5.7886 Y-10.3519
G01 X-5.6912 Y-10.4553
G01 X-5.5878 Y-10.5527
G01 X-5.4788 Y-10.6438
G01 X-5.3646 Y-10.7282
G01 X-5.2455 Y-10.8056
G01 X-5.1221 Y-10.8758
G01 X-4.9946 Y-10.9385
G01 X-4.8636 Y-10.9935
G01 X-4.7296 Y-11.0406
G01 X-4.5931 Y-11.0796
G01 X-4.4544 Y-11.1104
G01 X-4.3141 Y-11.1328
G01 X-4.1728 Y-11.1468
G01 X-4.0309 Y-11.1524
G01 X-1.9568
G01 X2.0107
G01 X4.0847
G01 X4.2266 Y-11.1468
G01 X4.3680 Y-11.1328
G01 X4.5082 Y-11.1104
G01 X4.6469 Y-11.0796
G01 X4.7835 Y-11.0406
G01 X4.9175 Y-10.9935
G01 X5.0484 Y-10.9385
G01 X5.1759 Y-10.8758
G01 X5.2994 Y-10.8056
G01 X5.4184 Y-10.7282
G01 X5.5327 Y-10.6438
G01 X5.6417 Y-10.5527
G01 X5.7450 Y-10.4553
G01 X5.8424 Y-10.3519
G01 X5.9334 Y-10.2429
G01 X6.0178 Y-10.1286
G01 X6.0951 Y-10.0095
G01 X6.1653 Y-9.8860
G01 X6.2279 Y-9.7585
G01 X6.2828 Y-9.6275
G01 X6.3298 Y-9.4935
G01 X6.3688 Y-9.3569
G01 X6.3995 Y-9.2182
G01 X6.4218 Y-9.0779
G01 X6.4358 Y-8.9366
G01 X6.4413 Y-8.7946
G01 X6.4383 Y-8.6526
G01 X6.4269 Y-8.5111
G01 X6.4070 Y-8.3704
G01 X6.3788 Y-8.2312
G01 X6.3423 Y-8.0940
G01 X6.2976 Y-7.9591
G01 X3.2978 Y0.0404
G01 X6.2976 Y8.0399
G01 X6.3423 Y8.1747
G01 X6.3788 Y8.3120
G01 X6.4070 Y8.4512
G01 X6.4269 Y8.5918
G01 X6.4383 Y8.7334
G01 X6.4413 Y8.8754
G01 X6.4358 Y9.0173
G01 X6.4218 Y9.1587
G01 X6.3995 Y9.2989
G01 X6.3688 Y9.4376
G01 X6.3298 Y9.5742
G01 X6.2828 Y9.7082
G01 X6.2279 Y9.8392
G01 X6.1653 Y9.9667
G01 X6.0951 Y10.0902
G01 X6.0178 Y10.2093
G01 X5.9334 Y10.3236
G01 X5.8424 Y10.4326
G01 X5.7450 Y10.5361
G01 X5.6417 Y10.6335
G01 X5.5327 Y10.7245
G01 X5.4184 Y10.8090
G01 X5.2994 Y10.8864
G01 X5.1759 Y10.9566
G01 X5.0484 Y11.0193
G01 X4.9175 Y11.0743
G01 X4.7835 Y11.1213
G01 X4.6469 Y11.1603
G01 X4.5082 Y11.1911
G01 X4.3680 Y11.2135
G01 X4.2266 Y11.2276
G01 X4.0847 Y11.2331
G01 X2.0107
G01 X-1.9568
G01 Z-4.0000
G01 X-4.0309
G01 X-4.1728 Y11.2276
G01 X-4.3141 Y11.2135
G01 X-4.4544 Y11.1911
G01 X-4.5931 Y11.1603
G01 X-4.7296 Y11.1213
G01 X-4.8636 Y11.0743
G01 X-4.9946 Y11.0193
G01 X-5.1221 Y10.9566
G01 X-5.2455 Y10.8864
G01 X-5.3646 Y10.8090
G01 X-5.4788 Y10.7245
G01 X-5.5878 Y10.6335
G01 X-5.6912 Y10.5361
G01 X-5.7886 Y10.4326
G01 X-5.8796 Y10.3236
G01 X-5.9639 Y10.2093
G01 X-6.0413 Y10.0902
G01 X-6.1114 Y9.9667
G01 X-6.1741 Y9.8392
G01 X-6.2290 Y9.7082
G01 X-6.2760 Y9.5742
G01 X-6.3149 Y9.4376
G01 X-6.3456 Y9.2989
G01 X-6.3680 Y9.1587
G01 X-6.3820 Y9.0173
G01 X-6.3875 Y8.8754
G01 X-6.3845 Y8.7334
G01 X-6.3730 Y8.5918
G01 X-6.3532 Y8.4512
G01 X-6.3249 Y8.3120
G01 X-6.2884 Y8.1747
G01 X-6.2438 Y8.0399
G01 X-3.2440 Y0.0404
G01 X-6.2438 Y-7.9591
G01 X-6.2884 Y-8.0940
G01 X-6.3249 Y-8.2312
G01 X-6.3532 Y-8.3704
G01 X-6.3730 Y-8.5111
G01 X-6.3845 Y-8.6526
G01 X-6.3875 Y-8.7946
G01 X-6.3820 Y-8.9366
G01 X-6.3680 Y-9.0779
G01 X-6.3456 Y-9.2182
G01 X-6.3149 Y-9.3569
G01 X-6.2760 Y-9.4935
G01 X-6.2290 Y-9.6275
G01 X-6.1741 Y-9.7585
G01 X-6.1114 Y-9.8860
G01 X-6.0413 Y-10.0095
G01 X-5.9639 Y-10.1286
G01 X-5.8796 Y-10.2429
G01 X-5.7886 Y-10.3519
G01 X-5.6912 Y-10.4553
G01 X-5.5878 Y-10.5527
G01 X-5.4788 Y-10.6438
G01 X-5.3646 Y-10.7282
G01 X-5.2455 Y-10.8056
G01 X-5.1221 Y-10.8758
G01 X-4.9946 Y-10.9385
G01 X-4.8636 Y-10.9935
G01 X-4.7296 Y-11.0406
G01 X-4.5931 Y-11.0796
G01 X-4.4544 Y-11.1104
G01 X-4.3141 Y-11.1328
G01 X-4.1728 Y-11.1468
G01 X-4.0309 Y-11.1524
G01 X-1.9568
G01 X2.0107
G01 X4.0847
G01 X4.2266 Y-11.1468
G01 X4.3680 Y-11.1328
G01 X4.5082 Y-11.1104
G01 X4.6469 Y-11.0796
G01 X4.7835 Y-11.0406
G01 X4.9175 Y-10.9935
G01 X5.0484 Y-10.9385
G01 X5.1759 Y-10.8758
G01 X5.2994 Y-10.8056
G01 X5.4184 Y-10.7282
G01 X5.5327 Y-10.6438
G01 X5.6417 Y-10.5527
G01 X5.7450 Y-10.4553
G01 X5.8424 Y-10.3519
G01 X5.9334 Y-10.2429
G01 X6.0178 Y-10.1286
G01 X6.0951 Y-10.0095
G01 X6.1653 Y-9.8860
G01 X6.2279 Y-9.7585
G01 X6.2828 Y-9.6275
G01 X6.3298 Y-9.4935
G01 X6.3688 Y-9.3569
G01 X6.3995 Y-9.2182
G01 X6.4218 Y-9.0779
G01 X6.4358 Y-8.9366
G01 X6.4413 Y-8.7946
G01 X6.4383 Y-8.6526
G01 X6.4269 Y-8.5111
G01 X6.4070 Y-8.3704
G01 X6.3788 Y-8.2312
G01 X6.3423 Y-8.0940
G01 X6.2976 Y-7.9591
G01 X3.2978 Y0.0404
G01 X6.2976 Y8.0399
G01 X6.3423 Y8.1747
G01 X6.3788 Y8.3120
G01 X6.4070 Y8.4512
G01 X6.4269 Y8.5918
G01 X6.4383 Y8.7334
G01 X6.4413 Y8.8754
G01 X6.4358 Y9.0173
G01 X6.4218 Y9.1587
G01 X6.3995 Y9.2989
G01 X6.3688 Y9.4376
G01 X6.3298 Y9.5742
G01 X6.2828 Y9.7082
G01 X6.2279 Y9.8392
G01 X6.1653 Y9.9667
G01 X6.0951 Y10.0902
G01 X6.0178 Y10.2093
G01 X5.9334 Y10.3236
G01 X5.8424 Y10.4326
G01 X5.7450 Y10.5361
G01 X5.6417 Y10.6335
G01 X5.5327 Y10.7245
G01 X5.4184 Y10.8090
G01 X5.2994 Y10.8864
G01 X5.1759 Y10.9566
G01 X5.0484 Y11.0193
G01 X4.9175 Y11.0743
G01 X4.7835 Y11.1213
G01 X4.6469 Y11.1603
G01 X4.5082 Y11.1911
G01 X4.3680 Y11.2135
G01 X4.2266 Y11.2276
G01 X4.0847 Y11.2331
G01 X2.0107
G01 X-1.9568
G01 Z-5.0000
G01 X-4.0309
G01 X-4.1728 Y11.2276
G01 X-4.3141 Y11.2135
G01 X-4.4544 Y11.1911
G01 X-4.5931 Y11.1603
G01 X-4.7296 Y11.1213
G01 X-4.8636 Y11.0743
G01 X-4.9946 Y11.0193
G01 X-5.1221 Y10.9566
G01 X-5.2455 Y10.8864
G01 X-5.3646 Y10.8090
G01 X-5.4788 Y10.7245
G01 X-5.5878 Y10.6335
G01 X-5.6912 Y10.5361
G01 X-5.7886 Y10.4326
G01 X-5.8796 Y10.3236
G01 X-5.9639 Y10.2093
G01 X-6.0413 Y10.0902
G01 X-6.1114 Y9.9667
G01 X-6.1741 Y9.8392
G01 X-6.2290 Y9.7082
G01 X-6.2760 Y9.5742
G01 X-6.3149 Y9.4376
G01 X-6.3456 Y9.2989
G01 X-6.3680 Y9.1587
G01 X-6.3820 Y9.0173
G01 X-6.3875 Y8.8754
G01 X-6.3845 Y8.7334
G01 X-6.3730 Y8.5918
G01 X-6.3532 Y8.4512
G01 X-6.3249 Y8.3120
G01 X-6.2884 Y8.1747
G01 X-6.2438 Y8.0399
G01 X-3.2440 Y0.0404
G01 X-6.2438 Y-7.9591
G01 X-6.2884 Y-8.0940
G01 X-6.3249 Y-8.2312
G01 X-6.3532 Y-8.3704
G01 X-6.3730 Y-8.5111
G01 X-6.3845 Y-8.6526
G01 X-6.3875 Y-8.7946
G01 X-6.3820 Y-8.9366
G01 X-6.3680 Y-9.0779
G01 X-6.3456 Y-9.2182
G01 X-6.3149 Y-9.3569
G01 X-6.2760 Y-9.4935
G01 X-6.2290 Y-9.6275
G01 X-6.1741 Y-9.7585
G01 X-6.1114 Y-9.8860
G01 X-6.0413 Y-10.0095
G01 X-5.9639 Y-10.1286
G01 X-5.8796 Y-10.2429
G01 X-5.7886 Y-10.3519
G01 X-5.6912 Y-10.4553
G01 X-5.5878 Y-10.5527
G01 X-5.4788 Y-10.6438
G01 X-5.3646 Y-10.7282
G01 X-5.2455 Y-10.8056
G01 X-5.1221 Y-10.8758
G01 X-4.9946 Y-10.9385
G01 X-4.8636 Y-10.9935
G01 X-4.7296 Y-11.0406
G01 X-4.5931 Y-11.0796
G01 X-4.4544 Y-11.1104
G01 X-4.3141 Y-11.1328
G01 X-4.1728 Y-11.1468
G01 X-4.0309 Y-11.1524
G01 X-1.9568
G01 X2.0107
G01 X4.0847
G01 X4.2266 Y-11.1468
G01 X4.3680 Y-11.1328
G01 X4.5082 Y-11.1104
G01 X4.6469 Y-11.0796
G01 X4.7835 Y-11.0406
G01 X4.9175 Y-10.9935
G01 X5.0484 Y-10.9385
G01 X5.1759 Y-10.8758
G01 X5.2994 Y-10.8056
G01 X5.4184 Y-10.7282
G01 X5.5327 Y-10.6438
G01 X5.6417 Y-10.5527
G01 X5.7450 Y-10.4553
G01 X5.8424 Y-10.3519
G01 X5.9334 Y-10.2429
G01 X6.0178 Y-10.1286
G01 X6.0951 Y-10.0095
G01 X6.1653 Y-9.8860
G01 X6.2279 Y-9.7585
G01 X6.2828 Y-9.6275
G01 X6.3298 Y-9.4935
G01 X6.3688 Y-9.3569
G01 X6.3995 Y-9.2182
G01 X6.4218 Y-9.0779
G01 X6.4358 Y-8.9366
G01 X6.4413 Y-8.7946
G01 X6.4383 Y-8.6526
G01 X6.4269 Y-8.5111
G01 X6.4070 Y-8.3704
G01 X6.3788 Y-8.2312
G01 X6.3423 Y-8.0940
G01 X6.2976 Y-7.9591
G01 X3.2978 Y0.0404
G01 X6.2976 Y8.0399
G01 X6.3423 Y8.1747
G01 X6.3788 Y8.3120
G01 X6.4070 Y8.4512
G01 X6.4269 Y8.5918
G01 X6.4383 Y8.7334
G01 X6.4413 Y8.8754
G01 X6.4358 Y9.0173
G01 X6.4218 Y9.1587
G01 X6.3995 Y9.2989
G01 X6.3688 Y9.4376
G01 X6.3298 Y9.5742
G01 X6.2828 Y9.7082
G01 X6.2279 Y9.8392
G01 X6.1653 Y9.9667
G01 X6.0951 Y10.0902
G01 X6.0178 Y10.2093
G01 X5.9334 Y10.3236
G01 X5.8424 Y10.4326
G01 X5.7450 Y10.5361
G01 X5.6417 Y10.6335
G01 X5.5327 Y10.7245
G01 X5.4184 Y10.8090
G01 X5.2994 Y10.8864
G01 X5.1759 Y10.9566
G01 X5.0484 Y11.0193
G01 X4.9175 Y11.0743
G01 X4.7835 Y11.1213
G01 X4.6469 Y11.1603
G01 X4.5082 Y11.1911
G01 X4.3680 Y11.2135
G01 X4.2266 Y11.2276
G01 X4.0847 Y11.2331
G01 X2.0107
G01 X-1.9568
G01 Z-6.0000
G01 X-4.0309
G01 X-4.1728 Y11.2276
G01 X-4.3141 Y11.2135
G01 X-4.4544 Y11.1911
G01 X-4.5931 Y11.1603
G01 X-4.7296 Y11.1213
G01 X-4.8636 Y11.0743
G01 X-4.9946 Y11.0193
G01 X-5.1221 Y10.9566
G01 X-5.2455 Y10.8864
G01 X-5.3646 Y10.8090
G01 X-5.4788 Y10.7245
G01 X-5.5878 Y10.6335
G01 X-5.6912 Y10.5361
G01 X-5.7886 Y10.4326
G01 X-5.8796 Y10.3236
G01 X-5.9639 Y10.2093
G01 X-6.0413 Y10.0902
G01 X-6.1114 Y9.9667
G01 X-6.1741 Y9.8392
G01 X-6.2290 Y9.7082
G01 X-6.2760 Y9.5742
G01 X-6.3149 Y9.4376
G01 X-6.3456 Y9.2989
G01 X-6.3680 Y9.1587
G01 X-6.3820 Y9.0173
G01 X-6.3875 Y8.8754
G01 X-6.3845 Y8.7334
G01 X-6.3730 Y8.5918
G01 X-6.3532 Y8.4512
G01 X-6.3249 Y8.3120
G01 X-6.2884 Y8.1747
G01 X-6.2438 Y8.0399
G01 X-3.2440 Y0.0404
G01 X-6.2438 Y-7.9591
G01 X-6.2884 Y-8.0940
G01 X-6.3249 Y-8.2312
G01 X-6.3532 Y-8.3704
G01 X-6.3730 Y-8.5111
G01 X-6.3845 Y-8.6526
G01 X-6.3875 Y-8.7946
G01 X-6.3820 Y-8.9366
G01 X-6.3680 Y-9.0779
G01 X-6.3456 Y-9.2182
G01 X-6.3149 Y-9.3569
G01 X-6.2760 Y-9.4935
G01 X-6.2290 Y-9.6275
G01 X-6.1741 Y-9.7585
G01 X-6.1114 Y-9.8860
G01 X-6.0413 Y-10.0095
G01 X-5.9639 Y-10.1286
G01 X-5.8796 Y-10.2429
G01 X-5.7886 Y-10.3519
G01 X-5.6912 Y-10.4553
G01 X-5.5878 Y-10.5527
G01 X-5.4788 Y-10.6438
G01 X-5.3646 Y-10.7282
G01 X-5.2455 Y-10.8056
G01 X-5.1221 Y-10.8758
G01 X-4.9946 Y-10.9385
G01 X-4.8636 Y-10.9935
G01 X-4.7296 Y-11.0406
G01 X-4.5931 Y-11.0796
G01 X-4.4544 Y-11.1104
G01 X-4.3141 Y-11.1328
G01 X-4.1728 Y-11.1468
G01 X-4.0309 Y-11.1524
G01 X-1.9568
G01 X2.0107
G01 X4.0847
G01 X4.2266 Y-11.1468
G01 X4.3680 Y-11.1328
G01 X4.5082 Y-11.1104
G01 X4.6469 Y-11.0796
G01 X4.7835 Y-11.0406
G01 X4.9175 Y-10.9935
G01 X5.0484 Y-10.9385
G01 X5.1759 Y-10.8758
G01 X5.2994 Y-10.8056
G01 X5.4184 Y-10.7282
G01 X5.5327 Y-10.6438
G01 X5.6417 Y-10.5527
G01 X5.7450 Y-10.4553
G01 X5.8424 Y-10.3519
G01 X5.9334 Y-10.2429
G01 X6.0178 Y-10.1286
G01 X6.0951 Y-10.0095
G01 X6.1653 Y-9.8860
G01 X6.2279 Y-9.7585
G01 X6.2828 Y-9.6275
G01 X6.3298 Y-9.4935
G01 X6.3688 Y-9.3569
G01 X6.3995 Y-9.2182
G01 X6.4218 Y-9.0779
G01 X6.4358 Y-8.9366
G01 X6.4413 Y-8.7946
G01 X6.4383 Y-8.6526
G01 X6.4269 Y-8.5111
G01 X6.4070 Y-8.3704
G01 X6.3788 Y-8.2312
G01 X6.3423 Y-8.0940
G01 X6.2976 Y-7.9591
G01 X3.2978 Y0.0404
G01 X6.2976 Y8.0399
G01 X6.3423 Y8.1747
G01 X6.3788 Y8.3120
G01 X6.4070 Y8.4512
G01 X6.4269 Y8.5918
G01 X6.4383 Y8.7334
G01 X6.4413 Y8.8754
G01 X6.4358 Y9.0173
G01 X6.4218 Y9.1587
G01 X6.3995 Y9.2989
G01 X6.3688 Y9.4376
G01 X6.3298 Y9.5742
G01 X6.2828 Y9.7082
G01 X6.2279 Y9.8392
G01 X6.1653 Y9.9667
G01 X6.0951 Y10.0902
G01 X6.0178 Y10.2093
G01 X5.9334 Y10.3236
G01 X5.8424 Y10.4326
G01 X5.7450 Y10.5361
G01 X5.6417 Y10.6335
G01 X5.5327 Y10.7245
G01 X5.4184 Y10.8090
G01 X5.2994 Y10.8864
G01 X5.1759 Y10.9566
G01 X5.0484 Y11.0193
G01 X4.9175 Y11.0743
G01 X4.7835 Y11.1213
G01 X4.6469 Y11.1603
G01 X4.5082 Y11.1911
G01 X4.3680 Y11.2135
G01 X4.2266 Y11.2276
G01 X4.0847 Y11.2331
G01 X2.0107
G01 X-1.9568
G01 Z-7.0000
G01 X-4.0309
G01 X-4.1728 Y11.2276
G01 X-4.3141 Y11.2135
G01 X-4.4544 Y11.1911
G01 X-4.5931 Y11.1603
G01 X-4.7296 Y11.1213
G01 X-4.8636 Y11.0743
G01 X-4.9946 Y11.0193
G01 X-5.1221 Y10.9566
G01 X-5.2455 Y10.8864
G01 X-5.3646 Y10.8090
G01 X-5.4788 Y10.7245
G01 X-5.5878 Y10.6335
G01 X-5.6912 Y10.5361
G01 X-5.7886 Y10.4326
G01 X-5.8796 Y10.3236
G01 X-5.9639 Y10.2093
G01 X-6.0413 Y10.0902
G01 X-6.1114 Y9.9667
G01 X-6.1741 Y9.8392
G01 X-6.2290 Y9.7082
G01 X-6.2760 Y9.5742
G01 X-6.3149 Y9.4376
G01 X-6.3456 Y9.2989
G01 X-6.3680 Y9.1587
G01 X-6.3820 Y9.0173
G01 X-6.3875 Y8.8754
G01 X-6.3845 Y8.7334
G01 X-6.3730 Y8.5918
G01 X-6.3532 Y8.4512
G01 X-6.3249 Y8.3120
G01 X-6.2884 Y8.1747
G01 X-6.2438 Y8.0399
G01 X-3.2440 Y0.0404
G01 X-6.2438 Y-7.9591
G01 X-6.2884 Y-8.0940
G01 X-6.3249 Y-8.2312
G01 X-6.3532 Y-8.3704
G01 X-6.3730 Y-8.5111
G01 X-6.3845 Y-8.6526
G01 X-6.3875 Y-8.7946
G01 X-6.3820 Y-8.9366
G01 X-6.3680 Y-9.0779
G01 X-6.3456 Y-9.2182
G01 X-6.3149 Y-9.3569
G01 X-6.2760 Y-9.4935
G01 X-6.2290 Y-9.6275
G01 X-6.1741 Y-9.7585
G01 X-6.1114 Y-9.8860
G01 X-6.0413 Y-10.0095
G01 X-5.9639 Y-10.1286
G01 X-5.8796 Y-10.2429
G01 X-5.7886 Y-10.3519
G01 X-5.6912 Y-10.4553
G01 X-5.5878 Y-10.5527
G01 X-5.4788 Y-10.6438
G01 X-5.3646 Y-10.7282
G01 X-5.2455 Y-10.8056
G01 X-5.1221 Y-10.8758
G01 X-4.9946 Y-10.9385
G01 X-4.8636 Y-10.9935
G01 X-4.7296 Y-11.0406
G01 X-4.5931 Y-11.0796
G01 X-4.4544 Y-11.1104
G01 X-4.3141 Y-11.1328
G01 X-4.1728 Y-11.1468
G01 X-4.0309 Y-11.1524
G01 X-1.9568
G01 X2.0107
G01 X4.0847
G01 X4.2266 Y-11.1468
G01 X4.3680 Y-11.1328
G01 X4.5082 Y-11.1104
G01 X4.6469 Y-11.0796
G01 X4.7835 Y-11.0406
G01 X4.9175 Y-10.9935
G01 X5.0484 Y-10.9385
G01 X5.1759 Y-10.8758
G01 X5.2994 Y-10.8056
G01 X5.4184 Y-10.7282
G01 X5.5327 Y-10.6438
G01 X5.6417 Y-10.5527
G01 X5.7450 Y-10.4553
G01 X5.8424 Y-10.3519
G01 X5.9334 Y-10.2429
G01 X6.0178 Y-10.1286
G01 X6.0951 Y-10.0095
G01 X6.1653 Y-9.8860
G01 X6.2279 Y-9.7585
G01 X6.2828 Y-9.6275
G01 X6.3298 Y-9.4935
G01 X6.3688 Y-9.3569
G01 X6.3995 Y-9.2182
G01 X6.4218 Y-9.0779
G01 X6.4358 Y-8.9366
G01 X6.4413 Y-8.7946
G01 X6.4383 Y-8.6526
G01 X6.4269 Y-8.5111
G01 X6.4070 Y-8.3704
G01 X6.3788 Y-8.2312
G01 X6.3423 Y-8.0940
G01 X6.2976 Y-7.9591
G01 X3.2978 Y0.0404
G01 X6.2976 Y8.0399
G01 X6.3423 Y8.1747
G01 X6.3788 Y8.3120
G01 X6.4070 Y8.4512
G01 X6.4269 Y8.5918
G01 X6.4383 Y8.7334
G01 X6.4413 Y8.8754
G01 X6.4358 Y9.0173
G01 X6.4218 Y9.1587
G01 X6.3995 Y9.2989
G01 X6.3688 Y9.4376
G01 X6.3298 Y9.5742
G01 X6.2828 Y9.7082
G01 X6.2279 Y9.8392
G01 X6.1653 Y9.9667
G01 X6.0951 Y10.0902
G01 X6.0178 Y10.2093
G01 X5.9334 Y10.3236
G01 X5.8424 Y10.4326
G01 X5.7450 Y10.5361
G01 X5.6417 Y10.6335
G01 X5.5327 Y10.7245
G01 X5.4184 Y10.8090
G01 X5.2994 Y10.8864
G01 X5.1759 Y10.9566
G01 X5.0484 Y11.0193
G01 X4.9175 Y11.0743
G01 X4.7835 Y11.1213
G01 X4.6469 Y11.1603
G01 X4.5082 Y11.1911
G01 X4.3680 Y11.2135
G01 X4.2266 Y11.2276
G01 X4.0847 Y11.2331
G01 X2.0107
G01 X-1.9568
G01 Z-8.0000
G01 X-4.0309
G01 X-4.1728 Y11.2276
G01 X-4.3141 Y11.2135
G01 X-4.4544 Y11.1911
G01 X-4.5931 Y11.1603
G01 X-4.7296 Y11.1213
G01 X-4.8636 Y11.0743
G01 X-4.9946 Y11.0193
G01 X-5.1221 Y10.9566
G01 X-5.2455 Y10.8864
G01 X-5.3646 Y10.8090
G01 X-5.4788 Y10.7245
G01 X-5.5878 Y10.6335
G01 X-5.6912 Y10.5361
G01 X-5.7886 Y10.4326
G01 X-5.8796 Y10.3236
G01 X-5.9639 Y10.2093
G01 X-6.0413 Y10.0902
G01 X-6.1114 Y9.9667
G01 X-6.1741 Y9.8392
G01 X-6.2290 Y9.7082
G01 X-6.2760 Y9.5742
G01 X-6.3149 Y9.4376
G01 X-6.3456 Y9.2989
G01 X-6.3680 Y9.1587
G01 X-6.3820 Y9.0173
G01 X-6.3875 Y8.8754
G01 X-6.3845 Y8.7334
G01 X-6.3730 Y8.5918
G01 X-6.3532 Y8.4512
G01 X-6.3249 Y8.3120
G01 X-6.2884 Y8.1747
G01 X-6.2438 Y8.0399
G01 X-3.2440 Y0.0404
G01 X-6.2438 Y-7.9591
G01 X-6.2884 Y-8.0940
G01 X-6.3249 Y-8.2312
G01 X-6.3532 Y-8.3704
G01 X-6.3730 Y-8.5111
G01 X-6.3845 Y-8.6526
G01 X-6.3875 Y-8.7946
G01 X-6.3820 Y-8.9366
G01 X-6.3680 Y-9.0779
G01 X-6.3456 Y-9.2182
G01 X-6.3149 Y-9.3569
G01 X-6.2760 Y-9.4935
G01 X-6.2290 Y-9.6275
G01 X-6.1741 Y-9.7585
G01 X-6.1114 Y-9.8860
G01 X-6.0413 Y-10.0095
G01 X-5.9639 Y-10.1286
G01 X-5.8796 Y-10.2429
G01 X-5.7886 Y-10.3519
G01 X-5.6912 Y-10.4553
G01 X-5.5878 Y-10.5527
G01 X-5.4788 Y-10.6438
G01 X-5.3646 Y-10.7282
G01 X-5.2455 Y-10.8056
G01 X-5.1221 Y-10.8758
G01 X-4.9946 Y-10.9385
G01 X-4.8636 Y-10.9935
G01 X-4.7296 Y-11.0406
G01 X-4.5931 Y-11.0796
G01 X-4.4544 Y-11.1104
G01 X-4.3141 Y-11.1328
G01 X-4.1728 Y-11.1468
G01 X-4.0309 Y-11.1524
G01 X-1.9568
G01 X2.0107
G01 X4.0847
G01 X4.2266 Y-11.1468
G01 X4.3680 Y-11.1328
G01 X4.5082 Y-11.1104
G01 X4.6469 Y-11.0796
G01 X4.7835 Y-11.0406
G01 X4.9175 Y-10.9935
G01 X5.0484 Y-10.9385
G01 X5.1759 Y-10.8758
G01 X5.2994 Y-10.8056
G01 X5.4184 Y-10.7282
G01 X5.5327 Y-10.6438
G01 X5.6417 Y-10.5527
G01 X5.7450 Y-10.4553
G01 X5.8424 Y-10.3519
G01 X5.9334 Y-10.2429
G01 X6.0178 Y-10.1286
G01 X6.0951 Y-10.0095
G01 X6.1653 Y-9.8860
G01 X6.2279 Y-9.7585
G01 X6.2828 Y-9.6275
G01 X6.3298 Y-9.4935
G01 X6.3688 Y-9.3569
G01 X6.3995 Y-9.2182
G01 X6.4218 Y-9.0779
G01 X6.4358 Y-8.9366
G01 X6.4413 Y-8.7946
G01 X6.4383 Y-8.6526
G01 X6.4269 Y-8.5111
G01 X6.4070 Y-8.3704
G01 X6.3788 Y-8.2312
G01 X6.3423 Y-8.0940
G01 X6.2976 Y-7.9591
G01 X3.2978 Y0.0404
G01 X6.2976 Y8.0399
G01 X6.3423 Y8.1747
G01 X6.3788 Y8.3120
G01 X6.4070 Y8.4512
G01 X6.4269 Y8.5918
G01 X6.4383 Y8.7334
G01 X6.4413 Y8.8754
G01 X6.4358 Y9.0173
G01 X6.4218 Y9.1587
G01 X6.3995 Y9.2989
G01 X6.3688 Y9.4376
G01 X6.3298 Y9.5742
G01 X6.2828 Y9.7082
G01 X6.2279 Y9.8392
G01 X6.1653 Y9.9667
G01 X6.0951 Y10.0902
G01 X6.0178 Y10.2093
G01 X5.9334 Y10.3236
G01 X5.8424 Y10.4326
G01 X5.7450 Y10.5361
G01 X5.6417 Y10.6335
G01 X5.5327 Y10.7245
G01 X5.4184 Y10.8090
G01 X5.2994 Y10.8864
G01 X5.1759 Y10.9566
G01 X5.0484 Y11.0193
G01 X4.9175 Y11.0743
G01 X4.7835 Y11.1213
G01 X4.6469 Y11.1603
G01 X4.5082 Y11.1911
G01 X4.3680 Y11.2135
G01 X4.2266 Y11.2276
G01 X4.0847 Y11.2331
G01 X2.0107
G01 X-1.9568
G01 Z-9.0000
G01 X-4.0309
G01 X-4.1728 Y11.2276
G01 X-4.3141 Y11.2135
G01 X-4.4544 Y11.1911
G01 X-4.5931 Y11.1603
G01 X-4.7296 Y11.1213
G01 X-4.8636 Y11.0743
G01 X-4.9946 Y11.0193
G01 X-5.1221 Y10.9566
G01 X-5.2455 Y10.8864
G01 X-5.3646 Y10.8090
G01 X-5.4788 Y10.7245
G01 X-5.5878 Y10.6335
G01 X-5.6912 Y10.5361
G01 X-5.7886 Y10.4326
G01 X-5.8796 Y10.3236
G01 X-5.9639 Y10.2093
G01 X-6.0413 Y10.0902
G01 X-6.1114 Y9.9667
G01 X-6.1741 Y9.8392
G01 X-6.2290 Y9.7082
G01 X-6.2760 Y9.5742
G01 X-6.3149 Y9.4376
G01 X-6.3456 Y9.2989
G01 X-6.3680 Y9.1587
G01 X-6.3820 Y9.0173
G01 X-6.3875 Y8.8754
G01 X-6.3845 Y8.7334
G01 X-6.3730 Y8.5918
G01 X-6.3532 Y8.4512
G01 X-6.3249 Y8.3120
G01 X-6.2884 Y8.1747
G01 X-6.2438 Y8.0399
G01 X-3.2440 Y0.0404
G01 X-6.2438 Y-7.9591
G01 X-6.2884 Y-8.0940
G01 X-6.3249 Y-8.2312
G01 X-6.3532 Y-8.3704
G01 X-6.3730 Y-8.5111
G01 X-6.3845 Y-8.6526
G01 X-6.3875 Y-8.7946
G01 X-6.3820 Y-8.9366
G01 X-6.3680 Y-9.0779
G01 X-6.3456 Y-9.2182
G01 X-6.3149 Y-9.3569
G01 X-6.2760 Y-9.4935
G01 X-6.2290 Y-9.6275
G01 X-6.1741 Y-9.7585
G01 X-6.1114 Y-9.8860
G01 X-6.0413 Y-10.0095
G01 X-5.9639 Y-10.1286
G01 X-5.8796 Y-10.2429
G01 X-5.7886 Y-10.3519
G01 X-5.6912 Y-10.4553
G01 X-5.5878 Y-10.5527
G01 X-5.4788 Y-10.6438
G01 X-5.3646 Y-10.7282
G01 X-5.2455 Y-10.8056
G01 X-5.1221 Y-10.8758
G01 X-4.9946 Y-10.9385
G01 X-4.8636 Y-10.9935
G01 X-4.7296 Y-11.0406
G01 X-4.5931 Y-11.0796
G01 X-4.4544 Y-11.1104
G01 X-4.3141 Y-11.1328
G01 X-4.1728 Y-11.1468
G01 X-4.0309 Y-11.1524
G01 X-1.9568
G01 X2.0107
G01 X4.0847
G01 X4.2266 Y-11.1468
G01 X4.3680 Y-11.1328
G01 X4.5082 Y-11.1104
G01 X4.6469 Y-11.0796
G01 X4.7835 Y-11.0406
G01 X4.9175 Y-10.9935
G01 X5.0484 Y-10.9385
G01 X5.1759 Y-10.8758
G01 X5.2994 Y-10.8056
G01 X5.4184 Y-10.7282
G01 X5.5327 Y-10.6438
G01 X5.6417 Y-10.5527
G01 X5.7450 Y-10.4553
G01 X5.8424 Y-10.3519
G01 X5.9334 Y-10.2429
G01 X6.0178 Y-10.1286
G01 X6.0951 Y-10.0095
G01 X6.1653 Y-9.8860
G01 X6.2279 Y-9.7585
G01 X6.2828 Y-9.6275
G01 X6.3298 Y-9.4935
G01 X6.3688 Y-9.3569
G01 X6.3995 Y-9.2182
G01 X6.4218 Y-9.0779
G01 X6.4358 Y-8.9366
G01 X6.4413 Y-8.7946
G01 X6.4383 Y-8.6526
G01 X6.4269 Y-8.5111
G01 X6.4070 Y-8.3704
G01 X6.3788 Y-8.2312
G01 X6.3423 Y-8.0940
G01 X6.2976 Y-7.9591
G01 X3.2978 Y0.0404
G01 X6.2976 Y8.0399
G01 X6.3423 Y8.1747
G01 X6.3788 Y8.3120
G01 X6.4070 Y8.4512
G01 X6.4269 Y8.5918
G01 X6.4383 Y8.7334
G01 X6.4413 Y8.8754
G01 X6.4358 Y9.0173
G01 X6.4218 Y9.1587
G01 X6.3995 Y9.2989
G01 X6.3688 Y9.4376
G01 X6.3298 Y9.5742
G01 X6.2828 Y9.7082
G01 X6.2279 Y9.8392
G01 X6.1653 Y9.9667
G01 X6.0951 Y10.0902
G01 X6.0178 Y10.2093
G01 X5.9334 Y10.3236
G01 X5.8424 Y10.4326
G01 X5.7450 Y10.5361
G01 X5.6417 Y10.6335
G01 X5.5327 Y10.7245
G01 X5.4184 Y10.8090
G01 X5.2994 Y10.8864
G01 X5.1759 Y10.9566
G01 X5.0484 Y11.0193
G01 X4.9175 Y11.0743
G01 X4.7835 Y11.1213
G01 X4.6469 Y11.1603
G01 X4.5082 Y11.1911
G01 X4.3680 Y11.2135
G01 X4.2266 Y11.2276
G01 X4.0847 Y11.2331
G01 X2.0107
G01 X-1.9568
G01 Z-10.0000
G01 X-4.0309
G01 X-4.1728 Y11.2276
G01 X-4.3141 Y11.2135
G01 X-4.4544 Y11.1911
G01 X-4.5931 Y11.1603
G01 X-4.7296 Y11.1213
G01 X-4.8636 Y11.0743
G01 X-4.9946 Y11.0193
G01 X-5.1221 Y10.9566
G01 X-5.2455 Y10.8864
G01 X-5.3646 Y10.8090
G01 X-5.4788 Y10.7245
G01 X-5.5878 Y10.6335
G01 X-5.6912 Y10.5361
G01 X-5.7886 Y10.4326
G01 X-5.8796 Y10.3236
G01 X-5.9639 Y10.2093
G01 X-6.0413 Y10.0902
G01 X-6.1114 Y9.9667
G01 X-6.1741 Y9.8392
G01 X-6.2290 Y9.7082
G01 X-6.2760 Y9.5742
G01 X-6.3149 Y9.4376
G01 X-6.3456 Y9.2989
G01 X-6.3680 Y9.1587
G01 X-6.3820 Y9.0173
G01 X-6.3875 Y8.8754
G01 X-6.3845 Y8.7334
G01 X-6.3730 Y8.5918
G01 X-6.3532 Y8.4512
G01 X-6.3249 Y8.3120
G01 X-6.2884 Y8.1747
G01 X-6.2438 Y8.0399
G01 X-3.2440 Y0.0404
G01 X-6.2438 Y-7.9591
G01 X-6.2884 Y-8.0940
G01 X-6.3249 Y-8.2312
G01 X-6.3532 Y-8.3704
G01 X-6.3730 Y-8.5111
G01 X-6.3845 Y-8.6526
G01 X-6.3875 Y-8.7946
G01 X-6.3820 Y-8.9366
G01 X-6.3680 Y-9.0779
G01 X-6.3456 Y-9.2182
G01 X-6.3149 Y-9.3569
G01 X-6.2760 Y-9.4935
G01 X-6.2290 Y-9.6275
G01 X-6.1741 Y-9.7585
G01 X-6.1114 Y-9.8860
G01 X-6.0413 Y-10.0095
G01 X-5.9639 Y-10.1286
G01 X-5.8796 Y-10.2429
G01 X-5.7886 Y-10.3519
G01 X-5.6912 Y-10.4553
G01 X-5.5878 Y-10.5527
G01 X-5.4788 Y-10.6438
G01 X-5.3646 Y-10.7282
G01 X-5.2455 Y-10.8056
G01 X-5.1221 Y-10.8758
G01 X-4.9946 Y-10.9385
G01 X-4.8636 Y-10.9935
G01 X-4.7296 Y-11.0406
G01 X-4.5931 Y-11.0796
G01 X-4.4544 Y-11.1104
G01 X-4.3141 Y-11.1328
G01 X-4.1728 Y-11.1468
G01 X-4.0309 Y-11.1524
G01 X-1.9568
G01 X2.0107
G01 X4.0847
G01 X4.2266 Y-11.1468
G01 X4.3680 Y-11.1328
G01 X4.5082 Y-11.1104
G01 X4.6469 Y-11.0796
G01 X4.7835 Y-11.0406
G01 X4.9175 Y-10.9935
G01 X5.0484 Y-10.9385
G01 X5.1759 Y-10.8758
G01 X5.2994 Y-10.8056
G01 X5.4184 Y-10.7282
G01 X5.5327 Y-10.6438
G01 X5.6417 Y-10.5527
G01 X5.7450 Y-10.4553
G01 X5.8424 Y-10.3519
G01 X5.9334 Y-10.2429
G01 X6.0178 Y-10.1286
G01 X6.0951 Y-10.0095
G01 X6.1653 Y-9.8860
G01 X6.2279 Y-9.7585
G01 X6.2828 Y-9.6275
G01 X6.3298 Y-9.4935
G01 X6.3688 Y-9.3569
G01 X6.3995 Y-9.2182
G01 X6.4218 Y-9.0779
G01 X6.4358 Y-8.9366
G01 X6.4413 Y-8.7946
G01 X6.4383 Y-8.6526
G01 X6.4269 Y-8.5111
G01 X6.4070 Y-8.3704
G01 X6.3788 Y-8.2312
G01 X6.3423 Y-8.0940
G01 X6.2976 Y-7.9591
G01 X3.2978 Y0.0404
G01 X6.2976 Y8.0399
G01 X6.3423 Y8.1747
G01 X6.3788 Y8.3120
G01 X6.4070 Y8.4512
G01 X6.4269 Y8.5918
G01 X6.4383 Y8.7334
G01 X6.4413 Y8.8754
G01 X6.4358 Y9.0173
G01 X6.4218 Y9.1587
G01 X6.3995 Y9.2989
G01 X6.3688 Y9.4376
G01 X6.3298 Y9.5742
G01 X6.2828 Y9.7082
G01 X6.2279 Y9.8392
G01 X6.1653 Y9.9667
G01 X6.0951 Y10.0902
G01 X6.0178 Y10.2093
G01 X5.9334 Y10.3236
G01 X5.8424 Y10.4326
G01 X5.7450 Y10.5361
G01 X5.6417 Y10.6335
G01 X5.5327 Y10.7245
G01 X5.4184 Y10.8090
G01 X5.2994 Y10.8864
G01 X5.1759 Y10.9566
G01 X5.0484 Y11.0193
G01 X4.9175 Y11.0743
G01 X4.7835 Y11.1213
G01 X4.6469 Y11.1603
G01 X4.5082 Y11.1911
G01 X4.3680 Y11.2135
G01 X4.2266 Y11.2276
G01 X4.0847 Y11.2331
G01 X2.0107
G01 X-1.9568
G01 Z-11.0000
G01 X-4.0309
G01 X-4.1728 Y11.2276
G01 X-4.3141 Y11.2135
G01 X-4.4544 Y11.1911
G01 X-4.5931 Y11.1603
G01 X-4.7296 Y11.1213
G01 X-4.8636 Y11.0743
G01 X-4.9946 Y11.0193
G01 X-5.1221 Y10.9566
G01 X-5.2455 Y10.8864
G01 X-5.3646 Y10.8090
G01 X-5.4788 Y10.7245
G01 X-5.5878 Y10.6335
G01 X-5.6912 Y10.5361
G01 X-5.7886 Y10.4326
G01 X-5.8796 Y10.3236
G01 X-5.9639 Y10.2093
G01 X-6.0413 Y10.0902
G01 X-6.1114 Y9.9667
G01 X-6.1741 Y9.8392
G01 X-6.2290 Y9.7082
G01 X-6.2760 Y9.5742
G01 X-6.3149 Y9.4376
G01 X-6.3456 Y9.2989
G01 X-6.3680 Y9.1587
G01 X-6.3820 Y9.0173
G01 X-6.3875 Y8.8754
G01 X-6.3845 Y8.7334
G01 X-6.3730 Y8.5918
G01 X-6.3532 Y8.4512
G01 X-6.3249 Y8.3120
G01 X-6.2884 Y8.1747
G01 X-6.2438 Y8.0399
G01 X-3.2440 Y0.0404
G01 X-6.2438 Y-7.9591
G01 X-6.2884 Y-8.0940
G01 X-6.3249 Y-8.2312
G01 X-6.3532 Y-8.3704
G01 X-6.3730 Y-8.5111
G01 X-6.3845 Y-8.6526
G01 X-6.3875 Y-8.7946
G01 X-6.3820 Y-8.9366
G01 X-6.3680 Y-9.0779
G01 X-6.3456 Y-9.2182
G01 X-6.3149 Y-9.3569
G01 X-6.2760 Y-9.4935
G01 X-6.2290 Y-9.6275
G01 X-6.1741 Y-9.7585
G01 X-6.1114 Y-9.8860
G01 X-6.0413 Y-10.0095
G01 X-5.9639 Y-10.1286
G01 X-5.8796 Y-10.2429
G01 X-5.7886 Y-10.3519
G01 X-5.6912 Y-10.4553
G01 X-5.5878 Y-10.5527
G01 X-5.4788 Y-10.6438
G01 X-5.3646 Y-10.7282
G01 X-5.2455 Y-10.8056
G01 X-5.1221 Y-10.8758
G01 X-4.9946 Y-10.9385
G01 X-4.8636 Y-10.9935
G01 X-4.7296 Y-11.0406
G01 X-4.5931 Y-11.0796
G01 X-4.4544 Y-11.1104
G01 X-4.3141 Y-11.1328
G01 X-4.1728 Y-11.1468
G01 X-4.0309 Y-11.1524
G01 X-1.9568
G00 Z-10.0000
G01 X2.0107
G01 Z-11.0000
G01 X4.0847
G01 X4.2266 Y-11.1468
G01 X4.3680 Y-11.1328
G01 X4.5082 Y-11.1104
G01 X4.6469 Y-11.0796
G01 X4.7835 Y-11.0406
G01 X4.9175 Y-10.9935
G01 X5.0484 Y-10.9385
G01 X5.1759 Y-10.8758
G01 X5.2994 Y-10.8056
G01 X5.4184 Y-10.7282
G01 X5.5327 Y-10.6438
G01 X5.6417 Y-10.5527
G01 X5.7450 Y-10.4553
G01 X5.8424 Y-10.3519
G01 X5.9334 Y-10.2429
G01 X6.0178 Y-10.1286
G01 X6.0951 Y-10.0095
G01 X6.1653 Y-9.8860
G01 X6.2279 Y-9.7585
G01 X6.2828 Y-9.6275
G01 X6.3298 Y-9.4935
G01 X6.3688 Y-9.3569
G01 X6.3995 Y-9.2182
G01 X6.4218 Y-9.0779
G01 X6.4358 Y-8.9366
G01 X6.4413 Y-8.7946
G01 X6.4383 Y-8.6526
G01 X6.4269 Y-8.5111
G01 X6.4070 Y-8.3704
G01 X6.3788 Y-8.2312
G01 X6.3423 Y-8.0940
G01 X6.2976 Y-7.9591
G01 X3.2978 Y0.0404
G01 X6.2976 Y8.0399
G01 X6.3423 Y8.1747
G01 X6.3788 Y8.3120
G01 X6.4070 Y8.4512
G01 X6.4269 Y8.5918
G01 X6.4383 Y8.7334
G01 X6.4413 Y8.8754
G01 X6.4358 Y9.0173
G01 X6.4218 Y9.1587
G01 X6.3995 Y9.2989
G01 X6.3688 Y9.4376
G01 X6.3298 Y9.5742
G01 X6.2828 Y9.7082
G01 X6.2279 Y9.8392
G01 X6.1653 Y9.9667
G01 X6.0951 Y10.0902
G01 X6.0178 Y10.2093
G01 X5.9334 Y10.3236
G01 X5.8424 Y10.4326
G01 X5.7450 Y10.5361
G01 X5.6417 Y10.6335
G01 X5.5327 Y10.7245
G01 X5.4184 Y10.8090
G01 X5.2994 Y10.8864
G01 X5.1759 Y10.9566
G01 X5.0484 Y11.0193
G01 X4.9175 Y11.0743
G01 X4.7835 Y11.1213
G01 X4.6469 Y11.1603
G01 X4.5082 Y11.1911
G01 X4.3680 Y11.2135
G01 X4.2266 Y11.2276
G01 X4.0847 Y11.2331
G01 X2.0107
G00 Z-10.0000
G01 X-1.9568
G00 Z-10.5000
G01 Z-11.0000
G01 Z-12.0000
G01 X-4.0309
G01 X-4.1728 Y11.2276
G01 X-4.3141 Y11.2135
G01 X-4.4544 Y11.1911
G01 X-4.5931 Y11.1603
G01 X-4.7296 Y11.1213
G01 X-4.8636 Y11.0743
G01 X-4.9946 Y11.0193
G01 X-5.1221 Y10.9566
G01 X-5.2455 Y10.8864
G01 X-5.3646 Y10.8090
G01 X-5.4788 Y10.7245
G01 X-5.5878 Y10.6335
G01 X-5.6912 Y10.5361
G01 X-5.7886 Y10.4326
G01 X-5.8796 Y10.3236
G01 X-5.9639 Y10.2093
G01 X-6.0413 Y10.0902
G01 X-6.1114 Y9.9667
G01 X-6.1741 Y9.8392
G01 X-6.2290 Y9.7082
G01 X-6.2760 Y9.5742
G01 X-6.3149 Y9.4376
G01 X-6.3456 Y9.2989
G01 X-6.3680 Y9.1587
G01 X-6.3820 Y9.0173
G01 X-6.3875 Y8.8754
G01 X-6.3845 Y8.7334
G01 X-6.3730 Y8.5918
G01 X-6.3532 Y8.4512
G01 X-6.3249 Y8.3120
G01 X-6.2884 Y8.1747
G01 X-6.2438 Y8.0399
G01 X-3.2440 Y0.0404
G01 X-6.2438 Y-7.9591
G01 X-6.2884 Y-8.0940
G01 X-6.3249 Y-8.2312
G01 X-6.3532 Y-8.3704
G01 X-6.3730 Y-8.5111
G01 X-6.3845 Y-8.6526
G01 X-6.3875 Y-8.7946
G01 X-6.3820 Y-8.9366
G01 X-6.3680 Y-9.0779
G01 X-6.3456 Y-9.2182
G01 X-6.3149 Y-9.3569
G01 X-6.2760 Y-9.4935
G01 X-6.2290 Y-9.6275
G01 X-6.1741 Y-9.7585
G01 X-6.1114 Y-9.8860
G01 X-6.0413 Y-10.0095
G01 X-5.9639 Y-10.1286
G01 X-5.8796 Y-10.2429
G01 X-5.7886 Y-10.3519
G01 X-5.6912 Y-10.4553
G01 X-5.5878 Y-10.5527
G01 X-5.4788 Y-10.6438
G01 X-5.3646 Y-10.7282
G01 X-5.2455 Y-10.8056
G01 X-5.1221 Y-10.8758
G01 X-4.9946 Y-10.9385
G01 X-4.8636 Y-10.9935
G01 X-4.7296 Y-11.0406
G01 X-4.5931 Y-11.0796
G01 X-4.4544 Y-11.1104
G01 X-4.3141 Y-11.1328
G01 X-4.1728 Y-11.1468
G01 X-4.0309 Y-11.1524
G01 X-1.9568
G00 Z-10.0000
G01 X2.0107
G00 Z-10.5000
G01 Z-11.0000
G01 Z-12.0000
G01 X4.0847
G01 X4.2266 Y-11.1468
G01 X4.3680 Y-11.1328
G01 X4.5082 Y-11.1104
G01 X4.6469 Y-11.0796
G01 X4.7835 Y-11.0406
G01 X4.9175 Y-10.9935
G01 X5.0484 Y-10.9385
G01 X5.1759 Y-10.8758
G01 X5.2994 Y-10.8056
G01 X5.4184 Y-10.7282
G01 X5.5327 Y-10.6438
G01 X5.6417 Y-10.5527
G01 X5.7450 Y-10.4553
G01 X5.8424 Y-10.3519
G01 X5.9334 Y-10.2429
G01 X6.0178 Y-10.1286
G01 X6.0951 Y-10.0095
G01 X6.1653 Y-9.8860
G01 X6.2279 Y-9.7585
G01 X6.2828 Y-9.6275
G01 X6.3298 Y-9.4935
G01 X6.3688 Y-9.3569
G01 X6.3995 Y-9.2182
G01 X6.4218 Y-9.0779
G01 X6.4358 Y-8.9366
G01 X6.4413 Y-8.7946
G01 X6.4383 Y-8.6526
G01 X6.4269 Y-8.5111
G01 X6.4070 Y-8.3704
G01 X6.3788 Y-8.2312
G01 X6.3423 Y-8.0940
G01 X6.2976 Y-7.9591
G01 X3.2978 Y0.0404
G01 X6.2976 Y8.0399
G01 X6.3423 Y8.1747
G01 X6.3788 Y8.3120
G01 X6.4070 Y8.4512
G01 X6.4269 Y8.5918
G01 X6.4383 Y8.7334
G01 X6.4413 Y8.8754
G01 X6.4358 Y9.0173
G01 X6.4218 Y9.1587
G01 X6.3995 Y9.2989
G01 X6.3688 Y9.4376
G01 X6.3298 Y9.5742
G01 X6.2828 Y9.7082
G01 X6.2279 Y9.8392
G01 X6.1653 Y9.9667
G01 X6.0951 Y10.0902
G01 X6.0178 Y10.2093
G01 X5.9334 Y10.3236
G01 X5.8424 Y10.4326
G01 X5.7450 Y10.5361
G01 X5.6417 Y10.6335
G01 X5.5327 Y10.7245
G01 X5.4184 Y10.8090
G01 X5.2994 Y10.8864
G01 X5.1759 Y10.9566
G01 X5.0484 Y11.0193
G01 X4.9175 Y11.0743
G01 X4.7835 Y11.1213
G01 X4.6469 Y11.1603
G01 X4.5082 Y11.1911
G01 X4.3680 Y11.2135
G01 X4.2266 Y11.2276
G01 X4.0847 Y11.2331
G01 X2.0107
G00 Z-10.0000
G01 X-1.9568
G00 Z5.0000
G00 X0.0000 Y0.0000

M05
M30
